; File post-processed by the CEL Tech Roboxiser on Tue 2 Dec 2014 22:41:42
; null
;
; Pre print gcode
M139			;Set & heat first layer Bed temp.
M83				;Relative Extrusion
G90 			;Absolute positioning
T0				;Select Nozzle 0 (T0)
G0 B0			;Close Nozzle
G28 Z			;Home Z
G0 Z10			;Move Z up
G28 X Y			;Home X, then Y

M190			;Wait for Bed to get to temp.
M103			;Set & heat first layer nozzle temp.
M109			;Wait for Nozzle to get to temp.
M170			;Set Ambient temp.

T0				;Select Nozzle 0 (T0)
G0 X30 Y75		;Level Gantry Position 1
G28 Z			;Home Z
G0 Z5 			;Move up 5mm
G0 X190 Y75		;Level Gantry Position 2
G28 Z?			;Probe Z
G38 			;Level gantry
G0 X113 Y20		;Bed levelling Y Position 1
G28 Z			;Home Z
G0 Z5 			;Move up 5mm
G0 X113 Y130	;Bed levelling Y Position 2
G28 Z?			;Probe Z
G39 S0.5		;level bed and washout transform over the first 2mm

G28 Y
G0 X15 Z10

G36 E500 F1000
;Short Purge
G0 Z2
G1 Y-3.5 F400
T0
G0 B2
G1 E30 X35 F250
G0 B0
G0 Z5
G0 Y5

G36 E500 F1000
G0 Z8
T1
G28 Y
G0 Z3
G1 Y-3.5 F400
G0 B2
G1 E35 X15 F300
G0 B0
G0 Z5
G0 Y5
G0 X105 Y75

G1 E3 F1000
M129			;Head LED on
; End of Pre print gcode
G90 			;Absolute positioning
T0 ; Initialise using nozzle 0
M83 ; Relative Extrusion
M103 ; Set & heat first layer nozzle temp.
M170 ; Set Ambient temp.
T1 ;  - force to nozzle 1 on first layer
G1 Z0.6 F18000 ;  move to next layer (3)
G1 X90.1 Y96.885 F18000 ; ->132.3053786699543  ;  move to first perimeter point
G1 B1.0 ; Open and replenish from extrusion
G1 X90.1 Y93.068 E0.51996 D0 F840 ; ->L3.8170000000000073 ->E0.51996 ->D0.0 ;  perimeter
G1 X89.948 Y92.11 E0.13225 D0 ; ->L0.969983505014388 ->E0.13225 ->D0.0 ;  perimeter
G1 X89.493 Y91.216 E0.13672 D0 ; ->L1.0031256152646129 ->E0.13672 ->D0.0 ;  perimeter
G1 X88.784 Y90.507 E0.13649 D0 ; ->L1.002677415722509 ->E0.13649 ->D0.0 ;  perimeter
G1 X87.89 Y90.052 E0.13672 D0 ; ->L1.0031256152646129 ->E0.13672 ->D0.0 ;  perimeter
G1 X86.932 Y89.9 E0.13225 D0 ; ->L0.969983505014388 ->E0.13225 ->D0.0 ;  perimeter
G1 X82.532 Y89.9 E0.59953 D0 ; ->L4.400000000000006 ->E0.59953 ->D0.0 ;  perimeter
G1 X81.76 Y89.778 E0.10644 D0 ; ->L0.7815804501137338 ->E0.10644 ->D0.0 ;  perimeter
G1 X81.092 Y89.438 E0.1021 D0 ; ->L0.7495491978516226 ->E0.1021 ->D0.0 ;  perimeter
G1 X80.562 Y88.908 E0.1021 D0 ; ->L0.7495331880577419 ->E0.1021 ->D0.0 ;  perimeter
G1 X80.222 Y88.24 E0.1021 D0 ; ->L0.7495491978516226 ->E0.1021 ->D0.0 ;  perimeter
G1 X80.105 Y87.5 E0.1021 D0 ; ->L0.7491922316735473 ->E0.1021 ->D0.0 ;  perimeter
G1 X80.222 Y86.76 E0.1021 D0 ; ->L0.7491922316735473 ->E0.1021 ->D0.0 ;  perimeter
G1 X80.562 Y86.092 E0.1021 D0 ; ->L0.7495491978516226 ->E0.1021 ->D0.0 ;  perimeter
G1 X81.092 Y85.562 E0.1021 D0 ; ->L0.7495331880577419 ->E0.1021 ->D0.0 ;  perimeter
G1 X81.76 Y85.222 E0.1021 D0 ; ->L0.7495491978516226 ->E0.1021 ->D0.0 ;  perimeter
G1 X82.532 Y85.1 E0.10644 D0 ; ->L0.7815804501137338 ->E0.10644 ->D0.0 ;  perimeter
G1 X86.932 Y85.1 E0.59953 D0 ; ->L4.400000000000006 ->E0.59953 ->D0.0 ;  perimeter
G1 X87.89 Y84.948 E0.13225 D0 ; ->L0.969983505014388 ->E0.13225 ->D0.0 ;  perimeter
G1 X88.784 Y84.493 E0.13672 D0 ; ->L1.0031256152646129 ->E0.13672 ->D0.0 ;  perimeter
G1 X89.493 Y83.784 E0.13649 D0 ; ->L1.002677415722509 ->E0.13649 ->D0.0 ;  perimeter
G1 X89.948 Y82.89 E0.13672 D0 ; ->L1.0031256152646129 ->E0.13672 ->D0.0 ;  perimeter
G1 X90.1 Y81.932 E0.13225 D0 ; ->L0.969983505014388 ->E0.13225 ->D0.0 ;  perimeter
G1 X90.1 Y77.532 E0.59953 D0 ; ->L4.400000000000006 ->E0.59953 ->D0.0 ;  perimeter
G1 X90.222 Y76.76 E0.10644 D0 ; ->L0.7815804501137338 ->E0.10644 ->D0.0 ;  perimeter
G1 X90.562 Y76.092 E0.1021 D0 ; ->L0.7495491978516226 ->E0.1021 ->D0.0 ;  perimeter
G1 X91.092 Y75.562 E0.1021 D0 ; ->L0.7495331880577419 ->E0.1021 ->D0.0 ;  perimeter
G1 X91.76 Y75.222 E0.1021 D0 ; ->L0.7495491978516226 ->E0.1021 ->D0.0 ;  perimeter
G1 X92.5 Y75.105 E0.1021 D0 ; ->L0.7491922316735473 ->E0.1021 ->D0.0 ;  perimeter
G1 X93.24 Y75.222 E0.1021 D0 ; ->L0.7491922316735473 ->E0.1021 ->D0.0 ;  perimeter
G1 X93.908 Y75.562 E0.1021 D0 F840 ; ->L0.7495491978516226 ->E0.1021 ->D0.0 ;  perimeter
G1 X94.438 Y76.092 E0.1021 D0 ; ->L0.7495331880577419 ->E0.1021 ->D0.0 ;  perimeter
G1 X94.778 Y76.76 E0.1021 D0 ; ->L0.7495491978516226 ->E0.1021 ->D0.0 ;  perimeter
G1 X94.9 Y77.532 E0.10644 D0 ; ->L0.7815804501137338 ->E0.10644 ->D0.0 ;  perimeter
G1 X94.9 Y81.932 E0.59953 D0 ; ->L4.400000000000006 ->E0.59953 ->D0.0 ;  perimeter
G1 X95.052 Y82.89 E0.13225 D0 ; ->L0.969983505014388 ->E0.13225 ->D0.0 ;  perimeter
G1 X95.507 Y83.784 E0.13672 D0 ; ->L1.0031256152646129 ->E0.13672 ->D0.0 ;  perimeter
G1 X96.216 Y84.493 E0.13649 D0 ; ->L1.002677415722509 ->E0.13649 ->D0.0 ;  perimeter
G1 X97.11 Y84.948 E0.13672 D0 ; ->L1.0031256152646129 ->E0.13672 ->D0.0 ;  perimeter
G1 X98.068 Y85.1 E0.13225 D0 ; ->L0.969983505014388 ->E0.13225 ->D0.0 ;  perimeter
G1 X102.468 Y85.1 E0.59953 D0 ; ->L4.400000000000006 ->E0.59953 ->D0.0 ;  perimeter
G1 X103.428 Y85.252 E0.13241 D0 ; ->L0.9719588468654361 ->E0.13241 ->D0.0 ;  perimeter
G1 X103.428 Y85.318 E0.009 D0 ; ->L0.0660000000000025 ->E0.009 ->D0.0 ;  perimeter
G1 X103.908 Y85.562 E0.07332 D0 ; ->L0.5384570549263922 ->E0.07332 ->D0.0 ;  perimeter
G1 X104.438 Y86.092 E0.1021 D0 ; ->L0.7495331880577419 ->E0.1021 ->D0.0 ;  perimeter
G1 X104.778 Y86.76 E0.1021 D0 ; ->L0.7495491978516226 ->E0.1021 ->D0.0 ;  perimeter
G1 X104.895 Y87.5 E0.1021 D0 ; ->L0.7491922316735473 ->E0.1021 ->D0.0 ;  perimeter
G1 X104.778 Y88.24 E0.1021 D0 ; ->L0.7491922316735473 ->E0.1021 ->D0.0 ;  perimeter
G1 X104.438 Y88.908 E0.1021 D0 ; ->L0.7495491978516226 ->E0.1021 ->D0.0 ;  perimeter
G1 X103.908 Y89.438 E0.1021 D0 ; ->L0.7495331880577419 ->E0.1021 ->D0.0 ;  perimeter
G1 X103.24 Y89.778 E0.1021 D0 ; ->L0.7495491978516226 ->E0.1021 ->D0.0 ;  perimeter
G1 X102.468 Y89.9 E0.10645 D0 ; ->L0.7815804501137338 ->E0.10645 ->D0.0 ;  perimeter
G1 X98.068 Y89.9 E0.59953 D0 ; ->L4.400000000000006 ->E0.59953 ->D0.0 ;  perimeter
G1 X97.11 Y90.052 E0.13225 D0 ; ->L0.969983505014388 ->E0.13225 ->D0.0 ;  perimeter
G1 X96.216 Y90.507 E0.13672 D0 ; ->L1.0031256152646129 ->E0.13672 ->D0.0 ;  perimeter
G1 X95.507 Y91.216 E0.13649 D0 ; ->L1.002677415722509 ->E0.13649 ->D0.0 ;  perimeter
G1 X95.052 Y92.11 E0.13672 D0 ; ->L1.0031256152646129 ->E0.13672 ->D0.0 ;  perimeter
G1 X94.9 Y93.068 E0.13225 D0 ; ->L0.969983505014388 ->E0.13225 ->D0.0 ;  perimeter
G1 X94.9 Y97.468 E0.59953 D0 ; ->L4.400000000000006 ->E0.59953 ->D0.0 ;  perimeter
G1 X94.778 Y98.24 E0.10645 D0 ; ->L0.7815804501137338 ->E0.10645 ->D0.0 ;  perimeter
G1 X94.438 Y98.908 E0.1021 D0 ; ->L0.7495491978516226 ->E0.1021 ->D0.0 ;  perimeter
G1 X93.908 Y99.438 E0.1021 D0 ; ->L0.7495331880577419 ->E0.1021 ->D0.0 ;  perimeter
G1 X93.24 Y99.778 E0.1021 D0 ; ->L0.7495491978516226 ->E0.1021 ->D0.0 ;  perimeter
G1 X92.5 Y99.895 E0.1021 D0 ; ->L0.7491922316735473 ->E0.1021 ->D0.0 ;  perimeter
G1 X91.76 Y99.778 E0.1021 D0 ; ->L0.7491922316735473 ->E0.1021 ->D0.0 ;  perimeter
G1 X91.092 Y99.438 E0.1021 D0 ; ->L0.7495491978516226 ->E0.1021 ->D0.0 ;  perimeter
G1 X90.562 Y98.908 E0.1021 D0 ; ->L0.7495331880577419 ->E0.1021 ->D0.0 ;  perimeter
G1 X90.222 Y98.24 E0.1021 D0 ; ->L0.7495491978516226 ->E0.1021 ->D0.0 ;  perimeter
G1 X90.1 Y97.468 E0.10644 D0 ; ->L0.7815804501137338 ->E0.10644 ->D0.0 ;  perimeter
G1 X90.1 Y97.005 E0.06322 D0 ; ->L0.46300000000000807 ->E0.06322 ->D0.0 ;  perimeter
G1 X90.1 Y97.468 B0.894 F1500 ; ->L0.0  ; ->E0.10644  ; Wipe - reverse start Normal close
G1 X90.222 Y98.24 B0.791 F1500 ; ->L0.0  ; ->E0.1021  ; Wipe - reverse in progress Normal close
G1 X90.562 Y98.908 B0.689 F1500 ; ->L0.0  ; ->E0.1021  ; Wipe - reverse in progress Normal close
G1 X91.092 Y99.438 B0.587 F1500 ; ->L0.0  ; ->E0.1021  ; Wipe - reverse in progress Normal close
G1 X91.76 Y99.778 B0.485 F1500 ; ->L0.0  ; ->E0.1021  ; Wipe - reverse in progress Normal close
G1 X92.5 Y99.895 B0.383 F1500 ; ->L0.0  ; ->E0.1021  ; Wipe - reverse in progress Normal close
G1 X93.24 Y99.778 B0.281 F1500 ; ->L0.0  ; ->E0.1021  ; Wipe - reverse in progress Normal close
G1 X93.908 Y99.438 B0.179 F1500 ; ->L0.0  ; ->E0.1021  ; Wipe - reverse in progress Normal close
G1 X94.438 Y98.908 B0.077 F1500 ; ->L0.0  ; ->E0.1021  ; Wipe - reverse in progress Normal close
G1 X94.778 Y98.24 B0 F1500 ; ->L0.0  ; ->E0.07676000000000016  ; Wipe - reverse end Normal close
G1 X80.696 Y87.137 F18000 ; ->13.631311015452615  ;  move to first perimeter point
G1 B1.0 E1 F400 ; Open and replenish from extrusion
G1 X80.9 Y86.576 E0.04141 D0 F1500 ; ->L0.5969396954467101 ->E0.04141 ->D0.0 ;  perimeter
G1 X81.313 Y86.084 E0.04455 D0 ; ->L0.6423651609481851 ->E0.04455 ->D0.0 ;  perimeter
G1 X81.868 Y85.764 E0.04449 D0 ; ->L0.6406442070291407 ->E0.04449 ->D0.0 ;  perimeter
G1 X82.513 Y85.65 E0.04545 D0 ; ->L0.6549969465577766 ->E0.04545 ->D0.0 ;  perimeter
G1 X86.91 Y85.65 E0.30501 D0 ; ->L4.396999999999991 ->E0.30501 ->D0.0 ;  perimeter
G1 X87.871 Y85.523 E0.06722 D0 ; ->L0.9693554559602992 ->E0.06722 ->D0.0 ;  perimeter
G1 X88.776 Y85.148 E0.06798 D0 ; ->L0.9796172722037939 ->E0.06798 ->D0.0 ;  perimeter
G1 X89.553 Y84.553 E0.06791 D0 ; ->L0.9786490688699399 ->E0.06791 ->D0.0 ;  perimeter
G1 X90.148 Y83.776 E0.06791 D0 ; ->L0.9786490688699399 ->E0.06791 ->D0.0 ;  perimeter
G1 X90.523 Y82.871 E0.06798 D0 ; ->L0.9796172722037939 ->E0.06798 ->D0.0 ;  perimeter
G1 X90.65 Y81.91 E0.06722 D0 ; ->L0.9693554559602992 ->E0.06722 ->D0.0 ;  perimeter
G1 X90.65 Y77.513 E0.30501 D0 ; ->L4.396999999999991 ->E0.30501 ->D0.0 ;  perimeter
G1 X90.764 Y76.868 E0.04545 D0 ; ->L0.6549969465577766 ->E0.04545 ->D0.0 ;  perimeter
G1 X91.084 Y76.313 E0.04449 D0 ; ->L0.6406442070291407 ->E0.04449 ->D0.0 ;  perimeter
G1 X91.576 Y75.9 E0.04455 D0 ; ->L0.6423651609481851 ->E0.04455 ->D0.0 ;  perimeter
G1 X92.179 Y75.681 E0.04447 D0 ; ->L0.6415372163795441 ->E0.04447 ->D0.0 ;  perimeter
G1 X92.821 Y75.681 E0.04456 D0 ; ->L0.6419999999999959 ->E0.04456 ->D0.0 ;  perimeter
G1 X92.905 Y75.711 E0.00619 D0 ; ->L0.08919641248391441 ->E0.00619 ->D0.0 ;  perimeter
G1 X93.424 Y75.9 E0.03828 D0 F1500 ; ->L0.5523422851819408 ->E0.03828 ->D0.0 ;  perimeter
G1 X93.916 Y76.313 E0.04455 D0 ; ->L0.6423651609481851 ->E0.04455 ->D0.0 ;  perimeter
G1 X94.236 Y76.868 E0.04449 D0 ; ->L0.6406442070291407 ->E0.04449 ->D0.0 ;  perimeter
G1 X94.35 Y77.513 E0.04545 D0 ; ->L0.6549969465577766 ->E0.04545 ->D0.0 ;  perimeter
G1 X94.35 Y81.91 E0.30501 D0 ; ->L4.396999999999991 ->E0.30501 ->D0.0 ;  perimeter
G1 X94.477 Y82.871 E0.06722 D0 ; ->L0.9693554559602992 ->E0.06722 ->D0.0 ;  perimeter
G1 X94.852 Y83.776 E0.06798 D0 ; ->L0.9796172722037939 ->E0.06798 ->D0.0 ;  perimeter
G1 X95.447 Y84.553 E0.06791 D0 ; ->L0.9786490688699399 ->E0.06791 ->D0.0 ;  perimeter
G1 X96.224 Y85.148 E0.06791 D0 ; ->L0.9786490688699399 ->E0.06791 ->D0.0 ;  perimeter
G1 X97.129 Y85.523 E0.06798 D0 ; ->L0.9796172722037939 ->E0.06798 ->D0.0 ;  perimeter
G1 X98.09 Y85.65 E0.06722 D0 ; ->L0.9693554559602992 ->E0.06722 ->D0.0 ;  perimeter
G1 X102.487 Y85.65 E0.30501 D0 ; ->L4.396999999999991 ->E0.30501 ->D0.0 ;  perimeter
G1 X103.132 Y85.764 E0.04545 D0 ; ->L0.6549969465577766 ->E0.04545 ->D0.0 ;  perimeter
G1 X103.687 Y86.084 E0.04449 D0 ; ->L0.6406442070291407 ->E0.04449 ->D0.0 ;  perimeter
G1 X104.1 Y86.576 E0.04455 D0 ; ->L0.6423651609481851 ->E0.04455 ->D0.0 ;  perimeter
G1 X104.319 Y87.179 E0.04447 D0 ; ->L0.6415372163795441 ->E0.04447 ->D0.0 ;  perimeter
G1 X104.319 Y87.821 E0.04456 D0 ; ->L0.6419999999999959 ->E0.04456 ->D0.0 ;  perimeter
G1 X104.1 Y88.424 E0.04447 D0 ; ->L0.6415372163795441 ->E0.04447 ->D0.0 ;  perimeter
G1 X103.687 Y88.916 E0.04455 D0 ; ->L0.6423651609481851 ->E0.04455 ->D0.0 ;  perimeter
G1 X103.132 Y89.236 E0.04449 D0 ; ->L0.6406442070291407 ->E0.04449 ->D0.0 ;  perimeter
G1 X102.487 Y89.35 E0.04545 D0 ; ->L0.6549969465577766 ->E0.04545 ->D0.0 ;  perimeter
G1 X98.09 Y89.35 E0.30501 D0 ; ->L4.396999999999991 ->E0.30501 ->D0.0 ;  perimeter
G1 X97.129 Y89.477 E0.06722 D0 ; ->L0.9693554559602992 ->E0.06722 ->D0.0 ;  perimeter
G1 X96.224 Y89.852 E0.06798 D0 ; ->L0.9796172722037939 ->E0.06798 ->D0.0 ;  perimeter
G1 X95.447 Y90.447 E0.06791 D0 ; ->L0.9786490688699399 ->E0.06791 ->D0.0 ;  perimeter
G1 X94.852 Y91.224 E0.06791 D0 ; ->L0.9786490688699399 ->E0.06791 ->D0.0 ;  perimeter
G1 X94.477 Y92.129 E0.06798 D0 ; ->L0.9796172722037939 ->E0.06798 ->D0.0 ;  perimeter
G1 X94.35 Y93.09 E0.06722 D0 ; ->L0.9693554559602992 ->E0.06722 ->D0.0 ;  perimeter
G1 X94.35 Y97.487 E0.30501 D0 ; ->L4.396999999999991 ->E0.30501 ->D0.0 ;  perimeter
G1 X94.236 Y98.132 E0.04545 D0 ; ->L0.6549969465577766 ->E0.04545 ->D0.0 ;  perimeter
G1 X93.916 Y98.687 E0.04449 D0 ; ->L0.6406442070291407 ->E0.04449 ->D0.0 ;  perimeter
G1 X93.424 Y99.1 E0.04455 D0 ; ->L0.6423651609481851 ->E0.04455 ->D0.0 ;  perimeter
G1 X92.821 Y99.319 E0.04447 D0 ; ->L0.6415372163795441 ->E0.04447 ->D0.0 ;  perimeter
G1 X92.179 Y99.319 E0.04456 D0 ; ->L0.6419999999999959 ->E0.04456 ->D0.0 ;  perimeter
G1 X91.576 Y99.1 E0.04447 D0 ; ->L0.6415372163795441 ->E0.04447 ->D0.0 ;  perimeter
G1 X91.084 Y98.687 E0.04455 D0 ; ->L0.6423651609481851 ->E0.04455 ->D0.0 ;  perimeter
G1 X90.764 Y98.132 E0.04449 D0 ; ->L0.6406442070291407 ->E0.04449 ->D0.0 ;  perimeter
G1 X90.65 Y97.487 E0.04545 D0 ; ->L0.6549969465577766 ->E0.04545 ->D0.0 ;  perimeter
G1 X90.65 Y93.09 E0.30501 D0 ; ->L4.396999999999991 ->E0.30501 ->D0.0 ;  perimeter
G1 X90.523 Y92.129 E0.06722 D0 ; ->L0.9693554559602992 ->E0.06722 ->D0.0 ;  perimeter
G1 X90.148 Y91.224 E0.06798 D0 ; ->L0.9796172722037939 ->E0.06798 ->D0.0 ;  perimeter
G1 X89.553 Y90.447 E0.06791 D0 ; ->L0.9786490688699399 ->E0.06791 ->D0.0 ;  perimeter
G1 X88.776 Y89.852 E0.06791 D0 ; ->L0.9786490688699399 ->E0.06791 ->D0.0 ;  perimeter
G1 X87.871 Y89.477 E0.06798 D0 ; ->L0.9796172722037939 ->E0.06798 ->D0.0 ;  perimeter
G1 X86.91 Y89.35 E0.06722 D0 ; ->L0.9693554559602992 ->E0.06722 ->D0.0 ;  perimeter
G1 X82.513 Y89.35 E0.30501 D0 ; ->L4.396999999999991 ->E0.30501 ->D0.0 ;  perimeter
G1 X81.868 Y89.236 E0.04545 D0 ; ->L0.6549969465577766 ->E0.04545 ->D0.0 ;  perimeter
G1 X81.313 Y88.916 E0.04449 D0 ; ->L0.6406442070291407 ->E0.04449 ->D0.0 ;  perimeter
G1 X80.9 Y88.424 E0.04455 D0 ; ->L0.6423651609481851 ->E0.04455 ->D0.0 ;  perimeter
G1 X80.681 Y87.821 E0.04447 D0 ; ->L0.6415372163795441 ->E0.04447 ->D0.0 ;  perimeter
G1 X80.681 Y87.255 E0.0393 D0 ; ->L0.5660000000000025 ->E0.0393 ->D0.0 ;  perimeter
G1 X80.681 Y87.821 B0.956 F1500 ; ->L0.0  ; ->E0.04447  ; Wipe - reverse start Normal close
G1 X80.9 Y88.424 B0.911 F1500 ; ->L0.0  ; ->E0.04455  ; Wipe - reverse in progress Normal close
G1 X81.313 Y88.916 B0.866 F1500 ; ->L0.0  ; ->E0.04449  ; Wipe - reverse in progress Normal close
G1 X81.868 Y89.236 B0.821 F1500 ; ->L0.0  ; ->E0.04545  ; Wipe - reverse in progress Normal close
G1 X82.513 Y89.35 B0.516 F1500 ; ->L0.0  ; ->E0.30501  ; Wipe - reverse in progress Normal close
G1 X86.91 Y89.35 B0.449 F1500 ; ->L0.0  ; ->E0.06722  ; Wipe - reverse in progress Normal close
G1 X87.871 Y89.477 B0.381 F1500 ; ->L0.0  ; ->E0.06798  ; Wipe - reverse in progress Normal close
G1 X88.776 Y89.852 B0.313 F1500 ; ->L0.0  ; ->E0.06791  ; Wipe - reverse in progress Normal close
G1 X89.553 Y90.447 B0.245 F1500 ; ->L0.0  ; ->E0.06791  ; Wipe - reverse in progress Normal close
G1 X90.148 Y91.224 B0.177 F1500 ; ->L0.0  ; ->E0.06798  ; Wipe - reverse in progress Normal close
G1 X90.523 Y92.129 B0.11 F1500 ; ->L0.0  ; ->E0.06722  ; Wipe - reverse in progress Normal close
G1 X90.65 Y93.09 B0 F1500 ; ->L0.0  ; ->E0.10980999999999974  ; Wipe - reverse end Normal close
M104 ; take post layer 1 nozzle temperature from loaded reel - don't wait
M140 ; take post layer 1 bed temperature from loaded reel - don't wait
G1 Z0.8 F18000 ;  move to next layer (4)
G1 X90.1 Y96.885 F18000 ; ->13.47050336847143  ;  move to first perimeter point
T1 ; return to required nozzle
G1 B1.0 E1 F400 ; Open and replenish from extrusion
G1 X90.1 Y93.068 E0.51996 D0 F840 ; ->L3.8170000000000073 ->E0.51996 ->D0.0 ;  perimeter
G1 X89.948 Y92.11 E0.13225 D0 ; ->L0.969983505014388 ->E0.13225 ->D0.0 ;  perimeter
G1 X89.493 Y91.216 E0.13672 D0 ; ->L1.0031256152646129 ->E0.13672 ->D0.0 ;  perimeter
G1 X88.784 Y90.507 E0.13649 D0 ; ->L1.002677415722509 ->E0.13649 ->D0.0 ;  perimeter
G1 X87.89 Y90.052 E0.13672 D0 ; ->L1.0031256152646129 ->E0.13672 ->D0.0 ;  perimeter
G1 X86.932 Y89.9 E0.13225 D0 ; ->L0.969983505014388 ->E0.13225 ->D0.0 ;  perimeter
G1 X82.532 Y89.9 E0.59953 D0 ; ->L4.400000000000006 ->E0.59953 ->D0.0 ;  perimeter
G1 X81.76 Y89.778 E0.10644 D0 ; ->L0.7815804501137338 ->E0.10644 ->D0.0 ;  perimeter
G1 X81.092 Y89.438 E0.1021 D0 ; ->L0.7495491978516226 ->E0.1021 ->D0.0 ;  perimeter
G1 X80.562 Y88.908 E0.1021 D0 ; ->L0.7495331880577419 ->E0.1021 ->D0.0 ;  perimeter
G1 X80.222 Y88.24 E0.1021 D0 ; ->L0.7495491978516226 ->E0.1021 ->D0.0 ;  perimeter
G1 X80.105 Y87.5 E0.1021 D0 ; ->L0.7491922316735473 ->E0.1021 ->D0.0 ;  perimeter
G1 X80.222 Y86.76 E0.1021 D0 ; ->L0.7491922316735473 ->E0.1021 ->D0.0 ;  perimeter
G1 X80.562 Y86.092 E0.1021 D0 ; ->L0.7495491978516226 ->E0.1021 ->D0.0 ;  perimeter
G1 X81.092 Y85.562 E0.1021 D0 ; ->L0.7495331880577419 ->E0.1021 ->D0.0 ;  perimeter
G1 X81.76 Y85.222 E0.1021 D0 ; ->L0.7495491978516226 ->E0.1021 ->D0.0 ;  perimeter
G1 X82.532 Y85.1 E0.10644 D0 ; ->L0.7815804501137338 ->E0.10644 ->D0.0 ;  perimeter
G1 X86.932 Y85.1 E0.59953 D0 ; ->L4.400000000000006 ->E0.59953 ->D0.0 ;  perimeter
G1 X87.89 Y84.948 E0.13225 D0 ; ->L0.969983505014388 ->E0.13225 ->D0.0 ;  perimeter
G1 X88.784 Y84.493 E0.13672 D0 ; ->L1.0031256152646129 ->E0.13672 ->D0.0 ;  perimeter
G1 X89.493 Y83.784 E0.13649 D0 ; ->L1.002677415722509 ->E0.13649 ->D0.0 ;  perimeter
G1 X89.948 Y82.89 E0.13672 D0 ; ->L1.0031256152646129 ->E0.13672 ->D0.0 ;  perimeter
G1 X90.1 Y81.932 E0.13225 D0 ; ->L0.969983505014388 ->E0.13225 ->D0.0 ;  perimeter
G1 X90.1 Y77.532 E0.59953 D0 ; ->L4.400000000000006 ->E0.59953 ->D0.0 ;  perimeter
G1 X90.222 Y76.76 E0.10644 D0 ; ->L0.7815804501137338 ->E0.10644 ->D0.0 ;  perimeter
G1 X90.562 Y76.092 E0.1021 D0 ; ->L0.7495491978516226 ->E0.1021 ->D0.0 ;  perimeter
G1 X91.092 Y75.562 E0.1021 D0 ; ->L0.7495331880577419 ->E0.1021 ->D0.0 ;  perimeter
G1 X91.76 Y75.222 E0.1021 D0 ; ->L0.7495491978516226 ->E0.1021 ->D0.0 ;  perimeter
G1 X92.5 Y75.105 E0.1021 D0 ; ->L0.7491922316735473 ->E0.1021 ->D0.0 ;  perimeter
G1 X93.24 Y75.222 E0.1021 D0 ; ->L0.7491922316735473 ->E0.1021 ->D0.0 ;  perimeter
G1 X93.908 Y75.562 E0.1021 D0 F840 ; ->L0.7495491978516226 ->E0.1021 ->D0.0 ;  perimeter
G1 X94.438 Y76.092 E0.1021 D0 ; ->L0.7495331880577419 ->E0.1021 ->D0.0 ;  perimeter
G1 X94.778 Y76.76 E0.1021 D0 ; ->L0.7495491978516226 ->E0.1021 ->D0.0 ;  perimeter
G1 X94.9 Y77.532 E0.10644 D0 ; ->L0.7815804501137338 ->E0.10644 ->D0.0 ;  perimeter
G1 X94.9 Y81.932 E0.59953 D0 ; ->L4.400000000000006 ->E0.59953 ->D0.0 ;  perimeter
G1 X95.052 Y82.89 E0.13225 D0 ; ->L0.969983505014388 ->E0.13225 ->D0.0 ;  perimeter
G1 X95.507 Y83.784 E0.13672 D0 ; ->L1.0031256152646129 ->E0.13672 ->D0.0 ;  perimeter
G1 X96.216 Y84.493 E0.13649 D0 ; ->L1.002677415722509 ->E0.13649 ->D0.0 ;  perimeter
G1 X97.11 Y84.948 E0.13672 D0 ; ->L1.0031256152646129 ->E0.13672 ->D0.0 ;  perimeter
G1 X98.068 Y85.1 E0.13225 D0 ; ->L0.969983505014388 ->E0.13225 ->D0.0 ;  perimeter
G1 X102.468 Y85.1 E0.59953 D0 ; ->L4.400000000000006 ->E0.59953 ->D0.0 ;  perimeter
G1 X103.428 Y85.252 E0.13241 D0 ; ->L0.9719588468654361 ->E0.13241 ->D0.0 ;  perimeter
G1 X103.428 Y85.318 E0.009 D0 ; ->L0.0660000000000025 ->E0.009 ->D0.0 ;  perimeter
G1 X103.908 Y85.562 E0.07332 D0 ; ->L0.5384570549263922 ->E0.07332 ->D0.0 ;  perimeter
G1 X104.438 Y86.092 E0.1021 D0 ; ->L0.7495331880577419 ->E0.1021 ->D0.0 ;  perimeter
G1 X104.778 Y86.76 E0.1021 D0 ; ->L0.7495491978516226 ->E0.1021 ->D0.0 ;  perimeter
G1 X104.895 Y87.5 E0.1021 D0 ; ->L0.7491922316735473 ->E0.1021 ->D0.0 ;  perimeter
G1 X104.778 Y88.24 E0.1021 D0 ; ->L0.7491922316735473 ->E0.1021 ->D0.0 ;  perimeter
G1 X104.438 Y88.908 E0.1021 D0 ; ->L0.7495491978516226 ->E0.1021 ->D0.0 ;  perimeter
G1 X103.908 Y89.438 E0.1021 D0 ; ->L0.7495331880577419 ->E0.1021 ->D0.0 ;  perimeter
G1 X103.24 Y89.778 E0.1021 D0 ; ->L0.7495491978516226 ->E0.1021 ->D0.0 ;  perimeter
G1 X102.468 Y89.9 E0.10645 D0 ; ->L0.7815804501137338 ->E0.10645 ->D0.0 ;  perimeter
G1 X98.068 Y89.9 E0.59953 D0 ; ->L4.400000000000006 ->E0.59953 ->D0.0 ;  perimeter
G1 X97.11 Y90.052 E0.13225 D0 ; ->L0.969983505014388 ->E0.13225 ->D0.0 ;  perimeter
G1 X96.216 Y90.507 E0.13672 D0 ; ->L1.0031256152646129 ->E0.13672 ->D0.0 ;  perimeter
G1 X95.507 Y91.216 E0.13649 D0 ; ->L1.002677415722509 ->E0.13649 ->D0.0 ;  perimeter
G1 X95.052 Y92.11 E0.13672 D0 ; ->L1.0031256152646129 ->E0.13672 ->D0.0 ;  perimeter
G1 X94.9 Y93.068 E0.13225 D0 ; ->L0.969983505014388 ->E0.13225 ->D0.0 ;  perimeter
G1 X94.9 Y97.468 E0.59953 D0 ; ->L4.400000000000006 ->E0.59953 ->D0.0 ;  perimeter
G1 X94.778 Y98.24 E0.10645 D0 ; ->L0.7815804501137338 ->E0.10645 ->D0.0 ;  perimeter
G1 X94.438 Y98.908 E0.1021 D0 ; ->L0.7495491978516226 ->E0.1021 ->D0.0 ;  perimeter
G1 X93.908 Y99.438 E0.1021 D0 ; ->L0.7495331880577419 ->E0.1021 ->D0.0 ;  perimeter
G1 X93.24 Y99.778 E0.1021 D0 ; ->L0.7495491978516226 ->E0.1021 ->D0.0 ;  perimeter
G1 X92.5 Y99.895 E0.1021 D0 ; ->L0.7491922316735473 ->E0.1021 ->D0.0 ;  perimeter
G1 X91.76 Y99.778 E0.1021 D0 ; ->L0.7491922316735473 ->E0.1021 ->D0.0 ;  perimeter
G1 X91.092 Y99.438 E0.1021 D0 ; ->L0.7495491978516226 ->E0.1021 ->D0.0 ;  perimeter
G1 X90.562 Y98.908 E0.1021 D0 ; ->L0.7495331880577419 ->E0.1021 ->D0.0 ;  perimeter
G1 X90.222 Y98.24 E0.1021 D0 ; ->L0.7495491978516226 ->E0.1021 ->D0.0 ;  perimeter
G1 X90.1 Y97.468 E0.10644 D0 ; ->L0.7815804501137338 ->E0.10644 ->D0.0 ;  perimeter
G1 X90.1 Y97.005 E0.06322 D0 ; ->L0.46300000000000807 ->E0.06322 ->D0.0 ;  perimeter
G1 X90.1 Y97.468 B0.894 F1500 ; ->L0.0  ; ->E0.10644  ; Wipe - reverse start Normal close
G1 X90.222 Y98.24 B0.791 F1500 ; ->L0.0  ; ->E0.1021  ; Wipe - reverse in progress Normal close
G1 X90.562 Y98.908 B0.689 F1500 ; ->L0.0  ; ->E0.1021  ; Wipe - reverse in progress Normal close
G1 X91.092 Y99.438 B0.587 F1500 ; ->L0.0  ; ->E0.1021  ; Wipe - reverse in progress Normal close
G1 X91.76 Y99.778 B0.485 F1500 ; ->L0.0  ; ->E0.1021  ; Wipe - reverse in progress Normal close
G1 X92.5 Y99.895 B0.383 F1500 ; ->L0.0  ; ->E0.1021  ; Wipe - reverse in progress Normal close
G1 X93.24 Y99.778 B0.281 F1500 ; ->L0.0  ; ->E0.1021  ; Wipe - reverse in progress Normal close
G1 X93.908 Y99.438 B0.179 F1500 ; ->L0.0  ; ->E0.1021  ; Wipe - reverse in progress Normal close
G1 X94.438 Y98.908 B0.077 F1500 ; ->L0.0  ; ->E0.1021  ; Wipe - reverse in progress Normal close
G1 X94.778 Y98.24 B0 F1500 ; ->L0.0  ; ->E0.07676000000000016  ; Wipe - reverse end Normal close
G1 X80.696 Y87.137 F18000 ; ->13.631311015452615  ;  move to first perimeter point
G1 B1.0 E1 F400 ; Open and replenish from extrusion
G1 X80.9 Y86.576 E0.04141 D0 F1500 ; ->L0.5969396954467101 ->E0.04141 ->D0.0 ;  perimeter
G1 X81.313 Y86.084 E0.04455 D0 ; ->L0.6423651609481851 ->E0.04455 ->D0.0 ;  perimeter
G1 X81.868 Y85.764 E0.04449 D0 ; ->L0.6406442070291407 ->E0.04449 ->D0.0 ;  perimeter
G1 X82.513 Y85.65 E0.04545 D0 ; ->L0.6549969465577766 ->E0.04545 ->D0.0 ;  perimeter
G1 X86.91 Y85.65 E0.30501 D0 ; ->L4.396999999999991 ->E0.30501 ->D0.0 ;  perimeter
G1 X87.871 Y85.523 E0.06722 D0 ; ->L0.9693554559602992 ->E0.06722 ->D0.0 ;  perimeter
G1 X88.776 Y85.148 E0.06798 D0 ; ->L0.9796172722037939 ->E0.06798 ->D0.0 ;  perimeter
G1 X89.553 Y84.553 E0.06791 D0 ; ->L0.9786490688699399 ->E0.06791 ->D0.0 ;  perimeter
G1 X90.148 Y83.776 E0.06791 D0 ; ->L0.9786490688699399 ->E0.06791 ->D0.0 ;  perimeter
G1 X90.523 Y82.871 E0.06798 D0 ; ->L0.9796172722037939 ->E0.06798 ->D0.0 ;  perimeter
G1 X90.65 Y81.91 E0.06722 D0 ; ->L0.9693554559602992 ->E0.06722 ->D0.0 ;  perimeter
G1 X90.65 Y77.513 E0.30501 D0 ; ->L4.396999999999991 ->E0.30501 ->D0.0 ;  perimeter
G1 X90.764 Y76.868 E0.04545 D0 ; ->L0.6549969465577766 ->E0.04545 ->D0.0 ;  perimeter
G1 X91.084 Y76.313 E0.04449 D0 ; ->L0.6406442070291407 ->E0.04449 ->D0.0 ;  perimeter
G1 X91.576 Y75.9 E0.04455 D0 ; ->L0.6423651609481851 ->E0.04455 ->D0.0 ;  perimeter
G1 X92.179 Y75.681 E0.04447 D0 ; ->L0.6415372163795441 ->E0.04447 ->D0.0 ;  perimeter
G1 X92.821 Y75.681 E0.04456 D0 ; ->L0.6419999999999959 ->E0.04456 ->D0.0 ;  perimeter
G1 X92.905 Y75.711 E0.00619 D0 ; ->L0.08919641248391441 ->E0.00619 ->D0.0 ;  perimeter
G1 X93.424 Y75.9 E0.03828 D0 F1500 ; ->L0.5523422851819408 ->E0.03828 ->D0.0 ;  perimeter
G1 X93.916 Y76.313 E0.04455 D0 ; ->L0.6423651609481851 ->E0.04455 ->D0.0 ;  perimeter
G1 X94.236 Y76.868 E0.04449 D0 ; ->L0.6406442070291407 ->E0.04449 ->D0.0 ;  perimeter
G1 X94.35 Y77.513 E0.04545 D0 ; ->L0.6549969465577766 ->E0.04545 ->D0.0 ;  perimeter
G1 X94.35 Y81.91 E0.30501 D0 ; ->L4.396999999999991 ->E0.30501 ->D0.0 ;  perimeter
G1 X94.477 Y82.871 E0.06722 D0 ; ->L0.9693554559602992 ->E0.06722 ->D0.0 ;  perimeter
G1 X94.852 Y83.776 E0.06798 D0 ; ->L0.9796172722037939 ->E0.06798 ->D0.0 ;  perimeter
G1 X95.447 Y84.553 E0.06791 D0 ; ->L0.9786490688699399 ->E0.06791 ->D0.0 ;  perimeter
G1 X96.224 Y85.148 E0.06791 D0 ; ->L0.9786490688699399 ->E0.06791 ->D0.0 ;  perimeter
G1 X97.129 Y85.523 E0.06798 D0 ; ->L0.9796172722037939 ->E0.06798 ->D0.0 ;  perimeter
G1 X98.09 Y85.65 E0.06722 D0 ; ->L0.9693554559602992 ->E0.06722 ->D0.0 ;  perimeter
G1 X102.487 Y85.65 E0.30501 D0 ; ->L4.396999999999991 ->E0.30501 ->D0.0 ;  perimeter
G1 X103.132 Y85.764 E0.04545 D0 ; ->L0.6549969465577766 ->E0.04545 ->D0.0 ;  perimeter
G1 X103.687 Y86.084 E0.04449 D0 ; ->L0.6406442070291407 ->E0.04449 ->D0.0 ;  perimeter
G1 X104.1 Y86.576 E0.04455 D0 ; ->L0.6423651609481851 ->E0.04455 ->D0.0 ;  perimeter
G1 X104.319 Y87.179 E0.04447 D0 ; ->L0.6415372163795441 ->E0.04447 ->D0.0 ;  perimeter
G1 X104.319 Y87.821 E0.04456 D0 ; ->L0.6419999999999959 ->E0.04456 ->D0.0 ;  perimeter
G1 X104.1 Y88.424 E0.04447 D0 ; ->L0.6415372163795441 ->E0.04447 ->D0.0 ;  perimeter
G1 X103.687 Y88.916 E0.04455 D0 ; ->L0.6423651609481851 ->E0.04455 ->D0.0 ;  perimeter
G1 X103.132 Y89.236 E0.04449 D0 ; ->L0.6406442070291407 ->E0.04449 ->D0.0 ;  perimeter
G1 X102.487 Y89.35 E0.04545 D0 ; ->L0.6549969465577766 ->E0.04545 ->D0.0 ;  perimeter
G1 X98.09 Y89.35 E0.30501 D0 ; ->L4.396999999999991 ->E0.30501 ->D0.0 ;  perimeter
G1 X97.129 Y89.477 E0.06722 D0 ; ->L0.9693554559602992 ->E0.06722 ->D0.0 ;  perimeter
G1 X96.224 Y89.852 E0.06798 D0 ; ->L0.9796172722037939 ->E0.06798 ->D0.0 ;  perimeter
G1 X95.447 Y90.447 E0.06791 D0 ; ->L0.9786490688699399 ->E0.06791 ->D0.0 ;  perimeter
G1 X94.852 Y91.224 E0.06791 D0 ; ->L0.9786490688699399 ->E0.06791 ->D0.0 ;  perimeter
G1 X94.477 Y92.129 E0.06798 D0 ; ->L0.9796172722037939 ->E0.06798 ->D0.0 ;  perimeter
G1 X94.35 Y93.09 E0.06722 D0 ; ->L0.9693554559602992 ->E0.06722 ->D0.0 ;  perimeter
G1 X94.35 Y97.487 E0.30501 D0 ; ->L4.396999999999991 ->E0.30501 ->D0.0 ;  perimeter
G1 X94.236 Y98.132 E0.04545 D0 ; ->L0.6549969465577766 ->E0.04545 ->D0.0 ;  perimeter
G1 X93.916 Y98.687 E0.04449 D0 ; ->L0.6406442070291407 ->E0.04449 ->D0.0 ;  perimeter
G1 X93.424 Y99.1 E0.04455 D0 ; ->L0.6423651609481851 ->E0.04455 ->D0.0 ;  perimeter
G1 X92.821 Y99.319 E0.04447 D0 ; ->L0.6415372163795441 ->E0.04447 ->D0.0 ;  perimeter
G1 X92.179 Y99.319 E0.04456 D0 ; ->L0.6419999999999959 ->E0.04456 ->D0.0 ;  perimeter
G1 X91.576 Y99.1 E0.04447 D0 ; ->L0.6415372163795441 ->E0.04447 ->D0.0 ;  perimeter
G1 X91.084 Y98.687 E0.04455 D0 ; ->L0.6423651609481851 ->E0.04455 ->D0.0 ;  perimeter
G1 X90.764 Y98.132 E0.04449 D0 ; ->L0.6406442070291407 ->E0.04449 ->D0.0 ;  perimeter
G1 X90.65 Y97.487 E0.04545 D0 ; ->L0.6549969465577766 ->E0.04545 ->D0.0 ;  perimeter
G1 X90.65 Y93.09 E0.30501 D0 ; ->L4.396999999999991 ->E0.30501 ->D0.0 ;  perimeter
G1 X90.523 Y92.129 E0.06722 D0 ; ->L0.9693554559602992 ->E0.06722 ->D0.0 ;  perimeter
G1 X90.148 Y91.224 E0.06798 D0 ; ->L0.9796172722037939 ->E0.06798 ->D0.0 ;  perimeter
G1 X89.553 Y90.447 E0.06791 D0 ; ->L0.9786490688699399 ->E0.06791 ->D0.0 ;  perimeter
G1 X88.776 Y89.852 E0.06791 D0 ; ->L0.9786490688699399 ->E0.06791 ->D0.0 ;  perimeter
G1 X87.871 Y89.477 E0.06798 D0 ; ->L0.9796172722037939 ->E0.06798 ->D0.0 ;  perimeter
G1 X86.91 Y89.35 E0.06722 D0 ; ->L0.9693554559602992 ->E0.06722 ->D0.0 ;  perimeter
G1 X82.513 Y89.35 E0.30501 D0 ; ->L4.396999999999991 ->E0.30501 ->D0.0 ;  perimeter
G1 X81.868 Y89.236 E0.04545 D0 ; ->L0.6549969465577766 ->E0.04545 ->D0.0 ;  perimeter
G1 X81.313 Y88.916 E0.04449 D0 ; ->L0.6406442070291407 ->E0.04449 ->D0.0 ;  perimeter
G1 X80.9 Y88.424 E0.04455 D0 ; ->L0.6423651609481851 ->E0.04455 ->D0.0 ;  perimeter
G1 X80.681 Y87.821 E0.04447 D0 ; ->L0.6415372163795441 ->E0.04447 ->D0.0 ;  perimeter
G1 X80.681 Y87.255 E0.0393 D0 ; ->L0.5660000000000025 ->E0.0393 ->D0.0 ;  perimeter
G1 X80.681 Y87.821 B0.956 F1500 ; ->L0.0  ; ->E0.04447  ; Wipe - reverse start Normal close
G1 X80.9 Y88.424 B0.911 F1500 ; ->L0.0  ; ->E0.04455  ; Wipe - reverse in progress Normal close
G1 X81.313 Y88.916 B0.866 F1500 ; ->L0.0  ; ->E0.04449  ; Wipe - reverse in progress Normal close
G1 X81.868 Y89.236 B0.821 F1500 ; ->L0.0  ; ->E0.04545  ; Wipe - reverse in progress Normal close
G1 X82.513 Y89.35 B0.516 F1500 ; ->L0.0  ; ->E0.30501  ; Wipe - reverse in progress Normal close
G1 X86.91 Y89.35 B0.449 F1500 ; ->L0.0  ; ->E0.06722  ; Wipe - reverse in progress Normal close
G1 X87.871 Y89.477 B0.381 F1500 ; ->L0.0  ; ->E0.06798  ; Wipe - reverse in progress Normal close
G1 X88.776 Y89.852 B0.313 F1500 ; ->L0.0  ; ->E0.06791  ; Wipe - reverse in progress Normal close
G1 X89.553 Y90.447 B0.245 F1500 ; ->L0.0  ; ->E0.06791  ; Wipe - reverse in progress Normal close
G1 X90.148 Y91.224 B0.177 F1500 ; ->L0.0  ; ->E0.06798  ; Wipe - reverse in progress Normal close
G1 X90.523 Y92.129 B0.11 F1500 ; ->L0.0  ; ->E0.06722  ; Wipe - reverse in progress Normal close
G1 X90.65 Y93.09 B0 F1500 ; ->L0.0  ; ->E0.10980999999999974  ; Wipe - reverse end Normal close
G1 Z1 F18000 ;  move to next layer (6)
G1 X90.1 Y96.885 F18000 ; ->13.47050336847143  ;  move to first perimeter point
G1 B1.0 E1 F400 ; Open and replenish from extrusion
G1 X90.1 Y93.068 E0.51996 D0 F840 ; ->L3.8170000000000073 ->E0.51996 ->D0.0 ;  perimeter
G1 X89.948 Y92.11 E0.13225 D0 ; ->L0.969983505014388 ->E0.13225 ->D0.0 ;  perimeter
G1 X89.493 Y91.216 E0.13672 D0 ; ->L1.0031256152646129 ->E0.13672 ->D0.0 ;  perimeter
G1 X88.784 Y90.507 E0.13649 D0 ; ->L1.002677415722509 ->E0.13649 ->D0.0 ;  perimeter
G1 X87.89 Y90.052 E0.13672 D0 ; ->L1.0031256152646129 ->E0.13672 ->D0.0 ;  perimeter
G1 X86.932 Y89.9 E0.13225 D0 ; ->L0.969983505014388 ->E0.13225 ->D0.0 ;  perimeter
G1 X82.532 Y89.9 E0.59953 D0 ; ->L4.400000000000006 ->E0.59953 ->D0.0 ;  perimeter
G1 X81.76 Y89.778 E0.10644 D0 ; ->L0.7815804501137338 ->E0.10644 ->D0.0 ;  perimeter
G1 X81.092 Y89.438 E0.1021 D0 ; ->L0.7495491978516226 ->E0.1021 ->D0.0 ;  perimeter
G1 X80.562 Y88.908 E0.1021 D0 ; ->L0.7495331880577419 ->E0.1021 ->D0.0 ;  perimeter
G1 X80.222 Y88.24 E0.1021 D0 ; ->L0.7495491978516226 ->E0.1021 ->D0.0 ;  perimeter
G1 X80.105 Y87.5 E0.1021 D0 ; ->L0.7491922316735473 ->E0.1021 ->D0.0 ;  perimeter
G1 X80.222 Y86.76 E0.1021 D0 ; ->L0.7491922316735473 ->E0.1021 ->D0.0 ;  perimeter
G1 X80.562 Y86.092 E0.1021 D0 ; ->L0.7495491978516226 ->E0.1021 ->D0.0 ;  perimeter
G1 X81.092 Y85.562 E0.1021 D0 ; ->L0.7495331880577419 ->E0.1021 ->D0.0 ;  perimeter
G1 X81.76 Y85.222 E0.1021 D0 ; ->L0.7495491978516226 ->E0.1021 ->D0.0 ;  perimeter
G1 X82.532 Y85.1 E0.10644 D0 ; ->L0.7815804501137338 ->E0.10644 ->D0.0 ;  perimeter
G1 X86.932 Y85.1 E0.59953 D0 ; ->L4.400000000000006 ->E0.59953 ->D0.0 ;  perimeter
G1 X87.89 Y84.948 E0.13225 D0 ; ->L0.969983505014388 ->E0.13225 ->D0.0 ;  perimeter
G1 X88.784 Y84.493 E0.13672 D0 ; ->L1.0031256152646129 ->E0.13672 ->D0.0 ;  perimeter
G1 X89.493 Y83.784 E0.13649 D0 ; ->L1.002677415722509 ->E0.13649 ->D0.0 ;  perimeter
G1 X89.948 Y82.89 E0.13672 D0 ; ->L1.0031256152646129 ->E0.13672 ->D0.0 ;  perimeter
G1 X90.1 Y81.932 E0.13225 D0 ; ->L0.969983505014388 ->E0.13225 ->D0.0 ;  perimeter
G1 X90.1 Y77.532 E0.59953 D0 ; ->L4.400000000000006 ->E0.59953 ->D0.0 ;  perimeter
G1 X90.222 Y76.76 E0.10644 D0 ; ->L0.7815804501137338 ->E0.10644 ->D0.0 ;  perimeter
G1 X90.562 Y76.092 E0.1021 D0 ; ->L0.7495491978516226 ->E0.1021 ->D0.0 ;  perimeter
G1 X91.092 Y75.562 E0.1021 D0 ; ->L0.7495331880577419 ->E0.1021 ->D0.0 ;  perimeter
G1 X91.76 Y75.222 E0.1021 D0 ; ->L0.7495491978516226 ->E0.1021 ->D0.0 ;  perimeter
G1 X92.5 Y75.105 E0.1021 D0 ; ->L0.7491922316735473 ->E0.1021 ->D0.0 ;  perimeter
G1 X93.24 Y75.222 E0.1021 D0 ; ->L0.7491922316735473 ->E0.1021 ->D0.0 ;  perimeter
G1 X93.908 Y75.562 E0.1021 D0 F840 ; ->L0.7495491978516226 ->E0.1021 ->D0.0 ;  perimeter
G1 X94.438 Y76.092 E0.1021 D0 ; ->L0.7495331880577419 ->E0.1021 ->D0.0 ;  perimeter
G1 X94.778 Y76.76 E0.1021 D0 ; ->L0.7495491978516226 ->E0.1021 ->D0.0 ;  perimeter
G1 X94.9 Y77.532 E0.10644 D0 ; ->L0.7815804501137338 ->E0.10644 ->D0.0 ;  perimeter
G1 X94.9 Y81.932 E0.59953 D0 ; ->L4.400000000000006 ->E0.59953 ->D0.0 ;  perimeter
G1 X95.052 Y82.89 E0.13225 D0 ; ->L0.969983505014388 ->E0.13225 ->D0.0 ;  perimeter
G1 X95.507 Y83.784 E0.13672 D0 ; ->L1.0031256152646129 ->E0.13672 ->D0.0 ;  perimeter
G1 X96.216 Y84.493 E0.13649 D0 ; ->L1.002677415722509 ->E0.13649 ->D0.0 ;  perimeter
G1 X97.11 Y84.948 E0.13672 D0 ; ->L1.0031256152646129 ->E0.13672 ->D0.0 ;  perimeter
G1 X98.068 Y85.1 E0.13225 D0 ; ->L0.969983505014388 ->E0.13225 ->D0.0 ;  perimeter
G1 X102.468 Y85.1 E0.59953 D0 ; ->L4.400000000000006 ->E0.59953 ->D0.0 ;  perimeter
G1 X103.428 Y85.252 E0.13241 D0 ; ->L0.9719588468654361 ->E0.13241 ->D0.0 ;  perimeter
G1 X103.428 Y85.318 E0.009 D0 ; ->L0.0660000000000025 ->E0.009 ->D0.0 ;  perimeter
G1 X103.908 Y85.562 E0.07332 D0 ; ->L0.5384570549263922 ->E0.07332 ->D0.0 ;  perimeter
G1 X104.438 Y86.092 E0.1021 D0 ; ->L0.7495331880577419 ->E0.1021 ->D0.0 ;  perimeter
G1 X104.778 Y86.76 E0.1021 D0 ; ->L0.7495491978516226 ->E0.1021 ->D0.0 ;  perimeter
G1 X104.895 Y87.5 E0.1021 D0 ; ->L0.7491922316735473 ->E0.1021 ->D0.0 ;  perimeter
G1 X104.778 Y88.24 E0.1021 D0 ; ->L0.7491922316735473 ->E0.1021 ->D0.0 ;  perimeter
G1 X104.438 Y88.908 E0.1021 D0 ; ->L0.7495491978516226 ->E0.1021 ->D0.0 ;  perimeter
G1 X103.908 Y89.438 E0.1021 D0 ; ->L0.7495331880577419 ->E0.1021 ->D0.0 ;  perimeter
G1 X103.24 Y89.778 E0.1021 D0 ; ->L0.7495491978516226 ->E0.1021 ->D0.0 ;  perimeter
G1 X102.468 Y89.9 E0.10645 D0 ; ->L0.7815804501137338 ->E0.10645 ->D0.0 ;  perimeter
G1 X98.068 Y89.9 E0.59953 D0 ; ->L4.400000000000006 ->E0.59953 ->D0.0 ;  perimeter
G1 X97.11 Y90.052 E0.13225 D0 ; ->L0.969983505014388 ->E0.13225 ->D0.0 ;  perimeter
G1 X96.216 Y90.507 E0.13672 D0 ; ->L1.0031256152646129 ->E0.13672 ->D0.0 ;  perimeter
G1 X95.507 Y91.216 E0.13649 D0 ; ->L1.002677415722509 ->E0.13649 ->D0.0 ;  perimeter
G1 X95.052 Y92.11 E0.13672 D0 ; ->L1.0031256152646129 ->E0.13672 ->D0.0 ;  perimeter
G1 X94.9 Y93.068 E0.13225 D0 ; ->L0.969983505014388 ->E0.13225 ->D0.0 ;  perimeter
G1 X94.9 Y97.468 E0.59953 D0 ; ->L4.400000000000006 ->E0.59953 ->D0.0 ;  perimeter
G1 X94.778 Y98.24 E0.10645 D0 ; ->L0.7815804501137338 ->E0.10645 ->D0.0 ;  perimeter
G1 X94.438 Y98.908 E0.1021 D0 ; ->L0.7495491978516226 ->E0.1021 ->D0.0 ;  perimeter
G1 X93.908 Y99.438 E0.1021 D0 ; ->L0.7495331880577419 ->E0.1021 ->D0.0 ;  perimeter
G1 X93.24 Y99.778 E0.1021 D0 ; ->L0.7495491978516226 ->E0.1021 ->D0.0 ;  perimeter
G1 X92.5 Y99.895 E0.1021 D0 ; ->L0.7491922316735473 ->E0.1021 ->D0.0 ;  perimeter
G1 X91.76 Y99.778 E0.1021 D0 ; ->L0.7491922316735473 ->E0.1021 ->D0.0 ;  perimeter
G1 X91.092 Y99.438 E0.1021 D0 ; ->L0.7495491978516226 ->E0.1021 ->D0.0 ;  perimeter
G1 X90.562 Y98.908 E0.1021 D0 ; ->L0.7495331880577419 ->E0.1021 ->D0.0 ;  perimeter
G1 X90.222 Y98.24 E0.1021 D0 ; ->L0.7495491978516226 ->E0.1021 ->D0.0 ;  perimeter
G1 X90.1 Y97.468 E0.10644 D0 ; ->L0.7815804501137338 ->E0.10644 ->D0.0 ;  perimeter
G1 X90.1 Y97.005 E0.06322 D0 ; ->L0.46300000000000807 ->E0.06322 ->D0.0 ;  perimeter
G1 X90.1 Y97.468 B0.894 F1500 ; ->L0.0  ; ->E0.10644  ; Wipe - reverse start Normal close
G1 X90.222 Y98.24 B0.791 F1500 ; ->L0.0  ; ->E0.1021  ; Wipe - reverse in progress Normal close
G1 X90.562 Y98.908 B0.689 F1500 ; ->L0.0  ; ->E0.1021  ; Wipe - reverse in progress Normal close
G1 X91.092 Y99.438 B0.587 F1500 ; ->L0.0  ; ->E0.1021  ; Wipe - reverse in progress Normal close
G1 X91.76 Y99.778 B0.485 F1500 ; ->L0.0  ; ->E0.1021  ; Wipe - reverse in progress Normal close
G1 X92.5 Y99.895 B0.383 F1500 ; ->L0.0  ; ->E0.1021  ; Wipe - reverse in progress Normal close
G1 X93.24 Y99.778 B0.281 F1500 ; ->L0.0  ; ->E0.1021  ; Wipe - reverse in progress Normal close
G1 X93.908 Y99.438 B0.179 F1500 ; ->L0.0  ; ->E0.1021  ; Wipe - reverse in progress Normal close
G1 X94.438 Y98.908 B0.077 F1500 ; ->L0.0  ; ->E0.1021  ; Wipe - reverse in progress Normal close
G1 X94.778 Y98.24 B0 F1500 ; ->L0.0  ; ->E0.07676000000000016  ; Wipe - reverse end Normal close
G1 X80.696 Y87.137 F18000 ; ->13.631311015452615  ;  move to first perimeter point
G1 B1.0 E1 F400 ; Open and replenish from extrusion
G1 X80.9 Y86.576 E0.04141 D0 F1500 ; ->L0.5969396954467101 ->E0.04141 ->D0.0 ;  perimeter
G1 X81.313 Y86.084 E0.04455 D0 ; ->L0.6423651609481851 ->E0.04455 ->D0.0 ;  perimeter
G1 X81.868 Y85.764 E0.04449 D0 ; ->L0.6406442070291407 ->E0.04449 ->D0.0 ;  perimeter
G1 X82.513 Y85.65 E0.04545 D0 ; ->L0.6549969465577766 ->E0.04545 ->D0.0 ;  perimeter
G1 X86.91 Y85.65 E0.30501 D0 ; ->L4.396999999999991 ->E0.30501 ->D0.0 ;  perimeter
G1 X87.871 Y85.523 E0.06722 D0 ; ->L0.9693554559602992 ->E0.06722 ->D0.0 ;  perimeter
G1 X88.776 Y85.148 E0.06798 D0 ; ->L0.9796172722037939 ->E0.06798 ->D0.0 ;  perimeter
G1 X89.553 Y84.553 E0.06791 D0 ; ->L0.9786490688699399 ->E0.06791 ->D0.0 ;  perimeter
G1 X90.148 Y83.776 E0.06791 D0 ; ->L0.9786490688699399 ->E0.06791 ->D0.0 ;  perimeter
G1 X90.523 Y82.871 E0.06798 D0 ; ->L0.9796172722037939 ->E0.06798 ->D0.0 ;  perimeter
G1 X90.65 Y81.91 E0.06722 D0 ; ->L0.9693554559602992 ->E0.06722 ->D0.0 ;  perimeter
G1 X90.65 Y77.513 E0.30501 D0 ; ->L4.396999999999991 ->E0.30501 ->D0.0 ;  perimeter
G1 X90.764 Y76.868 E0.04545 D0 ; ->L0.6549969465577766 ->E0.04545 ->D0.0 ;  perimeter
G1 X91.084 Y76.313 E0.04449 D0 ; ->L0.6406442070291407 ->E0.04449 ->D0.0 ;  perimeter
G1 X91.576 Y75.9 E0.04455 D0 ; ->L0.6423651609481851 ->E0.04455 ->D0.0 ;  perimeter
G1 X92.179 Y75.681 E0.04447 D0 ; ->L0.6415372163795441 ->E0.04447 ->D0.0 ;  perimeter
G1 X92.821 Y75.681 E0.04456 D0 ; ->L0.6419999999999959 ->E0.04456 ->D0.0 ;  perimeter
G1 X92.905 Y75.711 E0.00619 D0 ; ->L0.08919641248391441 ->E0.00619 ->D0.0 ;  perimeter
G1 X93.424 Y75.9 E0.03828 D0 F1500 ; ->L0.5523422851819408 ->E0.03828 ->D0.0 ;  perimeter
G1 X93.916 Y76.313 E0.04455 D0 ; ->L0.6423651609481851 ->E0.04455 ->D0.0 ;  perimeter
G1 X94.236 Y76.868 E0.04449 D0 ; ->L0.6406442070291407 ->E0.04449 ->D0.0 ;  perimeter
G1 X94.35 Y77.513 E0.04545 D0 ; ->L0.6549969465577766 ->E0.04545 ->D0.0 ;  perimeter
G1 X94.35 Y81.91 E0.30501 D0 ; ->L4.396999999999991 ->E0.30501 ->D0.0 ;  perimeter
G1 X94.477 Y82.871 E0.06722 D0 ; ->L0.9693554559602992 ->E0.06722 ->D0.0 ;  perimeter
G1 X94.852 Y83.776 E0.06798 D0 ; ->L0.9796172722037939 ->E0.06798 ->D0.0 ;  perimeter
G1 X95.447 Y84.553 E0.06791 D0 ; ->L0.9786490688699399 ->E0.06791 ->D0.0 ;  perimeter
G1 X96.224 Y85.148 E0.06791 D0 ; ->L0.9786490688699399 ->E0.06791 ->D0.0 ;  perimeter
G1 X97.129 Y85.523 E0.06798 D0 ; ->L0.9796172722037939 ->E0.06798 ->D0.0 ;  perimeter
G1 X98.09 Y85.65 E0.06722 D0 ; ->L0.9693554559602992 ->E0.06722 ->D0.0 ;  perimeter
G1 X102.487 Y85.65 E0.30501 D0 ; ->L4.396999999999991 ->E0.30501 ->D0.0 ;  perimeter
G1 X103.132 Y85.764 E0.04545 D0 ; ->L0.6549969465577766 ->E0.04545 ->D0.0 ;  perimeter
G1 X103.687 Y86.084 E0.04449 D0 ; ->L0.6406442070291407 ->E0.04449 ->D0.0 ;  perimeter
G1 X104.1 Y86.576 E0.04455 D0 ; ->L0.6423651609481851 ->E0.04455 ->D0.0 ;  perimeter
G1 X104.319 Y87.179 E0.04447 D0 ; ->L0.6415372163795441 ->E0.04447 ->D0.0 ;  perimeter
G1 X104.319 Y87.821 E0.04456 D0 ; ->L0.6419999999999959 ->E0.04456 ->D0.0 ;  perimeter
G1 X104.1 Y88.424 E0.04447 D0 ; ->L0.6415372163795441 ->E0.04447 ->D0.0 ;  perimeter
G1 X103.687 Y88.916 E0.04455 D0 ; ->L0.6423651609481851 ->E0.04455 ->D0.0 ;  perimeter
G1 X103.132 Y89.236 E0.04449 D0 ; ->L0.6406442070291407 ->E0.04449 ->D0.0 ;  perimeter
G1 X102.487 Y89.35 E0.04545 D0 ; ->L0.6549969465577766 ->E0.04545 ->D0.0 ;  perimeter
G1 X98.09 Y89.35 E0.30501 D0 ; ->L4.396999999999991 ->E0.30501 ->D0.0 ;  perimeter
G1 X97.129 Y89.477 E0.06722 D0 ; ->L0.9693554559602992 ->E0.06722 ->D0.0 ;  perimeter
G1 X96.224 Y89.852 E0.06798 D0 ; ->L0.9796172722037939 ->E0.06798 ->D0.0 ;  perimeter
G1 X95.447 Y90.447 E0.06791 D0 ; ->L0.9786490688699399 ->E0.06791 ->D0.0 ;  perimeter
G1 X94.852 Y91.224 E0.06791 D0 ; ->L0.9786490688699399 ->E0.06791 ->D0.0 ;  perimeter
G1 X94.477 Y92.129 E0.06798 D0 ; ->L0.9796172722037939 ->E0.06798 ->D0.0 ;  perimeter
G1 X94.35 Y93.09 E0.06722 D0 ; ->L0.9693554559602992 ->E0.06722 ->D0.0 ;  perimeter
G1 X94.35 Y97.487 E0.30501 D0 ; ->L4.396999999999991 ->E0.30501 ->D0.0 ;  perimeter
G1 X94.236 Y98.132 E0.04545 D0 ; ->L0.6549969465577766 ->E0.04545 ->D0.0 ;  perimeter
G1 X93.916 Y98.687 E0.04449 D0 ; ->L0.6406442070291407 ->E0.04449 ->D0.0 ;  perimeter
G1 X93.424 Y99.1 E0.04455 D0 ; ->L0.6423651609481851 ->E0.04455 ->D0.0 ;  perimeter
G1 X92.821 Y99.319 E0.04447 D0 ; ->L0.6415372163795441 ->E0.04447 ->D0.0 ;  perimeter
G1 X92.179 Y99.319 E0.04456 D0 ; ->L0.6419999999999959 ->E0.04456 ->D0.0 ;  perimeter
G1 X91.576 Y99.1 E0.04447 D0 ; ->L0.6415372163795441 ->E0.04447 ->D0.0 ;  perimeter
G1 X91.084 Y98.687 E0.04455 D0 ; ->L0.6423651609481851 ->E0.04455 ->D0.0 ;  perimeter
G1 X90.764 Y98.132 E0.04449 D0 ; ->L0.6406442070291407 ->E0.04449 ->D0.0 ;  perimeter
G1 X90.65 Y97.487 E0.04545 D0 ; ->L0.6549969465577766 ->E0.04545 ->D0.0 ;  perimeter
G1 X90.65 Y93.09 E0.30501 D0 ; ->L4.396999999999991 ->E0.30501 ->D0.0 ;  perimeter
G1 X90.523 Y92.129 E0.06722 D0 ; ->L0.9693554559602992 ->E0.06722 ->D0.0 ;  perimeter
G1 X90.148 Y91.224 E0.06798 D0 ; ->L0.9796172722037939 ->E0.06798 ->D0.0 ;  perimeter
G1 X89.553 Y90.447 E0.06791 D0 ; ->L0.9786490688699399 ->E0.06791 ->D0.0 ;  perimeter
G1 X88.776 Y89.852 E0.06791 D0 ; ->L0.9786490688699399 ->E0.06791 ->D0.0 ;  perimeter
G1 X87.871 Y89.477 E0.06798 D0 ; ->L0.9796172722037939 ->E0.06798 ->D0.0 ;  perimeter
G1 X86.91 Y89.35 E0.06722 D0 ; ->L0.9693554559602992 ->E0.06722 ->D0.0 ;  perimeter
G1 X82.513 Y89.35 E0.30501 D0 ; ->L4.396999999999991 ->E0.30501 ->D0.0 ;  perimeter
G1 X81.868 Y89.236 E0.04545 D0 ; ->L0.6549969465577766 ->E0.04545 ->D0.0 ;  perimeter
G1 X81.313 Y88.916 E0.04449 D0 ; ->L0.6406442070291407 ->E0.04449 ->D0.0 ;  perimeter
G1 X80.9 Y88.424 E0.04455 D0 ; ->L0.6423651609481851 ->E0.04455 ->D0.0 ;  perimeter
G1 X80.681 Y87.821 E0.04447 D0 ; ->L0.6415372163795441 ->E0.04447 ->D0.0 ;  perimeter
G1 X80.681 Y87.255 E0.0393 D0 ; ->L0.5660000000000025 ->E0.0393 ->D0.0 ;  perimeter
G1 X80.681 Y87.821 B0.956 F1500 ; ->L0.0  ; ->E0.04447  ; Wipe - reverse start Normal close
G1 X80.9 Y88.424 B0.911 F1500 ; ->L0.0  ; ->E0.04455  ; Wipe - reverse in progress Normal close
G1 X81.313 Y88.916 B0.866 F1500 ; ->L0.0  ; ->E0.04449  ; Wipe - reverse in progress Normal close
G1 X81.868 Y89.236 B0.821 F1500 ; ->L0.0  ; ->E0.04545  ; Wipe - reverse in progress Normal close
G1 X82.513 Y89.35 B0.516 F1500 ; ->L0.0  ; ->E0.30501  ; Wipe - reverse in progress Normal close
G1 X86.91 Y89.35 B0.449 F1500 ; ->L0.0  ; ->E0.06722  ; Wipe - reverse in progress Normal close
G1 X87.871 Y89.477 B0.381 F1500 ; ->L0.0  ; ->E0.06798  ; Wipe - reverse in progress Normal close
G1 X88.776 Y89.852 B0.313 F1500 ; ->L0.0  ; ->E0.06791  ; Wipe - reverse in progress Normal close
G1 X89.553 Y90.447 B0.245 F1500 ; ->L0.0  ; ->E0.06791  ; Wipe - reverse in progress Normal close
G1 X90.148 Y91.224 B0.177 F1500 ; ->L0.0  ; ->E0.06798  ; Wipe - reverse in progress Normal close
G1 X90.523 Y92.129 B0.11 F1500 ; ->L0.0  ; ->E0.06722  ; Wipe - reverse in progress Normal close
G1 X90.65 Y93.09 B0 F1500 ; ->L0.0  ; ->E0.10980999999999974  ; Wipe - reverse end Normal close
G90 			;Absolute positioning
G91				;Relative positioning
G90 			;Absolute positioning
G37 S				;Unlock door (S: don't wait for safe temp)
;
; Post print gcode
M104 S0  		;nozzle heater off

;Finish/Abort Print
M106			;Fan on full
G90 			;Absolute positioning
T0				;Select Nozzle 0 (T0)
G0 B0			;Close Nozzle
G91				;Relative positioning
G0 Z5			;Move up 5mm
G90 			;Absolute positioning
G0 X15 Y0		;Move to back corner

;Open Door
G37 S				;Unlock door (S: don't wait for safe temp)

;Every thing off
M170 S0			;Ambient control off
M103 S0			;Nozzle heater off
M140 S0			;Bed heater off
M107			;Fan off
M128			;Head Light off

M84				;Motors off
; End of Post print gcode
; EOF
