; File post-processed by roboxiser
;
; Pre print gcode
M103			;Set & heat first layer nozzle temp.
M139

G90 			;Absolute positioning
G0 B0			;Close Nozzle
G91				;Use X, Y relative Mode
G0 Z5			;Move up 5mm
G90 			;Absolute positioning
G28 X Y			;Home X, then Y

M109			;Wait for Nozzle to get to temp.

T0				;Select Nozzle 0 (T0)
G0 X30 Y75		;Level Gantry Position 1
G28 Z			;Home Z
G0 Z5 			;Move up 5mm
G0 X190 Y75		;Level Gantry Position 2
G28 Z			;Home Z
G0 Z5 			;Move up 5mm
G38 			;Level gantry
G0 X113 Y20		;Bed levelling Y Position 1
G28 Z			;Home Z
G0 Z5 			;Move up 5mm
G0 X113 Y130	;Bed levelling Y Position 2
G28 Z			;Home Z
G0 Z5 			;Move up 5mm
G39 			;level bed

G0 Y0 X21 Z10
M106

;Un-park Filament
M906 X0.1 Y0.1
G36 E500 F1000
M906 X1.1 Y1.1

;Short Purge
G0 Z3
T0
G0 B2
G1 E15 X44 F100
G0 B0
T0
T0
G0 Z5
G0 Y10

G0 Y0 Z10
T1
G0 Y0
G0 Z3
T1
G0 B2
G1 E15 X21 F100
G0 B0
T1
T1
G0 Z5
G0 Y10
G0 X110 Y75
G1 E2 F200

M129			;Head LED on
M190			;Wait for Bed to get to temp.
; End of Pre print gcode
M139 ; take 1st layer bed temperature from reel
M190 ; wait for bed temperature to be reached
M103 ; take 1st layer nozzle temperature from loaded reel
M109 ; wait for nozzle temperature to be reached
M170 ; take ambient temperature from loaded reel
 ;  generated by Slic3r 1.1.6 on 2014-07-24 at 16:12:55
 ;  perimeters extrusion width = 0.80mm
 ;  infill extrusion width = 0.80mm
 ;  solid infill extrusion width = 0.80mm
 ;  top infill extrusion width = 0.80mm
 ;  perimeters extrusion width = 0.80mm
 ;  infill extrusion width = 0.80mm
 ;  solid infill extrusion width = 0.80mm
 ;  top infill extrusion width = 0.80mm
 ;  perimeters extrusion width = 0.30mm
 ;  infill extrusion width = 0.80mm
 ;  solid infill extrusion width = 0.80mm
 ;  top infill extrusion width = 0.80mm
G21 ;  set units to millimeters
M190 S65 ;  wait for bed temperature to be reached
G90 ;  use absolute coordinates
M83 ;  use relative distances for extrusion
T1 ;  change extruder - force to nozzle 1 on first layer
G1 Z0.200 F12000.000 ;  move to next layer (0)
G1 X81.200 Y61.200 F12000.000 ; ->101.68028324114759  ;  move to first perimeter point
G1 B1.0 ; Open and replenish
G1 X138.800 Y61.200 E8.72040 D0.00000 F1080.000 ; ->L57.60000000000001 ->E8.7204 ->D0.0 ;  perimeter
G1 X138.800 Y118.800 E8.72040 D0.00000 ; ->L57.599999999999994 ->E8.7204 ->D0.0 ;  perimeter
G1 X81.200 Y118.800 E8.72040 D0.00000 ; ->L57.60000000000001 ->E8.7204 ->D0.0 ;  perimeter
G1 X81.200 Y61.320 E8.70224 D0.00000 ; ->L57.48 ->E8.70224 ->D0.0 ;  perimeter
G1 X80.400 Y60.400 F12000.000 ; ->1.2191800523302532  ;  move to first perimeter point
G1 X139.600 Y60.400 E8.96264 D0.00000 F1080.000 ; ->L59.19999999999999 ->E8.96264 ->D0.0 ;  perimeter
G1 X139.600 Y119.600 E8.96264 D0.00000 ; ->L59.199999999999996 ->E8.96264 ->D0.0 ;  perimeter
G1 X80.400 Y119.600 E8.96264 D0.00000 ; ->L59.19999999999999 ->E8.96264 ->D0.0 ;  perimeter
G1 X80.400 Y69.107 E7.64447 D0.00000 ; ->L50.49324184615874 ->E7.644469988079072 ->D0.0
G1 X80.400 Y67.125 ; ->1.981559634532675  ; Pre-close starvation
G1 X80.400 Y62.171 B0.800 ; ->L4.953898889481431  ; ->E0.0  ; null Differential close - part 1
G1 X80.400 Y60.520 B0.000 ; ->L1.6512996298271438  ; ->E0.0  ; Differential close - part 2
G1 X81.093 Y60.800 F12000.000 ; ->0.7474282574267537  ;  move inwards before travel
G1 X138.200 Y61.760 F12000.000 ; ->57.11506849334944  ;  move to first fill point
G1 B1.0 E1.30000 F400.00000 ; Open and replenish
G1 X138.240 Y61.800 E0.00856 D0.00000 F1080.000 ; ->L0.05656854249493767 ->E0.00856 ->D0.0 ;  fill
G1 X138.240 Y62.940 E0.17262 D0.00000 ; ->L1.1400000000000006 ->E0.17262 ->D0.0 ;  fill
G1 X137.060 Y61.760 E0.25269 D0.00000 ; ->L1.668772003600257 ->E0.25269 ->D0.0 ;  fill
G1 X135.920 Y61.760 E0.17262 D0.00000 ; ->L1.1400000000000148 ->E0.17262 ->D0.0 ;  fill
G1 X138.240 Y64.080 E0.49681 D0.00000 ; ->L3.280975464705596 ->E0.49681 ->D0.0 ;  fill
G1 X138.240 Y65.221 E0.17262 D0.00000 ; ->L1.1410000000000053 ->E0.17262 ->D0.0 ;  fill
G1 X134.779 Y61.760 E0.74094 D0.00000 ; ->L4.8945931393732955 ->E0.74094 ->D0.0 ;  fill
G1 X133.639 Y61.760 E0.17262 D0.00000 ; ->L1.1399999999999864 ->E0.17262 ->D0.0 ;  fill
G1 X138.240 Y66.361 E0.98506 D0.00000 ; ->L6.506796600478614 ->E0.98506 ->D0.0 ;  fill
G1 X138.240 Y67.501 E0.17262 D0.00000 ; ->L1.1400000000000006 ->E0.17262 ->D0.0 ;  fill
G1 X132.499 Y61.760 E1.22919 D0.00000 ; ->L8.119000061583954 ->E1.22919 ->D0.0 ;  fill
G1 X131.359 Y61.760 E0.17262 D0.00000 ; ->L1.1399999999999864 ->E0.17262 ->D0.0 ;  fill
G1 X138.240 Y68.641 E1.47331 D0.00000 ; ->L9.731203522689272 ->E1.47331 ->D0.0 ;  fill
G1 X138.240 Y69.781 E0.17262 D0.00000 ; ->L1.1400000000000006 ->E0.17262 ->D0.0 ;  fill
G1 X130.219 Y61.760 E1.71744 D0.00000 ; ->L11.343406983794612 ->E1.71744 ->D0.0 ;  fill
G1 X129.078 Y61.760 E0.17262 D0.00000 ; ->L1.1409999999999911 ->E0.17262 ->D0.0 ;  fill
G1 X138.240 Y70.922 E1.96156 D0.00000 ; ->L12.9570246584623 ->E1.96156 ->D0.0 ;  fill
G1 X138.240 Y72.062 E0.17262 D0.00000 ; ->L1.1400000000000006 ->E0.17262 ->D0.0 ;  fill
G1 X127.938 Y61.760 E2.20568 D0.00000 ; ->L14.56922811956763 ->E2.20568 ->D0.0 ;  fill
G1 X126.798 Y61.760 E0.17262 D0.00000 ; ->L1.1400000000000006 ->E0.17262 ->D0.0 ;  fill
G1 X138.240 Y73.202 E2.44981 D0.00000 ; ->L16.18143158067296 ->E2.44981 ->D0.0 ;  fill
G1 X138.240 Y74.342 E0.17262 D0.00000 ; ->L1.1400000000000006 ->E0.17262 ->D0.0 ;  fill
G1 X125.658 Y61.760 E2.69393 D0.00000 ; ->L17.793635041778288 ->E2.69393 ->D0.0 ;  fill
G1 X124.518 Y61.760 E0.17262 D0.00000 ; ->L1.1400000000000006 ->E0.17262 ->D0.0 ;  fill
G1 X138.240 Y75.482 E2.93806 D0.00000 ; ->L19.40583850288362 ->E2.93806 ->D0.0 ;  fill
G1 X138.240 Y76.623 E0.17262 D0.00000 ; ->L1.1410000000000053 ->E0.17262 ->D0.0 ;  fill
G1 X123.377 Y61.760 E3.18218 D0.00000 ; ->L21.019456177551326 ->E3.18218 ->D0.0 ;  fill
G1 X122.237 Y61.760 E0.17262 D0.00000 ; ->L1.1400000000000006 ->E0.17262 ->D0.0 ;  fill
G1 X138.240 Y77.763 E3.42631 D0.00000 ; ->L22.631659638656654 ->E3.42631 ->D0.0 ;  fill
G1 X138.240 Y78.903 E0.17262 D0.00000 ; ->L1.1400000000000006 ->E0.17262 ->D0.0 ;  fill
G1 X121.097 Y61.760 E3.67043 D0.00000 ; ->L24.243863099761985 ->E3.67043 ->D0.0 ;  fill
G1 X119.957 Y61.760 E0.17262 D0.00000 ; ->L1.1400000000000006 ->E0.17262 ->D0.0 ;  fill
G1 X138.240 Y80.043 E3.91456 D0.00000 ; ->L25.856066560867312 ->E3.91456 ->D0.0 ;  fill
G1 X138.240 Y81.183 E0.17262 D0.00000 ; ->L1.1400000000000006 ->E0.17262 ->D0.0 ;  fill
G1 X118.817 Y61.760 E4.15868 D0.00000 ; ->L27.468270021972643 ->E4.15868 ->D0.0 ;  fill
G1 X117.676 Y61.760 E0.17262 D0.00000 ; ->L1.1409999999999911 ->E0.17262 ->D0.0 ;  fill
G1 X138.240 Y82.324 E4.40280 D0.00000 ; ->L29.081887696640333 ->E4.4028 ->D0.0 ;  fill
G1 X138.240 Y83.464 E0.17262 D0.00000 ; ->L1.1400000000000006 ->E0.17262 ->D0.0 ;  fill
G1 X116.536 Y61.760 E4.64693 D0.00000 ; ->L30.69409115774566 ->E4.64693 ->D0.0 ;  fill
G1 X115.396 Y61.760 E0.17262 D0.00000 ; ->L1.1400000000000006 ->E0.17262 ->D0.0 ;  fill
G1 X138.240 Y84.604 E4.89105 D0.00000 ; ->L32.30629461885099 ->E4.89105 ->D0.0 ;  fill
G1 X138.240 Y85.744 E0.17262 D0.00000 ; ->L1.1400000000000006 ->E0.17262 ->D0.0 ;  fill
G1 X114.256 Y61.760 E5.13518 D0.00000 ; ->L33.91849807995632 ->E5.13518 ->D0.0 ;  fill
G1 X113.116 Y61.760 E0.17262 D0.00000 ; ->L1.1400000000000006 ->E0.17262 ->D0.0 ;  fill
G1 X138.240 Y86.884 E5.37930 D0.00000 ; ->L35.53070154106165 ->E5.3793 ->D0.0 ;  fill
G1 X138.240 Y88.025 E0.17262 D0.00000 ; ->L1.1410000000000053 ->E0.17262 ->D0.0 ;  fill
G1 X111.975 Y61.760 E5.62343 D0.00000 ; ->L37.14431921572936 ->E5.62343 ->D0.0 ;  fill
G1 X110.835 Y61.760 E0.17262 D0.00000 ; ->L1.1400000000000006 ->E0.17262 ->D0.0 ;  fill
G1 X138.240 Y89.165 E5.86755 D0.00000 ; ->L38.756522676834685 ->E5.86755 ->D0.0 ;  fill
G1 X138.240 Y90.305 E0.17262 D0.00000 ; ->L1.1400000000000006 ->E0.17262 ->D0.0 ;  fill
G1 X109.695 Y61.760 E6.11168 D0.00000 ; ->L40.368726137940016 ->E6.11168 ->D0.0 ;  fill
G1 X108.555 Y61.760 E0.17262 D0.00000 ; ->L1.1399999999999864 ->E0.17262 ->D0.0 ;  fill
G1 X138.240 Y91.445 E6.35580 D0.00000 ; ->L41.980929599045325 ->E6.3558 ->D0.0 ;  fill
G1 X138.240 Y92.585 E0.17262 D0.00000 ; ->L1.1400000000000006 ->E0.17262 ->D0.0 ;  fill
G1 X107.415 Y61.760 E6.59992 D0.00000 ; ->L43.593133060150656 ->E6.59992 ->D0.0 ;  fill
G1 X106.274 Y61.760 E0.17262 D0.00000 ; ->L1.1410000000000053 ->E0.17262 ->D0.0 ;  fill
G1 X138.240 Y93.726 E6.84405 D0.00000 ; ->L45.206750734818364 ->E6.84405 ->D0.0 ;  fill
G1 X138.240 Y94.866 E0.17262 D0.00000 ; ->L1.1400000000000006 ->E0.17262 ->D0.0 ;  fill
G1 X105.134 Y61.760 E7.08817 D0.00000 ; ->L46.818954195923695 ->E7.08817 ->D0.0 ;  fill
G1 X103.994 Y61.760 E0.17262 D0.00000 ; ->L1.1400000000000006 ->E0.17262 ->D0.0 ;  fill
G1 X138.240 Y96.006 E7.33230 D0.00000 ; ->L48.43115765702902 ->E7.3323 ->D0.0 ;  fill
G1 X138.240 Y97.146 E0.17262 D0.00000 ; ->L1.1400000000000006 ->E0.17262 ->D0.0 ;  fill
G1 X102.854 Y61.760 E7.57642 D0.00000 ; ->L50.04336111813435 ->E7.57642 ->D0.0 ;  fill
G1 X101.714 Y61.760 E0.17262 D0.00000 ; ->L1.1400000000000006 ->E0.17262 ->D0.0 ;  fill
G1 X138.240 Y98.286 E7.82055 D0.00000 ; ->L51.65556457923968 ->E7.82055 ->D0.0 ;  fill
G1 X138.240 Y99.427 E0.17262 D0.00000 ; ->L1.1410000000000053 ->E0.17262 ->D0.0 ;  fill
G1 X100.573 Y61.760 E8.06467 D0.00000 ; ->L53.26918225390739 ->E8.06467 ->D0.0 ;  fill
G1 X99.433 Y61.760 E0.17262 D0.00000 ; ->L1.1399999999999864 ->E0.17262 ->D0.0 ;  fill
G1 X138.240 Y100.567 E8.30880 D0.00000 ; ->L54.8813857150127 ->E8.3088 ->D0.0 ;  fill
G1 X138.240 Y101.707 E0.17262 D0.00000 ; ->L1.1400000000000006 ->E0.17262 ->D0.0 ;  fill
G1 X98.293 Y61.760 E8.55292 D0.00000 ; ->L56.49358917611802 ->E8.55292 ->D0.0 ;  fill
G1 X97.153 Y61.760 E0.17262 D0.00000 ; ->L1.1400000000000006 ->E0.17262 ->D0.0 ;  fill
G1 X138.240 Y102.847 E8.79704 D0.00000 ; ->L58.10579263722335 ->E8.79704 ->D0.0 ;  fill
G1 X138.240 Y103.987 E0.17262 D0.00000 ; ->L1.1400000000000006 ->E0.17262 ->D0.0 ;  fill
G1 X96.013 Y61.760 E9.04117 D0.00000 ; ->L59.71799609832868 ->E9.04117 ->D0.0 ;  fill
G1 X94.872 Y61.760 E0.17262 D0.00000 ; ->L1.1410000000000053 ->E0.17262 ->D0.0 ;  fill
G1 X138.240 Y105.128 E9.28529 D0.00000 ; ->L61.3316137729964 ->E9.28529 ->D0.0 ;  fill
G1 X138.240 Y106.268 E0.17262 D0.00000 ; ->L1.1400000000000006 ->E0.17262 ->D0.0 ;  fill
G1 X93.732 Y61.760 E9.52942 D0.00000 ; ->L62.94381723410173 ->E9.52942 ->D0.0 ;  fill
G1 X92.592 Y61.760 E0.17262 D0.00000 ; ->L1.1400000000000006 ->E0.17262 ->D0.0 ;  fill
G1 X138.240 Y107.408 E9.77354 D0.00000 ; ->L64.55602069520705 ->E9.77354 ->D0.0 ;  fill
G1 X138.240 Y108.548 E0.17262 D0.00000 ; ->L1.1400000000000006 ->E0.17262 ->D0.0 ;  fill
G1 X91.452 Y61.760 E10.01767 D0.00000 ; ->L66.16822415631238 ->E10.01767 ->D0.0 ;  fill
G1 X90.312 Y61.760 E0.17262 D0.00000 ; ->L1.1400000000000006 ->E0.17262 ->D0.0 ;  fill
G1 X138.240 Y109.688 E10.26179 D0.00000 ; ->L67.78042761741771 ->E10.26179 ->D0.0 ;  fill
G1 X138.240 Y110.829 E0.17262 D0.00000 ; ->L1.1409999999999911 ->E0.17262 ->D0.0 ;  fill
G1 X89.171 Y61.760 E10.50592 D0.00000 ; ->L69.3940452920854 ->E10.50592 ->D0.0 ;  fill
G1 X88.031 Y61.760 E0.17262 D0.00000 ; ->L1.1400000000000006 ->E0.17262 ->D0.0 ;  fill
G1 X138.240 Y111.969 E10.75004 D0.00000 ; ->L71.00624875319073 ->E10.75004 ->D0.0 ;  fill
G1 X138.240 Y113.109 E0.17262 D0.00000 ; ->L1.1400000000000006 ->E0.17262 ->D0.0 ;  fill
G1 X86.891 Y61.760 E10.99416 D0.00000 ; ->L72.61845221429606 ->E10.99416 ->D0.0 ;  fill
G1 X85.751 Y61.760 E0.17262 D0.00000 ; ->L1.1400000000000006 ->E0.17262 ->D0.0 ;  fill
G1 X138.240 Y114.249 E11.23829 D0.00000 ; ->L74.2306556754014 ->E11.23829 ->D0.0 ;  fill
G1 X138.240 Y115.390 E0.17262 D0.00000 ; ->L1.1410000000000053 ->E0.17262 ->D0.0 ;  fill
G1 X84.610 Y61.760 E11.48241 D0.00000 ; ->L75.84427335006909 ->E11.48241 ->D0.0 ;  fill
G1 X83.470 Y61.760 E0.17262 D0.00000 ; ->L1.1400000000000006 ->E0.17262 ->D0.0 ;  fill
G1 X138.240 Y116.530 E11.72654 D0.00000 ; ->L77.45647681117443 ->E11.72654 ->D0.0 ;  fill
G1 X138.240 Y117.670 E0.17262 D0.00000 ; ->L1.1400000000000006 ->E0.17262 ->D0.0 ;  fill
G1 X82.330 Y61.760 E11.97066 D0.00000 ; ->L79.06868027227976 ->E11.97066 ->D0.0 ;  fill
G1 X81.760 Y62.330 E0.12206 D0.00000 ; ->L0.8061017305526595 ->E0.12206 ->D0.0 ;  fill
G1 X137.670 Y118.240 E11.97066 D0.00000 ; ->L79.06868027227972 ->E11.97066 ->D0.0 ;  fill
G1 X136.530 Y118.240 E0.17262 D0.00000 ; ->L1.1399999999999864 ->E0.17262 ->D0.0 ;  fill
G1 X81.760 Y63.470 E11.72654 D0.00000 ; ->L77.45647681117441 ->E11.72654 ->D0.0 ;  fill
G1 X81.760 Y64.610 E0.17262 D0.00000 ; ->L1.1400000000000006 ->E0.17262 ->D0.0 ;  fill
G1 X135.390 Y118.240 E11.48241 D0.00000 ; ->L75.84427335006907 ->E11.48241 ->D0.0 ;  fill
G1 X134.249 Y118.240 E0.17262 D0.00000 ; ->L1.1409999999999911 ->E0.17262 ->D0.0 ;  fill
G1 X81.760 Y65.751 E11.23829 D0.00000 ; ->L74.23065567540137 ->E11.23829 ->D0.0 ;  fill
G1 X81.760 Y66.891 E0.17262 D0.00000 ; ->L1.1400000000000006 ->E0.17262 ->D0.0 ;  fill
G1 X133.109 Y118.240 E10.99416 D0.00000 ; ->L72.61845221429604 ->E10.99416 ->D0.0 ;  fill
G1 X131.969 Y118.240 E0.17262 D0.00000 ; ->L1.1400000000000148 ->E0.17262 ->D0.0 ;  fill
G1 X81.760 Y68.031 E10.75004 D0.00000 ; ->L71.00624875319072 ->E10.75004 ->D0.0 ;  fill
G1 X81.760 Y69.171 E0.17262 D0.00000 ; ->L1.1400000000000006 ->E0.17262 ->D0.0 ;  fill
G1 X130.829 Y118.240 E10.50592 D0.00000 ; ->L69.3940452920854 ->E10.50592 ->D0.0 ;  fill
G1 X129.688 Y118.240 E0.17262 D0.00000 ; ->L1.1410000000000196 ->E0.17262 ->D0.0 ;  fill
G1 X81.760 Y70.312 E10.26179 D0.00000 ; ->L67.78042761741769 ->E10.26179 ->D0.0 ;  fill
G1 X81.760 Y71.452 E0.17262 D0.00000 ; ->L1.1400000000000006 ->E0.17262 ->D0.0 ;  fill
G1 X128.548 Y118.240 E10.01767 D0.00000 ; ->L66.16822415631236 ->E10.01767 ->D0.0 ;  fill
G1 X127.408 Y118.240 E0.17262 D0.00000 ; ->L1.1400000000000006 ->E0.17262 ->D0.0 ;  fill
G1 X81.760 Y72.592 E9.77354 D0.00000 ; ->L64.55602069520704 ->E9.77354 ->D0.0 ;  fill
G1 X81.760 Y73.732 E0.17262 D0.00000 ; ->L1.1400000000000006 ->E0.17262 ->D0.0 ;  fill
G1 X126.268 Y118.240 E9.52942 D0.00000 ; ->L62.94381723410171 ->E9.52942 ->D0.0 ;  fill
G1 X125.128 Y118.240 E0.17262 D0.00000 ; ->L1.1400000000000006 ->E0.17262 ->D0.0 ;  fill
G1 X81.760 Y74.872 E9.28529 D0.00000 ; ->L61.33161377299638 ->E9.28529 ->D0.0 ;  fill
G1 X81.760 Y76.013 E0.17262 D0.00000 ; ->L1.1410000000000053 ->E0.17262 ->D0.0 ;  fill
G1 X123.987 Y118.240 E9.04117 D0.00000 ; ->L59.71799609832867 ->E9.04117 ->D0.0 ;  fill
G1 X122.847 Y118.240 E0.17262 D0.00000 ; ->L1.1400000000000006 ->E0.17262 ->D0.0 ;  fill
G1 X81.760 Y77.153 E8.79704 D0.00000 ; ->L58.105792637223345 ->E8.79704 ->D0.0 ;  fill
G1 X81.760 Y78.293 E0.17262 D0.00000 ; ->L1.1400000000000006 ->E0.17262 ->D0.0 ;  fill
G1 X121.707 Y118.240 E8.55292 D0.00000 ; ->L56.493589176118014 ->E8.55292 ->D0.0 ;  fill
G1 X120.567 Y118.240 E0.17262 D0.00000 ; ->L1.1400000000000006 ->E0.17262 ->D0.0 ;  fill
G1 X81.760 Y79.433 E8.30880 D0.00000 ; ->L54.881385715012684 ->E8.3088 ->D0.0 ;  fill
G1 X81.760 Y80.573 E0.17262 D0.00000 ; ->L1.1399999999999864 ->E0.17262 ->D0.0 ;  fill
G1 X119.427 Y118.240 E8.06467 D0.00000 ; ->L53.269182253907374 ->E8.06467 ->D0.0 ;  fill
G1 X118.286 Y118.240 E0.17262 D0.00000 ; ->L1.1410000000000053 ->E0.17262 ->D0.0 ;  fill
G1 X81.760 Y81.714 E7.82055 D0.00000 ; ->L51.655564579239666 ->E7.82055 ->D0.0 ;  fill
G1 X81.760 Y82.854 E0.17262 D0.00000 ; ->L1.1400000000000006 ->E0.17262 ->D0.0 ;  fill
G1 X117.146 Y118.240 E7.57642 D0.00000 ; ->L50.043361118134335 ->E7.57642 ->D0.0 ;  fill
G1 X116.006 Y118.240 E0.17262 D0.00000 ; ->L1.1400000000000006 ->E0.17262 ->D0.0 ;  fill
G1 X81.760 Y83.994 E7.33230 D0.00000 ; ->L48.431157657029004 ->E7.3323 ->D0.0 ;  fill
G1 X81.760 Y85.134 E0.17262 D0.00000 ; ->L1.1400000000000006 ->E0.17262 ->D0.0 ;  fill
G1 X114.866 Y118.240 E7.08817 D0.00000 ; ->L46.81895419592368 ->E7.08817 ->D0.0 ;  fill
G1 X113.726 Y118.240 E0.17262 D0.00000 ; ->L1.1400000000000006 ->E0.17262 ->D0.0 ;  fill
G1 X81.760 Y86.274 E6.84405 D0.00000 ; ->L45.20675073481835 ->E6.84405 ->D0.0 ;  fill
G1 X81.760 Y87.415 E0.17262 D0.00000 ; ->L1.1410000000000053 ->E0.17262 ->D0.0 ;  fill
G1 X112.585 Y118.240 E6.59992 D0.00000 ; ->L43.59313306015064 ->E6.59992 ->D0.0 ;  fill
G1 X111.445 Y118.240 E0.17262 D0.00000 ; ->L1.1400000000000006 ->E0.17262 ->D0.0 ;  fill
G1 X81.760 Y88.555 E6.35580 D0.00000 ; ->L41.98092959904531 ->E6.3558 ->D0.0 ;  fill
G1 X81.760 Y89.695 E0.17262 D0.00000 ; ->L1.1399999999999864 ->E0.17262 ->D0.0 ;  fill
G1 X110.305 Y118.240 E6.11168 D0.00000 ; ->L40.36872613794 ->E6.11168 ->D0.0 ;  fill
G1 X109.165 Y118.240 E0.17262 D0.00000 ; ->L1.1400000000000006 ->E0.17262 ->D0.0 ;  fill
G1 X81.760 Y90.835 E5.86755 D0.00000 ; ->L38.75652267683467 ->E5.86755 ->D0.0 ;  fill
G1 X81.760 Y91.975 E0.17262 D0.00000 ; ->L1.1400000000000006 ->E0.17262 ->D0.0 ;  fill
G1 X108.025 Y118.240 E5.62343 D0.00000 ; ->L37.14431921572934 ->E5.62343 ->D0.0 ;  fill
G1 X106.884 Y118.240 E0.17262 D0.00000 ; ->L1.1410000000000053 ->E0.17262 ->D0.0 ;  fill
G1 X81.760 Y93.116 E5.37930 D0.00000 ; ->L35.53070154106163 ->E5.3793 ->D0.0 ;  fill
G1 X81.760 Y94.256 E0.17262 D0.00000 ; ->L1.1400000000000006 ->E0.17262 ->D0.0 ;  fill
G1 X105.744 Y118.240 E5.13518 D0.00000 ; ->L33.91849807995631 ->E5.13518 ->D0.0 ;  fill
G1 X104.604 Y118.240 E0.17262 D0.00000 ; ->L1.1400000000000006 ->E0.17262 ->D0.0 ;  fill
G1 X81.760 Y95.396 E4.89105 D0.00000 ; ->L32.30629461885097 ->E4.89105 ->D0.0 ;  fill
G1 X81.760 Y96.536 E0.17262 D0.00000 ; ->L1.1400000000000006 ->E0.17262 ->D0.0 ;  fill
G1 X103.464 Y118.240 E4.64693 D0.00000 ; ->L30.694091157745646 ->E4.64693 ->D0.0 ;  fill
G1 X102.324 Y118.240 E0.17262 D0.00000 ; ->L1.1400000000000006 ->E0.17262 ->D0.0 ;  fill
G1 X81.760 Y97.676 E4.40280 D0.00000 ; ->L29.081887696640315 ->E4.4028 ->D0.0 ;  fill
G1 X81.760 Y98.817 E0.17262 D0.00000 ; ->L1.1409999999999911 ->E0.17262 ->D0.0 ;  fill
G1 X101.183 Y118.240 E4.15868 D0.00000 ; ->L27.46827002197263 ->E4.15868 ->D0.0 ;  fill
G1 X100.043 Y118.240 E0.17262 D0.00000 ; ->L1.1400000000000006 ->E0.17262 ->D0.0 ;  fill
G1 X81.760 Y99.957 E3.91456 D0.00000 ; ->L25.856066560867298 ->E3.91456 ->D0.0 ;  fill
G1 X81.760 Y101.097 E0.17262 D0.00000 ; ->L1.1400000000000006 ->E0.17262 ->D0.0 ;  fill
G1 X98.903 Y118.240 E3.67043 D0.00000 ; ->L24.24386309976197 ->E3.67043 ->D0.0 ;  fill
G1 X97.763 Y118.240 E0.17262 D0.00000 ; ->L1.1400000000000006 ->E0.17262 ->D0.0 ;  fill
G1 X81.760 Y102.237 E3.42631 D0.00000 ; ->L22.63165963865664 ->E3.42631 ->D0.0 ;  fill
G1 X81.760 Y103.377 E0.17262 D0.00000 ; ->L1.1400000000000006 ->E0.17262 ->D0.0 ;  fill
G1 X96.623 Y118.240 E3.18218 D0.00000 ; ->L21.019456177551312 ->E3.18218 ->D0.0 ;  fill
G1 X95.482 Y118.240 E0.17262 D0.00000 ; ->L1.1410000000000053 ->E0.17262 ->D0.0 ;  fill
G1 X81.760 Y104.518 E2.93806 D0.00000 ; ->L19.4058385028836 ->E2.93806 ->D0.0 ;  fill
G1 X81.760 Y105.658 E0.17262 D0.00000 ; ->L1.1400000000000006 ->E0.17262 ->D0.0 ;  fill
G1 X94.342 Y118.240 E2.69393 D0.00000 ; ->L17.793635041778273 ->E2.69393 ->D0.0 ;  fill
G1 X93.202 Y118.240 E0.17262 D0.00000 ; ->L1.1400000000000006 ->E0.17262 ->D0.0 ;  fill
G1 X81.760 Y106.798 E2.44981 D0.00000 ; ->L16.181431580672943 ->E2.44981 ->D0.0 ;  fill
G1 X81.760 Y107.938 E0.17262 D0.00000 ; ->L1.1400000000000006 ->E0.17262 ->D0.0 ;  fill
G1 X92.062 Y118.240 E2.20568 D0.00000 ; ->L14.569228119567613 ->E2.20568 ->D0.0 ;  fill
G1 X90.922 Y118.240 E0.17262 D0.00000 ; ->L1.1400000000000006 ->E0.17262 ->D0.0 ;  fill
G1 X81.760 Y109.078 E1.96156 D0.00000 ; ->L12.957024658462284 ->E1.96156 ->D0.0 ;  fill
G1 X81.760 Y110.219 E0.17262 D0.00000 ; ->L1.1409999999999911 ->E0.17262 ->D0.0 ;  fill
G1 X89.781 Y118.240 E1.71744 D0.00000 ; ->L11.343406983794596 ->E1.71744 ->D0.0 ;  fill
G1 X88.641 Y118.240 E0.17262 D0.00000 ; ->L1.1400000000000006 ->E0.17262 ->D0.0 ;  fill
G1 X81.760 Y111.359 E1.47331 D0.00000 ; ->L9.731203522689267 ->E1.47331 ->D0.0 ;  fill
G1 X81.760 Y112.499 E0.17262 D0.00000 ; ->L1.1400000000000006 ->E0.17262 ->D0.0 ;  fill
G1 X87.501 Y118.240 E1.22919 D0.00000 ; ->L8.119000061583938 ->E1.22919 ->D0.0 ;  fill
G1 X86.361 Y118.240 E0.17262 D0.00000 ; ->L1.1400000000000006 ->E0.17262 ->D0.0 ;  fill
G1 X81.760 Y113.639 E0.98506 D0.00000 ; ->L6.506796600478609 ->E0.98506 ->D0.0 ;  fill
G1 X81.760 Y114.779 E0.17262 D0.00000 ; ->L1.1400000000000006 ->E0.17262 ->D0.0 ;  fill
G1 X85.109 Y118.128 E0.71686 D0.00000 ; ->L4.735522416852959 ->E0.7168599880790709 ->D0.0
G1 X85.221 Y118.240 ; ->0.15907072252032076  ; Pre-close starvation
G1 X84.080 Y118.240 ; ->1.1410000000000053  ; Pre-close starvation
G1 X83.598 Y117.758 ; ->0.6822019796382628  ; Pre-close starvation
G1 X81.760 Y115.920 B0.895 ; ->L2.598773485067308  ; ->E0.0  ; null Differential close - part 1
G1 X81.760 Y117.060 B0.849 ; ->L1.1400000000000006  ; ->E0.0  ;  fill Differential close - part 1
G1 X82.619 Y117.919 B0.800 ; ->L1.2142827508091991  ; ->E0.0  ; null Differential close - part 1
G1 X82.940 Y118.240 B0.580 ; ->L0.4544892527910428  ; ->E0.0  ; Differential close - part 2
G1 X81.800 Y118.240 B0.027 ; ->L1.1400000000000006  ; ->E0.0  ; Differential close - part 2
G1 X81.760 Y118.200 B0.000 ; ->L0.05656854249491255  ; ->E0.0  ; Differential close - part 2
M106 S255 ;  enable fan
M140 S55 ;  set bed temperature
M104 ; take post layer 1 nozzle temperature from loaded reel - don't wait
M140 ; take post layer 1 bed temperature from loaded reel - don't wait
T1 ; return to intended nozzle
G1 Z0.400 F12000.000 ;  move to next layer (1)
G1 X81.200 Y61.200 F12000.000 ; ->57.00275081081614  ;  move to first perimeter point
G1 B1.0 E1.30000 F400.00000 ; Open and replenish
G1 X138.800 Y61.200 E8.72040 D0.00000 F1800.000 ; ->L57.60000000000001 ->E8.7204 ->D0.0 ;  perimeter
G1 X138.800 Y118.800 E8.72040 D0.00000 ; ->L57.599999999999994 ->E8.7204 ->D0.0 ;  perimeter
G1 X81.200 Y118.800 E8.72040 D0.00000 ; ->L57.60000000000001 ->E8.7204 ->D0.0 ;  perimeter
G1 X81.200 Y61.320 E8.70224 D0.00000 ; ->L57.48 ->E8.70224 ->D0.0 ;  perimeter
G1 X80.400 Y60.400 F12000.000 ; ->1.2191800523302532  ;  move to first perimeter point
G1 X139.600 Y60.400 E8.96264 D0.00000 F1260.000 ; ->L59.19999999999999 ->E8.96264 ->D0.0 ;  perimeter
G1 X139.600 Y119.600 E8.96264 D0.00000 ; ->L59.199999999999996 ->E8.96264 ->D0.0 ;  perimeter
G1 X80.400 Y119.600 E8.96264 D0.00000 ; ->L59.19999999999999 ->E8.96264 ->D0.0 ;  perimeter
G1 X80.400 Y60.520 E8.94447 D0.00000 ; ->L59.07999999999999 ->E8.94447 ->D0.0 ;  perimeter
G1 X81.093 Y60.800 F12000.000 ; ->0.7474282574267537  ;  move inwards before travel
G1 X81.800 Y61.760 F12000.000 ; ->1.1922453606535832  ;  move to first fill point
G1 X81.760 Y61.800 E0.00856 D0.00000 F1800.000 ; ->L0.05656854249491757 ->E0.00856 ->D0.0 ;  fill
G1 X81.760 Y62.940 E0.17262 D0.00000 ; ->L1.1400000000000006 ->E0.17262 ->D0.0 ;  fill
G1 X82.940 Y61.760 E0.25269 D0.00000 ; ->L1.6687720036002467 ->E0.25269 ->D0.0 ;  fill
G1 X84.080 Y61.760 E0.17262 D0.00000 ; ->L1.1400000000000006 ->E0.17262 ->D0.0 ;  fill
G1 X81.760 Y64.080 E0.49681 D0.00000 ; ->L3.280975464705576 ->E0.49681 ->D0.0 ;  fill
G1 X81.760 Y65.221 E0.17262 D0.00000 ; ->L1.1410000000000053 ->E0.17262 ->D0.0 ;  fill
G1 X85.221 Y61.760 E0.74094 D0.00000 ; ->L4.894593139373285 ->E0.74094 ->D0.0 ;  fill
G1 X86.361 Y61.760 E0.17262 D0.00000 ; ->L1.1400000000000006 ->E0.17262 ->D0.0 ;  fill
G1 X81.760 Y66.361 E0.98506 D0.00000 ; ->L6.506796600478614 ->E0.98506 ->D0.0 ;  fill
G1 X81.760 Y67.501 E0.17262 D0.00000 ; ->L1.1400000000000006 ->E0.17262 ->D0.0 ;  fill
G1 X87.501 Y61.760 E1.22919 D0.00000 ; ->L8.119000061583943 ->E1.22919 ->D0.0 ;  fill
G1 X88.641 Y61.760 E0.17262 D0.00000 ; ->L1.1400000000000006 ->E0.17262 ->D0.0 ;  fill
G1 X81.760 Y68.641 E1.47331 D0.00000 ; ->L9.731203522689272 ->E1.47331 ->D0.0 ;  fill
G1 X81.760 Y69.781 E0.17262 D0.00000 ; ->L1.1400000000000006 ->E0.17262 ->D0.0 ;  fill
G1 X89.781 Y61.760 E1.71744 D0.00000 ; ->L11.343406983794601 ->E1.71744 ->D0.0 ;  fill
G1 X90.922 Y61.760 E0.17262 D0.00000 ; ->L1.1409999999999911 ->E0.17262 ->D0.0 ;  fill
G1 X81.760 Y70.922 E1.96156 D0.00000 ; ->L12.95702465846229 ->E1.96156 ->D0.0 ;  fill
G1 X81.760 Y72.062 E0.17262 D0.00000 ; ->L1.1400000000000006 ->E0.17262 ->D0.0 ;  fill
G1 X92.062 Y61.760 E2.20568 D0.00000 ; ->L14.569228119567619 ->E2.20568 ->D0.0 ;  fill
G1 X93.202 Y61.760 E0.17262 D0.00000 ; ->L1.1400000000000006 ->E0.17262 ->D0.0 ;  fill
G1 X81.760 Y73.202 E2.44981 D0.00000 ; ->L16.18143158067295 ->E2.44981 ->D0.0 ;  fill
G1 X81.760 Y74.342 E0.17262 D0.00000 ; ->L1.1400000000000006 ->E0.17262 ->D0.0 ;  fill
G1 X94.342 Y61.760 E2.69393 D0.00000 ; ->L17.793635041778277 ->E2.69393 ->D0.0 ;  fill
G1 X95.482 Y61.760 E0.17262 D0.00000 ; ->L1.1400000000000006 ->E0.17262 ->D0.0 ;  fill
G1 X81.760 Y75.482 E2.93806 D0.00000 ; ->L19.405838502883604 ->E2.93806 ->D0.0 ;  fill
G1 X81.760 Y76.623 E0.17262 D0.00000 ; ->L1.1410000000000053 ->E0.17262 ->D0.0 ;  fill
G1 X96.623 Y61.760 E3.18218 D0.00000 ; ->L21.019456177551316 ->E3.18218 ->D0.0 ;  fill
G1 X97.763 Y61.760 E0.17262 D0.00000 ; ->L1.1400000000000006 ->E0.17262 ->D0.0 ;  fill
G1 X81.760 Y77.763 E3.42631 D0.00000 ; ->L22.631659638656643 ->E3.42631 ->D0.0 ;  fill
G1 X81.760 Y78.903 E0.17262 D0.00000 ; ->L1.1400000000000006 ->E0.17262 ->D0.0 ;  fill
G1 X98.903 Y61.760 E3.67043 D0.00000 ; ->L24.243863099761978 ->E3.67043 ->D0.0 ;  fill
G1 X100.043 Y61.760 E0.17262 D0.00000 ; ->L1.1400000000000006 ->E0.17262 ->D0.0 ;  fill
G1 X81.760 Y80.043 E3.91456 D0.00000 ; ->L25.8560665608673 ->E3.91456 ->D0.0 ;  fill
G1 X81.760 Y81.183 E0.17262 D0.00000 ; ->L1.1400000000000006 ->E0.17262 ->D0.0 ;  fill
G1 X101.183 Y61.760 E4.15868 D0.00000 ; ->L27.468270021972632 ->E4.15868 ->D0.0 ;  fill
G1 X102.324 Y61.760 E0.17262 D0.00000 ; ->L1.1409999999999911 ->E0.17262 ->D0.0 ;  fill
G1 X81.760 Y82.324 E4.40280 D0.00000 ; ->L29.081887696640322 ->E4.4028 ->D0.0 ;  fill
G1 X81.760 Y83.464 E0.17262 D0.00000 ; ->L1.1400000000000006 ->E0.17262 ->D0.0 ;  fill
G1 X103.464 Y61.760 E4.64693 D0.00000 ; ->L30.694091157745653 ->E4.64693 ->D0.0 ;  fill
G1 X104.604 Y61.760 E0.17262 D0.00000 ; ->L1.1400000000000006 ->E0.17262 ->D0.0 ;  fill
G1 X81.760 Y84.604 E4.89105 D0.00000 ; ->L32.30629461885098 ->E4.89105 ->D0.0 ;  fill
G1 X81.760 Y85.744 E0.17262 D0.00000 ; ->L1.1400000000000006 ->E0.17262 ->D0.0 ;  fill
G1 X105.744 Y61.760 E5.13518 D0.00000 ; ->L33.918498079956315 ->E5.13518 ->D0.0 ;  fill
G1 X106.884 Y61.760 E0.17262 D0.00000 ; ->L1.1400000000000006 ->E0.17262 ->D0.0 ;  fill
G1 X81.760 Y86.884 E5.37930 D0.00000 ; ->L35.53070154106164 ->E5.3793 ->D0.0 ;  fill
G1 X81.760 Y88.025 E0.17262 D0.00000 ; ->L1.1410000000000053 ->E0.17262 ->D0.0 ;  fill
G1 X108.025 Y61.760 E5.62343 D0.00000 ; ->L37.14431921572935 ->E5.62343 ->D0.0 ;  fill
G1 X109.165 Y61.760 E0.17262 D0.00000 ; ->L1.1400000000000006 ->E0.17262 ->D0.0 ;  fill
G1 X81.760 Y89.165 E5.86755 D0.00000 ; ->L38.75652267683468 ->E5.86755 ->D0.0 ;  fill
G1 X81.760 Y90.305 E0.17262 D0.00000 ; ->L1.1400000000000006 ->E0.17262 ->D0.0 ;  fill
G1 X110.305 Y61.760 E6.11168 D0.00000 ; ->L40.36872613794001 ->E6.11168 ->D0.0 ;  fill
G1 X111.445 Y61.760 E0.17262 D0.00000 ; ->L1.1399999999999864 ->E0.17262 ->D0.0 ;  fill
G1 X81.760 Y91.445 E6.35580 D0.00000 ; ->L41.98092959904532 ->E6.3558 ->D0.0 ;  fill
G1 X81.760 Y92.585 E0.17262 D0.00000 ; ->L1.1400000000000006 ->E0.17262 ->D0.0 ;  fill
G1 X112.585 Y61.760 E6.59993 D0.00000 ; ->L43.59313306015064 ->E6.59993 ->D0.0 ;  fill
G1 X113.726 Y61.760 E0.17262 D0.00000 ; ->L1.1410000000000053 ->E0.17262 ->D0.0 ;  fill
G1 X81.760 Y93.726 E6.84405 D0.00000 ; ->L45.20675073481836 ->E6.84405 ->D0.0 ;  fill
G1 X81.760 Y94.866 E0.17262 D0.00000 ; ->L1.1400000000000006 ->E0.17262 ->D0.0 ;  fill
G1 X114.866 Y61.760 E7.08818 D0.00000 ; ->L46.81895419592368 ->E7.08818 ->D0.0 ;  fill
G1 X116.006 Y61.760 E0.17262 D0.00000 ; ->L1.1400000000000006 ->E0.17262 ->D0.0 ;  fill
G1 X81.760 Y96.006 E7.33230 D0.00000 ; ->L48.43115765702901 ->E7.3323 ->D0.0 ;  fill
G1 X81.760 Y97.146 E0.17262 D0.00000 ; ->L1.1400000000000006 ->E0.17262 ->D0.0 ;  fill
G1 X117.146 Y61.760 E7.57642 D0.00000 ; ->L50.04336111813434 ->E7.57642 ->D0.0 ;  fill
G1 X118.286 Y61.760 E0.17262 D0.00000 ; ->L1.1400000000000006 ->E0.17262 ->D0.0 ;  fill
G1 X81.760 Y98.286 E7.82055 D0.00000 ; ->L51.65556457923967 ->E7.82055 ->D0.0 ;  fill
G1 X81.760 Y99.427 E0.17262 D0.00000 ; ->L1.1410000000000053 ->E0.17262 ->D0.0 ;  fill
G1 X119.427 Y61.760 E8.06467 D0.00000 ; ->L53.26918225390738 ->E8.06467 ->D0.0 ;  fill
G1 X120.567 Y61.760 E0.17262 D0.00000 ; ->L1.1399999999999864 ->E0.17262 ->D0.0 ;  fill
G1 X81.760 Y100.567 E8.30880 D0.00000 ; ->L54.88138571501269 ->E8.3088 ->D0.0 ;  fill
G1 X81.760 Y101.707 E0.17262 D0.00000 ; ->L1.1400000000000006 ->E0.17262 ->D0.0 ;  fill
G1 X121.707 Y61.760 E8.55292 D0.00000 ; ->L56.493589176118014 ->E8.55292 ->D0.0 ;  fill
G1 X122.847 Y61.760 E0.17262 D0.00000 ; ->L1.1400000000000006 ->E0.17262 ->D0.0 ;  fill
G1 X81.760 Y102.847 E8.79704 D0.00000 ; ->L58.105792637223345 ->E8.79704 ->D0.0 ;  fill
G1 X81.760 Y103.987 E0.17262 D0.00000 ; ->L1.1400000000000006 ->E0.17262 ->D0.0 ;  fill
G1 X123.987 Y61.760 E9.04117 D0.00000 ; ->L59.717996098328676 ->E9.04117 ->D0.0 ;  fill
G1 X125.128 Y61.760 E0.17262 D0.00000 ; ->L1.1410000000000053 ->E0.17262 ->D0.0 ;  fill
G1 X81.760 Y105.128 E9.28529 D0.00000 ; ->L61.331613772996384 ->E9.28529 ->D0.0 ;  fill
G1 X81.760 Y106.268 E0.17262 D0.00000 ; ->L1.1400000000000006 ->E0.17262 ->D0.0 ;  fill
G1 X126.268 Y61.760 E9.52942 D0.00000 ; ->L62.943817234101715 ->E9.52942 ->D0.0 ;  fill
G1 X127.408 Y61.760 E0.17262 D0.00000 ; ->L1.1400000000000006 ->E0.17262 ->D0.0 ;  fill
G1 X81.760 Y107.408 E9.77354 D0.00000 ; ->L64.55602069520704 ->E9.77354 ->D0.0 ;  fill
G1 X81.760 Y108.548 E0.17262 D0.00000 ; ->L1.1400000000000006 ->E0.17262 ->D0.0 ;  fill
G1 X128.548 Y61.760 E10.01767 D0.00000 ; ->L66.16822415631238 ->E10.01767 ->D0.0 ;  fill
G1 X129.688 Y61.760 E0.17262 D0.00000 ; ->L1.1399999999999864 ->E0.17262 ->D0.0 ;  fill
G1 X81.760 Y109.689 E10.26179 D0.00000 ; ->L67.78113472788722 ->E10.26179 ->D0.0 ;  fill
G1 X81.760 Y110.829 E0.17262 D0.00000 ; ->L1.1400000000000006 ->E0.17262 ->D0.0 ;  fill
G1 X130.829 Y61.760 E10.50592 D0.00000 ; ->L69.3940452920854 ->E10.50592 ->D0.0 ;  fill
G1 X131.969 Y61.760 E0.17262 D0.00000 ; ->L1.1399999999999864 ->E0.17262 ->D0.0 ;  fill
G1 X81.760 Y111.969 E10.75004 D0.00000 ; ->L71.00624875319072 ->E10.75004 ->D0.0 ;  fill
G1 X81.760 Y113.109 E0.17262 D0.00000 ; ->L1.1400000000000006 ->E0.17262 ->D0.0 ;  fill
G1 X133.109 Y61.760 E10.99417 D0.00000 ; ->L72.61845221429606 ->E10.99417 ->D0.0 ;  fill
G1 X134.249 Y61.760 E0.17262 D0.00000 ; ->L1.1399999999999864 ->E0.17262 ->D0.0 ;  fill
G1 X81.760 Y114.249 E11.23829 D0.00000 ; ->L74.23065567540138 ->E11.23829 ->D0.0 ;  fill
G1 X81.760 Y115.390 E0.17262 D0.00000 ; ->L1.1410000000000053 ->E0.17262 ->D0.0 ;  fill
G1 X135.390 Y61.760 E11.48242 D0.00000 ; ->L75.84427335006907 ->E11.48242 ->D0.0 ;  fill
G1 X136.530 Y61.760 E0.17262 D0.00000 ; ->L1.1400000000000148 ->E0.17262 ->D0.0 ;  fill
G1 X81.760 Y116.530 E11.72654 D0.00000 ; ->L77.45647681117441 ->E11.72654 ->D0.0 ;  fill
G1 X81.760 Y117.670 E0.17262 D0.00000 ; ->L1.1400000000000006 ->E0.17262 ->D0.0 ;  fill
G1 X137.670 Y61.760 E11.97066 D0.00000 ; ->L79.06868027227974 ->E11.97066 ->D0.0 ;  fill
G1 X138.240 Y62.330 E0.12206 D0.00000 ; ->L0.8061017305526796 ->E0.12206 ->D0.0 ;  fill
G1 X82.330 Y118.240 E11.97066 D0.00000 ; ->L79.06868027227975 ->E11.97066 ->D0.0 ;  fill
G1 X83.470 Y118.240 E0.17262 D0.00000 ; ->L1.1400000000000006 ->E0.17262 ->D0.0 ;  fill
G1 X138.240 Y63.470 E11.72654 D0.00000 ; ->L77.45647681117443 ->E11.72654 ->D0.0 ;  fill
G1 X138.240 Y64.610 E0.17262 D0.00000 ; ->L1.1400000000000006 ->E0.17262 ->D0.0 ;  fill
G1 X84.610 Y118.240 E11.48242 D0.00000 ; ->L75.84427335006909 ->E11.48242 ->D0.0 ;  fill
G1 X85.751 Y118.240 E0.17262 D0.00000 ; ->L1.1410000000000053 ->E0.17262 ->D0.0 ;  fill
G1 X138.240 Y65.751 E11.23829 D0.00000 ; ->L74.23065567540138 ->E11.23829 ->D0.0 ;  fill
G1 X138.240 Y66.891 E0.17262 D0.00000 ; ->L1.1400000000000006 ->E0.17262 ->D0.0 ;  fill
G1 X86.891 Y118.240 E10.99417 D0.00000 ; ->L72.61845221429604 ->E10.99417 ->D0.0 ;  fill
G1 X88.031 Y118.240 E0.17262 D0.00000 ; ->L1.1400000000000006 ->E0.17262 ->D0.0 ;  fill
G1 X138.240 Y68.031 E10.75004 D0.00000 ; ->L71.00624875319073 ->E10.75004 ->D0.0 ;  fill
G1 X138.240 Y69.171 E0.17262 D0.00000 ; ->L1.1400000000000006 ->E0.17262 ->D0.0 ;  fill
G1 X89.171 Y118.240 E10.50592 D0.00000 ; ->L69.3940452920854 ->E10.50592 ->D0.0 ;  fill
G1 X90.311 Y118.240 E0.17262 D0.00000 ; ->L1.1400000000000006 ->E0.17262 ->D0.0 ;  fill
G1 X138.240 Y70.312 E10.26179 D0.00000 ; ->L67.78113472788722 ->E10.26179 ->D0.0 ;  fill
G1 X138.240 Y71.452 E0.17262 D0.00000 ; ->L1.1400000000000006 ->E0.17262 ->D0.0 ;  fill
G1 X91.452 Y118.240 E10.01767 D0.00000 ; ->L66.16822415631238 ->E10.01767 ->D0.0 ;  fill
G1 X92.592 Y118.240 E0.17262 D0.00000 ; ->L1.1400000000000006 ->E0.17262 ->D0.0 ;  fill
G1 X138.240 Y72.592 E9.77354 D0.00000 ; ->L64.55602069520704 ->E9.77354 ->D0.0 ;  fill
G1 X138.240 Y73.732 E0.17262 D0.00000 ; ->L1.1400000000000006 ->E0.17262 ->D0.0 ;  fill
G1 X93.732 Y118.240 E9.52942 D0.00000 ; ->L62.94381723410172 ->E9.52942 ->D0.0 ;  fill
G1 X94.872 Y118.240 E0.17262 D0.00000 ; ->L1.1400000000000006 ->E0.17262 ->D0.0 ;  fill
G1 X138.240 Y74.872 E9.28529 D0.00000 ; ->L61.33161377299639 ->E9.28529 ->D0.0 ;  fill
G1 X138.240 Y76.013 E0.17262 D0.00000 ; ->L1.1410000000000053 ->E0.17262 ->D0.0 ;  fill
G1 X96.013 Y118.240 E9.04117 D0.00000 ; ->L59.717996098328676 ->E9.04117 ->D0.0 ;  fill
G1 X97.153 Y118.240 E0.17262 D0.00000 ; ->L1.1400000000000006 ->E0.17262 ->D0.0 ;  fill
G1 X138.240 Y77.153 E8.79704 D0.00000 ; ->L58.10579263722335 ->E8.79704 ->D0.0 ;  fill
G1 X138.240 Y78.293 E0.17262 D0.00000 ; ->L1.1400000000000006 ->E0.17262 ->D0.0 ;  fill
G1 X98.293 Y118.240 E8.55292 D0.00000 ; ->L56.49358917611802 ->E8.55292 ->D0.0 ;  fill
G1 X99.433 Y118.240 E0.17262 D0.00000 ; ->L1.1400000000000006 ->E0.17262 ->D0.0 ;  fill
G1 X138.240 Y79.433 E8.30880 D0.00000 ; ->L54.88138571501269 ->E8.3088 ->D0.0 ;  fill
G1 X138.240 Y80.573 E0.17262 D0.00000 ; ->L1.1399999999999864 ->E0.17262 ->D0.0 ;  fill
G1 X100.573 Y118.240 E8.06467 D0.00000 ; ->L53.26918225390738 ->E8.06467 ->D0.0 ;  fill
G1 X101.714 Y118.240 E0.17262 D0.00000 ; ->L1.1410000000000053 ->E0.17262 ->D0.0 ;  fill
G1 X138.240 Y81.714 E7.82055 D0.00000 ; ->L51.65556457923967 ->E7.82055 ->D0.0 ;  fill
G1 X138.240 Y82.854 E0.17262 D0.00000 ; ->L1.1400000000000006 ->E0.17262 ->D0.0 ;  fill
G1 X102.854 Y118.240 E7.57642 D0.00000 ; ->L50.04336111813435 ->E7.57642 ->D0.0 ;  fill
G1 X103.994 Y118.240 E0.17262 D0.00000 ; ->L1.1400000000000006 ->E0.17262 ->D0.0 ;  fill
G1 X138.240 Y83.994 E7.33230 D0.00000 ; ->L48.43115765702901 ->E7.3323 ->D0.0 ;  fill
G1 X138.240 Y85.134 E0.17262 D0.00000 ; ->L1.1400000000000006 ->E0.17262 ->D0.0 ;  fill
G1 X105.134 Y118.240 E7.08818 D0.00000 ; ->L46.81895419592369 ->E7.08818 ->D0.0 ;  fill
G1 X106.274 Y118.240 E0.17262 D0.00000 ; ->L1.1400000000000006 ->E0.17262 ->D0.0 ;  fill
G1 X138.240 Y86.274 E6.84405 D0.00000 ; ->L45.20675073481836 ->E6.84405 ->D0.0 ;  fill
G1 X138.240 Y87.415 E0.17262 D0.00000 ; ->L1.1410000000000053 ->E0.17262 ->D0.0 ;  fill
G1 X107.415 Y118.240 E6.59993 D0.00000 ; ->L43.59313306015065 ->E6.59993 ->D0.0 ;  fill
G1 X108.555 Y118.240 E0.17262 D0.00000 ; ->L1.1400000000000006 ->E0.17262 ->D0.0 ;  fill
G1 X138.240 Y88.555 E6.35580 D0.00000 ; ->L41.98092959904532 ->E6.3558 ->D0.0 ;  fill
G1 X138.240 Y89.695 E0.17262 D0.00000 ; ->L1.1399999999999864 ->E0.17262 ->D0.0 ;  fill
G1 X109.695 Y118.240 E6.11168 D0.00000 ; ->L40.36872613794001 ->E6.11168 ->D0.0 ;  fill
G1 X110.835 Y118.240 E0.17262 D0.00000 ; ->L1.1400000000000006 ->E0.17262 ->D0.0 ;  fill
G1 X138.240 Y90.835 E5.86755 D0.00000 ; ->L38.75652267683468 ->E5.86755 ->D0.0 ;  fill
G1 X138.240 Y91.975 E0.17262 D0.00000 ; ->L1.1400000000000006 ->E0.17262 ->D0.0 ;  fill
G1 X111.975 Y118.240 E5.62343 D0.00000 ; ->L37.144319215729354 ->E5.62343 ->D0.0 ;  fill
G1 X113.116 Y118.240 E0.17262 D0.00000 ; ->L1.1410000000000053 ->E0.17262 ->D0.0 ;  fill
G1 X138.240 Y93.116 E5.37930 D0.00000 ; ->L35.530701541061646 ->E5.3793 ->D0.0 ;  fill
G1 X138.240 Y94.256 E0.17262 D0.00000 ; ->L1.1400000000000006 ->E0.17262 ->D0.0 ;  fill
G1 X114.256 Y118.240 E5.13518 D0.00000 ; ->L33.918498079956315 ->E5.13518 ->D0.0 ;  fill
G1 X115.396 Y118.240 E0.17262 D0.00000 ; ->L1.1400000000000006 ->E0.17262 ->D0.0 ;  fill
G1 X138.240 Y95.396 E4.89105 D0.00000 ; ->L32.306294618850984 ->E4.89105 ->D0.0 ;  fill
G1 X138.240 Y96.536 E0.17262 D0.00000 ; ->L1.1400000000000006 ->E0.17262 ->D0.0 ;  fill
G1 X116.536 Y118.240 E4.64693 D0.00000 ; ->L30.694091157745657 ->E4.64693 ->D0.0 ;  fill
G1 X117.676 Y118.240 E0.17262 D0.00000 ; ->L1.1400000000000006 ->E0.17262 ->D0.0 ;  fill
G1 X138.240 Y97.676 E4.40280 D0.00000 ; ->L29.081887696640326 ->E4.4028 ->D0.0 ;  fill
G1 X138.240 Y98.817 E0.17262 D0.00000 ; ->L1.1409999999999911 ->E0.17262 ->D0.0 ;  fill
G1 X118.817 Y118.240 E4.15868 D0.00000 ; ->L27.468270021972636 ->E4.15868 ->D0.0 ;  fill
G1 X119.957 Y118.240 E0.17262 D0.00000 ; ->L1.1400000000000006 ->E0.17262 ->D0.0 ;  fill
G1 X138.240 Y99.957 E3.91456 D0.00000 ; ->L25.85606656086731 ->E3.91456 ->D0.0 ;  fill
G1 X138.240 Y101.097 E0.17262 D0.00000 ; ->L1.1400000000000006 ->E0.17262 ->D0.0 ;  fill
G1 X121.097 Y118.240 E3.67043 D0.00000 ; ->L24.24386309976198 ->E3.67043 ->D0.0 ;  fill
G1 X122.237 Y118.240 E0.17262 D0.00000 ; ->L1.1400000000000006 ->E0.17262 ->D0.0 ;  fill
G1 X138.240 Y102.237 E3.42631 D0.00000 ; ->L22.63165963865665 ->E3.42631 ->D0.0 ;  fill
G1 X138.240 Y103.377 E0.17262 D0.00000 ; ->L1.1400000000000006 ->E0.17262 ->D0.0 ;  fill
G1 X123.377 Y118.240 E3.18218 D0.00000 ; ->L21.01945617755132 ->E3.18218 ->D0.0 ;  fill
G1 X124.518 Y118.240 E0.17262 D0.00000 ; ->L1.1410000000000053 ->E0.17262 ->D0.0 ;  fill
G1 X138.240 Y104.518 E2.93806 D0.00000 ; ->L19.40583850288361 ->E2.93806 ->D0.0 ;  fill
G1 X138.240 Y105.658 E0.17262 D0.00000 ; ->L1.1400000000000006 ->E0.17262 ->D0.0 ;  fill
G1 X125.658 Y118.240 E2.69393 D0.00000 ; ->L17.793635041778284 ->E2.69393 ->D0.0 ;  fill
G1 X126.798 Y118.240 E0.17262 D0.00000 ; ->L1.1400000000000006 ->E0.17262 ->D0.0 ;  fill
G1 X138.240 Y106.798 E2.44981 D0.00000 ; ->L16.181431580672953 ->E2.44981 ->D0.0 ;  fill
G1 X138.240 Y107.938 E0.17262 D0.00000 ; ->L1.1400000000000006 ->E0.17262 ->D0.0 ;  fill
G1 X127.938 Y118.240 E2.20568 D0.00000 ; ->L14.569228119567624 ->E2.20568 ->D0.0 ;  fill
G1 X129.078 Y118.240 E0.17262 D0.00000 ; ->L1.1400000000000006 ->E0.17262 ->D0.0 ;  fill
G1 X138.240 Y109.078 E1.96156 D0.00000 ; ->L12.957024658462297 ->E1.96156 ->D0.0 ;  fill
G1 X138.240 Y110.219 E0.17262 D0.00000 ; ->L1.1409999999999911 ->E0.17262 ->D0.0 ;  fill
G1 X130.219 Y118.240 E1.71744 D0.00000 ; ->L11.343406983794607 ->E1.71744 ->D0.0 ;  fill
G1 X131.359 Y118.240 E0.17262 D0.00000 ; ->L1.1400000000000148 ->E0.17262 ->D0.0 ;  fill
G1 X138.240 Y111.359 E1.47331 D0.00000 ; ->L9.731203522689267 ->E1.47331 ->D0.0 ;  fill
G1 X138.240 Y112.499 E0.17262 D0.00000 ; ->L1.1400000000000006 ->E0.17262 ->D0.0 ;  fill
G1 X132.499 Y118.240 E1.22919 D0.00000 ; ->L8.119000061583948 ->E1.22919 ->D0.0 ;  fill
G1 X133.639 Y118.240 E0.17262 D0.00000 ; ->L1.1400000000000148 ->E0.17262 ->D0.0 ;  fill
G1 X138.240 Y113.639 E0.98506 D0.00000 ; ->L6.506796600478609 ->E0.98506 ->D0.0 ;  fill
G1 X138.240 Y114.779 E0.17262 D0.00000 ; ->L1.1400000000000006 ->E0.17262 ->D0.0 ;  fill
G1 X134.891 Y118.128 E0.71686 D0.00000 ; ->L4.7355224168529695 ->E0.7168599880790709 ->D0.0
G1 X134.779 Y118.240 ; ->0.1590707225203211  ; Pre-close starvation
G1 X135.920 Y118.240 ; ->1.1409999999999911  ; Pre-close starvation
G1 X136.402 Y117.758 ; ->0.682201979638267  ; Pre-close starvation
G1 X138.240 Y115.920 B0.895 ; ->L2.598773485067324  ; ->E0.0  ; null Differential close - part 1
G1 X138.240 Y117.060 B0.849 ; ->L1.1400000000000006  ; ->E0.0  ;  fill Differential close - part 1
G1 X137.381 Y117.919 B0.800 ; ->L1.2142827508092062  ; ->E0.0  ; null Differential close - part 1
G1 X137.060 Y118.240 B0.580 ; ->L0.4544892527910455  ; ->E0.0  ; Differential close - part 2
G1 X138.200 Y118.240 B0.027 ; ->L1.1399999999999864  ; ->E0.0  ; Differential close - part 2
G1 X138.240 Y118.200 B0.000 ; ->L0.05656854249493265  ; ->E0.0  ; Differential close - part 2
G1 Z0.600 F12000.000 ;  move to next layer (2)
G1 X81.200 Y61.200 F12000.000 ; ->80.63846228692609  ;  move to first perimeter point
G1 B1.0 E1.30000 F400.00000 ; Open and replenish
G1 X138.800 Y61.200 E8.72040 D0.00000 F1800.000 ; ->L57.60000000000001 ->E8.7204 ->D0.0 ;  perimeter
G1 X138.800 Y118.800 E8.72040 D0.00000 ; ->L57.599999999999994 ->E8.7204 ->D0.0 ;  perimeter
G1 X81.200 Y118.800 E8.72040 D0.00000 ; ->L57.60000000000001 ->E8.7204 ->D0.0 ;  perimeter
G1 X81.200 Y61.320 E8.70224 D0.00000 ; ->L57.48 ->E8.70224 ->D0.0 ;  perimeter
G1 X80.400 Y60.400 F12000.000 ; ->1.2191800523302532  ;  move to first perimeter point
G1 X139.600 Y60.400 E8.96264 D0.00000 F1260.000 ; ->L59.19999999999999 ->E8.96264 ->D0.0 ;  perimeter
G1 X139.600 Y119.600 E8.96264 D0.00000 ; ->L59.199999999999996 ->E8.96264 ->D0.0 ;  perimeter
G1 X80.400 Y119.600 E8.96264 D0.00000 ; ->L59.19999999999999 ->E8.96264 ->D0.0 ;  perimeter
G1 X80.400 Y69.107 E7.64447 D0.00000 ; ->L50.49324184615874 ->E7.644469988079072 ->D0.0
G1 X80.400 Y67.125 ; ->1.981559634532675  ; Pre-close starvation
G1 X80.400 Y62.171 B0.800 ; ->L4.953898889481431  ; ->E0.0  ; null Differential close - part 1
G1 X80.400 Y60.520 B0.000 ; ->L1.6512996298271438  ; ->E0.0  ; Differential close - part 2
G1 X81.093 Y60.800 F12000.000 ; ->0.7474282574267537  ;  move inwards before travel
G1 X138.200 Y61.760 F12000.000 ; ->57.11506849334944  ;  move to first fill point
G1 B1.0 E1.30000 F400.00000 ; Open and replenish
G1 X138.240 Y61.800 E0.00856 D0.00000 F1800.000 ; ->L0.05656854249493767 ->E0.00856 ->D0.0 ;  fill
G1 X138.240 Y62.940 E0.17262 D0.00000 ; ->L1.1400000000000006 ->E0.17262 ->D0.0 ;  fill
G1 X137.060 Y61.760 E0.25269 D0.00000 ; ->L1.668772003600257 ->E0.25269 ->D0.0 ;  fill
G1 X135.920 Y61.760 E0.17262 D0.00000 ; ->L1.1400000000000148 ->E0.17262 ->D0.0 ;  fill
G1 X138.240 Y64.080 E0.49681 D0.00000 ; ->L3.280975464705596 ->E0.49681 ->D0.0 ;  fill
G1 X138.240 Y65.221 E0.17262 D0.00000 ; ->L1.1410000000000053 ->E0.17262 ->D0.0 ;  fill
G1 X134.779 Y61.760 E0.74094 D0.00000 ; ->L4.8945931393732955 ->E0.74094 ->D0.0 ;  fill
G1 X133.639 Y61.760 E0.17262 D0.00000 ; ->L1.1399999999999864 ->E0.17262 ->D0.0 ;  fill
G1 X138.240 Y66.361 E0.98506 D0.00000 ; ->L6.506796600478614 ->E0.98506 ->D0.0 ;  fill
G1 X138.240 Y67.501 E0.17262 D0.00000 ; ->L1.1400000000000006 ->E0.17262 ->D0.0 ;  fill
G1 X132.499 Y61.760 E1.22919 D0.00000 ; ->L8.119000061583954 ->E1.22919 ->D0.0 ;  fill
G1 X131.359 Y61.760 E0.17262 D0.00000 ; ->L1.1399999999999864 ->E0.17262 ->D0.0 ;  fill
G1 X138.240 Y68.641 E1.47331 D0.00000 ; ->L9.731203522689272 ->E1.47331 ->D0.0 ;  fill
G1 X138.240 Y69.781 E0.17262 D0.00000 ; ->L1.1400000000000006 ->E0.17262 ->D0.0 ;  fill
G1 X130.219 Y61.760 E1.71744 D0.00000 ; ->L11.343406983794612 ->E1.71744 ->D0.0 ;  fill
G1 X129.078 Y61.760 E0.17262 D0.00000 ; ->L1.1409999999999911 ->E0.17262 ->D0.0 ;  fill
G1 X138.158 Y70.840 E1.94409 D0.00000 ; ->L12.841059146347694 ->E1.94409 ->D0.0 ;  fill
G1 X138.240 Y72.062 E0.18539 D0.00000 ; ->L1.2247481373735538 ->E0.18539 ->D0.0 ;  fill
G1 X127.938 Y61.760 E2.20568 D0.00000 ; ->L14.56922811956763 ->E2.20568 ->D0.0 ;  fill
G1 X126.798 Y61.760 E0.17262 D0.00000 ; ->L1.1400000000000006 ->E0.17262 ->D0.0 ;  fill
G1 X138.240 Y73.202 E2.44981 D0.00000 ; ->L16.18143158067296 ->E2.44981 ->D0.0 ;  fill
G1 X138.240 Y74.342 E0.17262 D0.00000 ; ->L1.1400000000000006 ->E0.17262 ->D0.0 ;  fill
G1 X125.658 Y61.760 E2.69393 D0.00000 ; ->L17.793635041778288 ->E2.69393 ->D0.0 ;  fill
G1 X124.518 Y61.760 E0.17262 D0.00000 ; ->L1.1400000000000006 ->E0.17262 ->D0.0 ;  fill
G1 X138.240 Y75.482 E2.93806 D0.00000 ; ->L19.40583850288362 ->E2.93806 ->D0.0 ;  fill
G1 X138.240 Y76.623 E0.17262 D0.00000 ; ->L1.1410000000000053 ->E0.17262 ->D0.0 ;  fill
G1 X123.377 Y61.760 E3.18218 D0.00000 ; ->L21.019456177551326 ->E3.18218 ->D0.0 ;  fill
G1 X122.237 Y61.760 E0.17262 D0.00000 ; ->L1.1400000000000006 ->E0.17262 ->D0.0 ;  fill
G1 X138.240 Y77.763 E3.42631 D0.00000 ; ->L22.631659638656654 ->E3.42631 ->D0.0 ;  fill
G1 X138.240 Y78.903 E0.17262 D0.00000 ; ->L1.1400000000000006 ->E0.17262 ->D0.0 ;  fill
G1 X121.097 Y61.760 E3.67043 D0.00000 ; ->L24.243863099761985 ->E3.67043 ->D0.0 ;  fill
G1 X119.957 Y61.760 E0.17262 D0.00000 ; ->L1.1400000000000006 ->E0.17262 ->D0.0 ;  fill
G1 X138.240 Y80.043 E3.91455 D0.00000 ; ->L25.856066560867312 ->E3.91455 ->D0.0 ;  fill
G1 X138.240 Y81.183 E0.17262 D0.00000 ; ->L1.1400000000000006 ->E0.17262 ->D0.0 ;  fill
G1 X118.817 Y61.760 E4.15868 D0.00000 ; ->L27.468270021972643 ->E4.15868 ->D0.0 ;  fill
G1 X117.676 Y61.760 E0.17262 D0.00000 ; ->L1.1409999999999911 ->E0.17262 ->D0.0 ;  fill
G1 X138.240 Y82.324 E4.40280 D0.00000 ; ->L29.081887696640333 ->E4.4028 ->D0.0 ;  fill
G1 X138.240 Y83.464 E0.17262 D0.00000 ; ->L1.1400000000000006 ->E0.17262 ->D0.0 ;  fill
G1 X116.536 Y61.760 E4.64693 D0.00000 ; ->L30.69409115774566 ->E4.64693 ->D0.0 ;  fill
G1 X115.396 Y61.760 E0.17262 D0.00000 ; ->L1.1400000000000006 ->E0.17262 ->D0.0 ;  fill
G1 X138.240 Y84.604 E4.89105 D0.00000 ; ->L32.30629461885099 ->E4.89105 ->D0.0 ;  fill
G1 X138.240 Y85.744 E0.17262 D0.00000 ; ->L1.1400000000000006 ->E0.17262 ->D0.0 ;  fill
G1 X114.256 Y61.760 E5.13518 D0.00000 ; ->L33.91849807995632 ->E5.13518 ->D0.0 ;  fill
G1 X113.116 Y61.760 E0.17262 D0.00000 ; ->L1.1400000000000006 ->E0.17262 ->D0.0 ;  fill
G1 X138.240 Y86.884 E5.37930 D0.00000 ; ->L35.53070154106165 ->E5.3793 ->D0.0 ;  fill
G1 X138.240 Y88.025 E0.17262 D0.00000 ; ->L1.1410000000000053 ->E0.17262 ->D0.0 ;  fill
G1 X111.975 Y61.760 E5.62343 D0.00000 ; ->L37.14431921572936 ->E5.62343 ->D0.0 ;  fill
G1 X110.835 Y61.760 E0.17262 D0.00000 ; ->L1.1400000000000006 ->E0.17262 ->D0.0 ;  fill
G1 X138.240 Y89.165 E5.86755 D0.00000 ; ->L38.756522676834685 ->E5.86755 ->D0.0 ;  fill
G1 X138.240 Y90.305 E0.17262 D0.00000 ; ->L1.1400000000000006 ->E0.17262 ->D0.0 ;  fill
G1 X109.695 Y61.760 E6.11168 D0.00000 ; ->L40.368726137940016 ->E6.11168 ->D0.0 ;  fill
G1 X108.555 Y61.760 E0.17262 D0.00000 ; ->L1.1399999999999864 ->E0.17262 ->D0.0 ;  fill
G1 X138.240 Y91.445 E6.35580 D0.00000 ; ->L41.980929599045325 ->E6.3558 ->D0.0 ;  fill
G1 X138.240 Y92.585 E0.17262 D0.00000 ; ->L1.1400000000000006 ->E0.17262 ->D0.0 ;  fill
G1 X107.415 Y61.760 E6.59992 D0.00000 ; ->L43.593133060150656 ->E6.59992 ->D0.0 ;  fill
G1 X106.274 Y61.760 E0.17262 D0.00000 ; ->L1.1410000000000053 ->E0.17262 ->D0.0 ;  fill
G1 X138.240 Y93.726 E6.84405 D0.00000 ; ->L45.206750734818364 ->E6.84405 ->D0.0 ;  fill
G1 X138.240 Y94.866 E0.17262 D0.00000 ; ->L1.1400000000000006 ->E0.17262 ->D0.0 ;  fill
G1 X105.134 Y61.760 E7.08817 D0.00000 ; ->L46.818954195923695 ->E7.08817 ->D0.0 ;  fill
G1 X103.994 Y61.760 E0.17262 D0.00000 ; ->L1.1400000000000006 ->E0.17262 ->D0.0 ;  fill
G1 X138.240 Y96.006 E7.33230 D0.00000 ; ->L48.43115765702902 ->E7.3323 ->D0.0 ;  fill
G1 X138.240 Y97.146 E0.17262 D0.00000 ; ->L1.1400000000000006 ->E0.17262 ->D0.0 ;  fill
G1 X102.854 Y61.760 E7.57642 D0.00000 ; ->L50.04336111813435 ->E7.57642 ->D0.0 ;  fill
G1 X101.714 Y61.760 E0.17262 D0.00000 ; ->L1.1400000000000006 ->E0.17262 ->D0.0 ;  fill
G1 X138.240 Y98.286 E7.82055 D0.00000 ; ->L51.65556457923968 ->E7.82055 ->D0.0 ;  fill
G1 X138.240 Y99.427 E0.17262 D0.00000 ; ->L1.1410000000000053 ->E0.17262 ->D0.0 ;  fill
G1 X100.573 Y61.760 E8.06467 D0.00000 ; ->L53.26918225390739 ->E8.06467 ->D0.0 ;  fill
G1 X99.433 Y61.760 E0.17262 D0.00000 ; ->L1.1399999999999864 ->E0.17262 ->D0.0 ;  fill
G1 X138.240 Y100.567 E8.30880 D0.00000 ; ->L54.8813857150127 ->E8.3088 ->D0.0 ;  fill
G1 X138.240 Y101.707 E0.17262 D0.00000 ; ->L1.1400000000000006 ->E0.17262 ->D0.0 ;  fill
G1 X98.293 Y61.760 E8.55292 D0.00000 ; ->L56.49358917611802 ->E8.55292 ->D0.0 ;  fill
G1 X97.153 Y61.760 E0.17262 D0.00000 ; ->L1.1400000000000006 ->E0.17262 ->D0.0 ;  fill
G1 X138.240 Y102.847 E8.79704 D0.00000 ; ->L58.10579263722335 ->E8.79704 ->D0.0 ;  fill
G1 X138.240 Y103.987 E0.17262 D0.00000 ; ->L1.1400000000000006 ->E0.17262 ->D0.0 ;  fill
G1 X96.013 Y61.760 E9.04117 D0.00000 ; ->L59.71799609832868 ->E9.04117 ->D0.0 ;  fill
G1 X94.872 Y61.760 E0.17262 D0.00000 ; ->L1.1410000000000053 ->E0.17262 ->D0.0 ;  fill
G1 X138.240 Y105.128 E9.28529 D0.00000 ; ->L61.3316137729964 ->E9.28529 ->D0.0 ;  fill
G1 X138.240 Y106.268 E0.17262 D0.00000 ; ->L1.1400000000000006 ->E0.17262 ->D0.0 ;  fill
G1 X93.732 Y61.760 E9.52942 D0.00000 ; ->L62.94381723410173 ->E9.52942 ->D0.0 ;  fill
G1 X92.592 Y61.760 E0.17262 D0.00000 ; ->L1.1400000000000006 ->E0.17262 ->D0.0 ;  fill
G1 X138.240 Y107.408 E9.77354 D0.00000 ; ->L64.55602069520705 ->E9.77354 ->D0.0 ;  fill
G1 X138.240 Y108.548 E0.17262 D0.00000 ; ->L1.1400000000000006 ->E0.17262 ->D0.0 ;  fill
G1 X91.452 Y61.760 E10.01766 D0.00000 ; ->L66.16822415631238 ->E10.01766 ->D0.0 ;  fill
G1 X90.312 Y61.760 E0.17262 D0.00000 ; ->L1.1400000000000006 ->E0.17262 ->D0.0 ;  fill
G1 X138.240 Y109.688 E10.26179 D0.00000 ; ->L67.78042761741771 ->E10.26179 ->D0.0 ;  fill
G1 X138.240 Y110.829 E0.17262 D0.00000 ; ->L1.1409999999999911 ->E0.17262 ->D0.0 ;  fill
G1 X89.171 Y61.760 E10.50592 D0.00000 ; ->L69.3940452920854 ->E10.50592 ->D0.0 ;  fill
G1 X88.031 Y61.760 E0.17262 D0.00000 ; ->L1.1400000000000006 ->E0.17262 ->D0.0 ;  fill
G1 X138.240 Y111.969 E10.75004 D0.00000 ; ->L71.00624875319073 ->E10.75004 ->D0.0 ;  fill
G1 X138.240 Y113.109 E0.17262 D0.00000 ; ->L1.1400000000000006 ->E0.17262 ->D0.0 ;  fill
G1 X86.891 Y61.760 E10.99416 D0.00000 ; ->L72.61845221429606 ->E10.99416 ->D0.0 ;  fill
G1 X85.751 Y61.760 E0.17262 D0.00000 ; ->L1.1400000000000006 ->E0.17262 ->D0.0 ;  fill
G1 X138.240 Y114.249 E11.23829 D0.00000 ; ->L74.2306556754014 ->E11.23829 ->D0.0 ;  fill
G1 X138.240 Y115.390 E0.17262 D0.00000 ; ->L1.1410000000000053 ->E0.17262 ->D0.0 ;  fill
G1 X84.610 Y61.760 E11.48241 D0.00000 ; ->L75.84427335006909 ->E11.48241 ->D0.0 ;  fill
G1 X83.470 Y61.760 E0.17262 D0.00000 ; ->L1.1400000000000006 ->E0.17262 ->D0.0 ;  fill
G1 X138.240 Y116.530 E11.72654 D0.00000 ; ->L77.45647681117443 ->E11.72654 ->D0.0 ;  fill
G1 X138.240 Y117.670 E0.17262 D0.00000 ; ->L1.1400000000000006 ->E0.17262 ->D0.0 ;  fill
G1 X82.330 Y61.760 E11.97066 D0.00000 ; ->L79.06868027227976 ->E11.97066 ->D0.0 ;  fill
G1 X81.760 Y62.330 E0.12206 D0.00000 ; ->L0.8061017305526595 ->E0.12206 ->D0.0 ;  fill
G1 X137.670 Y118.240 E11.97066 D0.00000 ; ->L79.06868027227972 ->E11.97066 ->D0.0 ;  fill
G1 X136.530 Y118.240 E0.17262 D0.00000 ; ->L1.1399999999999864 ->E0.17262 ->D0.0 ;  fill
G1 X81.760 Y63.470 E11.72654 D0.00000 ; ->L77.45647681117441 ->E11.72654 ->D0.0 ;  fill
G1 X81.760 Y64.610 E0.17262 D0.00000 ; ->L1.1400000000000006 ->E0.17262 ->D0.0 ;  fill
G1 X135.390 Y118.240 E11.48241 D0.00000 ; ->L75.84427335006907 ->E11.48241 ->D0.0 ;  fill
G1 X134.249 Y118.240 E0.17262 D0.00000 ; ->L1.1409999999999911 ->E0.17262 ->D0.0 ;  fill
G1 X81.760 Y65.751 E11.23828 D0.00000 ; ->L74.23065567540137 ->E11.23828 ->D0.0 ;  fill
G1 X81.760 Y66.891 E0.17262 D0.00000 ; ->L1.1400000000000006 ->E0.17262 ->D0.0 ;  fill
G1 X133.109 Y118.240 E10.99416 D0.00000 ; ->L72.61845221429604 ->E10.99416 ->D0.0 ;  fill
G1 X131.969 Y118.240 E0.17262 D0.00000 ; ->L1.1400000000000148 ->E0.17262 ->D0.0 ;  fill
G1 X81.760 Y68.031 E10.75004 D0.00000 ; ->L71.00624875319072 ->E10.75004 ->D0.0 ;  fill
G1 X81.760 Y69.171 E0.17262 D0.00000 ; ->L1.1400000000000006 ->E0.17262 ->D0.0 ;  fill
G1 X130.829 Y118.240 E10.50591 D0.00000 ; ->L69.3940452920854 ->E10.50591 ->D0.0 ;  fill
G1 X129.688 Y118.240 E0.17262 D0.00000 ; ->L1.1410000000000196 ->E0.17262 ->D0.0 ;  fill
G1 X81.760 Y70.312 E10.26179 D0.00000 ; ->L67.78042761741769 ->E10.26179 ->D0.0 ;  fill
G1 X81.760 Y71.452 E0.17262 D0.00000 ; ->L1.1400000000000006 ->E0.17262 ->D0.0 ;  fill
G1 X128.548 Y118.240 E10.01766 D0.00000 ; ->L66.16822415631236 ->E10.01766 ->D0.0 ;  fill
G1 X127.408 Y118.240 E0.17262 D0.00000 ; ->L1.1400000000000006 ->E0.17262 ->D0.0 ;  fill
G1 X81.760 Y72.592 E9.77354 D0.00000 ; ->L64.55602069520704 ->E9.77354 ->D0.0 ;  fill
G1 X81.760 Y73.732 E0.17262 D0.00000 ; ->L1.1400000000000006 ->E0.17262 ->D0.0 ;  fill
G1 X126.268 Y118.240 E9.52941 D0.00000 ; ->L62.94381723410171 ->E9.52941 ->D0.0 ;  fill
G1 X125.128 Y118.240 E0.17262 D0.00000 ; ->L1.1400000000000006 ->E0.17262 ->D0.0 ;  fill
G1 X81.760 Y74.872 E9.28529 D0.00000 ; ->L61.33161377299638 ->E9.28529 ->D0.0 ;  fill
G1 X81.760 Y76.013 E0.17262 D0.00000 ; ->L1.1410000000000053 ->E0.17262 ->D0.0 ;  fill
G1 X123.987 Y118.240 E9.04116 D0.00000 ; ->L59.71799609832867 ->E9.04116 ->D0.0 ;  fill
G1 X122.847 Y118.240 E0.17262 D0.00000 ; ->L1.1400000000000006 ->E0.17262 ->D0.0 ;  fill
G1 X81.760 Y77.153 E8.79704 D0.00000 ; ->L58.105792637223345 ->E8.79704 ->D0.0 ;  fill
G1 X81.760 Y78.293 E0.17262 D0.00000 ; ->L1.1400000000000006 ->E0.17262 ->D0.0 ;  fill
G1 X121.707 Y118.240 E8.55292 D0.00000 ; ->L56.493589176118014 ->E8.55292 ->D0.0 ;  fill
G1 X120.567 Y118.240 E0.17262 D0.00000 ; ->L1.1400000000000006 ->E0.17262 ->D0.0 ;  fill
G1 X81.760 Y79.433 E8.30879 D0.00000 ; ->L54.881385715012684 ->E8.30879 ->D0.0 ;  fill
G1 X81.760 Y80.573 E0.17262 D0.00000 ; ->L1.1399999999999864 ->E0.17262 ->D0.0 ;  fill
G1 X119.427 Y118.240 E8.06467 D0.00000 ; ->L53.269182253907374 ->E8.06467 ->D0.0 ;  fill
G1 X118.286 Y118.240 E0.17262 D0.00000 ; ->L1.1410000000000053 ->E0.17262 ->D0.0 ;  fill
G1 X81.760 Y81.714 E7.82054 D0.00000 ; ->L51.655564579239666 ->E7.82054 ->D0.0 ;  fill
G1 X81.760 Y82.854 E0.17262 D0.00000 ; ->L1.1400000000000006 ->E0.17262 ->D0.0 ;  fill
G1 X117.146 Y118.240 E7.57642 D0.00000 ; ->L50.043361118134335 ->E7.57642 ->D0.0 ;  fill
G1 X116.006 Y118.240 E0.17262 D0.00000 ; ->L1.1400000000000006 ->E0.17262 ->D0.0 ;  fill
G1 X81.760 Y83.994 E7.33229 D0.00000 ; ->L48.431157657029004 ->E7.33229 ->D0.0 ;  fill
G1 X81.760 Y85.134 E0.17262 D0.00000 ; ->L1.1400000000000006 ->E0.17262 ->D0.0 ;  fill
G1 X114.866 Y118.240 E7.08817 D0.00000 ; ->L46.81895419592368 ->E7.08817 ->D0.0 ;  fill
G1 X113.726 Y118.240 E0.17262 D0.00000 ; ->L1.1400000000000006 ->E0.17262 ->D0.0 ;  fill
G1 X81.760 Y86.274 E6.84405 D0.00000 ; ->L45.20675073481835 ->E6.84405 ->D0.0 ;  fill
G1 X81.760 Y87.415 E0.17262 D0.00000 ; ->L1.1410000000000053 ->E0.17262 ->D0.0 ;  fill
G1 X112.585 Y118.240 E6.59992 D0.00000 ; ->L43.59313306015064 ->E6.59992 ->D0.0 ;  fill
G1 X111.445 Y118.240 E0.17262 D0.00000 ; ->L1.1400000000000006 ->E0.17262 ->D0.0 ;  fill
G1 X81.760 Y88.555 E6.35580 D0.00000 ; ->L41.98092959904531 ->E6.3558 ->D0.0 ;  fill
G1 X81.760 Y89.695 E0.17262 D0.00000 ; ->L1.1399999999999864 ->E0.17262 ->D0.0 ;  fill
G1 X110.305 Y118.240 E6.11168 D0.00000 ; ->L40.36872613794 ->E6.11168 ->D0.0 ;  fill
G1 X109.165 Y118.240 E0.17262 D0.00000 ; ->L1.1400000000000006 ->E0.17262 ->D0.0 ;  fill
G1 X81.760 Y90.835 E5.86755 D0.00000 ; ->L38.75652267683467 ->E5.86755 ->D0.0 ;  fill
G1 X81.760 Y91.975 E0.17262 D0.00000 ; ->L1.1400000000000006 ->E0.17262 ->D0.0 ;  fill
G1 X108.025 Y118.240 E5.62343 D0.00000 ; ->L37.14431921572934 ->E5.62343 ->D0.0 ;  fill
G1 X106.884 Y118.240 E0.17262 D0.00000 ; ->L1.1410000000000053 ->E0.17262 ->D0.0 ;  fill
G1 X81.760 Y93.116 E5.37930 D0.00000 ; ->L35.53070154106163 ->E5.3793 ->D0.0 ;  fill
G1 X81.760 Y94.256 E0.17262 D0.00000 ; ->L1.1400000000000006 ->E0.17262 ->D0.0 ;  fill
G1 X105.744 Y118.240 E5.13518 D0.00000 ; ->L33.91849807995631 ->E5.13518 ->D0.0 ;  fill
G1 X104.604 Y118.240 E0.17262 D0.00000 ; ->L1.1400000000000006 ->E0.17262 ->D0.0 ;  fill
G1 X81.760 Y95.396 E4.89105 D0.00000 ; ->L32.30629461885097 ->E4.89105 ->D0.0 ;  fill
G1 X81.760 Y96.536 E0.17262 D0.00000 ; ->L1.1400000000000006 ->E0.17262 ->D0.0 ;  fill
G1 X103.464 Y118.240 E4.64693 D0.00000 ; ->L30.694091157745646 ->E4.64693 ->D0.0 ;  fill
G1 X102.324 Y118.240 E0.17262 D0.00000 ; ->L1.1400000000000006 ->E0.17262 ->D0.0 ;  fill
G1 X81.760 Y97.676 E4.40280 D0.00000 ; ->L29.081887696640315 ->E4.4028 ->D0.0 ;  fill
G1 X81.760 Y98.817 E0.17262 D0.00000 ; ->L1.1409999999999911 ->E0.17262 ->D0.0 ;  fill
G1 X101.183 Y118.240 E4.15868 D0.00000 ; ->L27.46827002197263 ->E4.15868 ->D0.0 ;  fill
G1 X100.043 Y118.240 E0.17262 D0.00000 ; ->L1.1400000000000006 ->E0.17262 ->D0.0 ;  fill
G1 X81.760 Y99.957 E3.91456 D0.00000 ; ->L25.856066560867298 ->E3.91456 ->D0.0 ;  fill
G1 X81.760 Y101.097 E0.17262 D0.00000 ; ->L1.1400000000000006 ->E0.17262 ->D0.0 ;  fill
G1 X98.903 Y118.240 E3.67043 D0.00000 ; ->L24.24386309976197 ->E3.67043 ->D0.0 ;  fill
G1 X97.763 Y118.240 E0.17262 D0.00000 ; ->L1.1400000000000006 ->E0.17262 ->D0.0 ;  fill
G1 X81.760 Y102.237 E3.42631 D0.00000 ; ->L22.63165963865664 ->E3.42631 ->D0.0 ;  fill
G1 X81.760 Y103.377 E0.17262 D0.00000 ; ->L1.1400000000000006 ->E0.17262 ->D0.0 ;  fill
G1 X96.623 Y118.240 E3.18218 D0.00000 ; ->L21.019456177551312 ->E3.18218 ->D0.0 ;  fill
G1 X95.482 Y118.240 E0.17262 D0.00000 ; ->L1.1410000000000053 ->E0.17262 ->D0.0 ;  fill
G1 X81.760 Y104.518 E2.93806 D0.00000 ; ->L19.4058385028836 ->E2.93806 ->D0.0 ;  fill
G1 X81.760 Y105.658 E0.17262 D0.00000 ; ->L1.1400000000000006 ->E0.17262 ->D0.0 ;  fill
G1 X94.342 Y118.240 E2.69393 D0.00000 ; ->L17.793635041778273 ->E2.69393 ->D0.0 ;  fill
G1 X93.202 Y118.240 E0.17262 D0.00000 ; ->L1.1400000000000006 ->E0.17262 ->D0.0 ;  fill
G1 X81.760 Y106.798 E2.44981 D0.00000 ; ->L16.181431580672943 ->E2.44981 ->D0.0 ;  fill
G1 X81.760 Y107.938 E0.17262 D0.00000 ; ->L1.1400000000000006 ->E0.17262 ->D0.0 ;  fill
G1 X92.062 Y118.240 E2.20568 D0.00000 ; ->L14.569228119567613 ->E2.20568 ->D0.0 ;  fill
G1 X90.922 Y118.240 E0.17262 D0.00000 ; ->L1.1400000000000006 ->E0.17262 ->D0.0 ;  fill
G1 X81.760 Y109.078 E1.96156 D0.00000 ; ->L12.957024658462284 ->E1.96156 ->D0.0 ;  fill
G1 X81.760 Y110.219 E0.17262 D0.00000 ; ->L1.1409999999999911 ->E0.17262 ->D0.0 ;  fill
G1 X89.781 Y118.240 E1.71744 D0.00000 ; ->L11.343406983794596 ->E1.71744 ->D0.0 ;  fill
G1 X88.641 Y118.240 E0.17262 D0.00000 ; ->L1.1400000000000006 ->E0.17262 ->D0.0 ;  fill
G1 X81.760 Y111.359 E1.47331 D0.00000 ; ->L9.731203522689267 ->E1.47331 ->D0.0 ;  fill
G1 X81.760 Y112.499 E0.17262 D0.00000 ; ->L1.1400000000000006 ->E0.17262 ->D0.0 ;  fill
G1 X87.501 Y118.240 E1.22919 D0.00000 ; ->L8.119000061583938 ->E1.22919 ->D0.0 ;  fill
G1 X86.361 Y118.240 E0.17262 D0.00000 ; ->L1.1400000000000006 ->E0.17262 ->D0.0 ;  fill
G1 X81.760 Y113.639 E0.98506 D0.00000 ; ->L6.506796600478609 ->E0.98506 ->D0.0 ;  fill
G1 X81.760 Y114.779 E0.17262 D0.00000 ; ->L1.1400000000000006 ->E0.17262 ->D0.0 ;  fill
G1 X85.109 Y118.128 E0.71686 D0.00000 ; ->L4.735522416852959 ->E0.7168599880790709 ->D0.0
G1 X85.221 Y118.240 ; ->0.15907072252032076  ; Pre-close starvation
G1 X84.080 Y118.240 ; ->1.1410000000000053  ; Pre-close starvation
G1 X83.598 Y117.758 ; ->0.6822019796382628  ; Pre-close starvation
G1 X81.760 Y115.920 B0.895 ; ->L2.598773485067308  ; ->E0.0  ; null Differential close - part 1
G1 X81.760 Y117.060 B0.849 ; ->L1.1400000000000006  ; ->E0.0  ;  fill Differential close - part 1
G1 X82.619 Y117.919 B0.800 ; ->L1.2142827508091991  ; ->E0.0  ; null Differential close - part 1
G1 X82.940 Y118.240 B0.580 ; ->L0.4544892527910428  ; ->E0.0  ; Differential close - part 2
G1 X81.800 Y118.240 B0.027 ; ->L1.1400000000000006  ; ->E0.0  ; Differential close - part 2
G1 X81.760 Y118.200 B0.000 ; ->L0.05656854249491255  ; ->E0.0  ; Differential close - part 2
G1 Z0.800 F12000.000 ;  move to next layer (3)
G1 X125.050 Y66.400 F12000.000 ; ->67.50751143391378  ;  move to first perimeter point
G1 B1.0 E1.30000 F400.00000 ; Open and replenish
G1 X126.663 Y66.400 E0.24419 D0.00000 F1260.000 ; ->L1.6129999999999995 ->E0.24419 ->D0.0 ;  perimeter
G1 X127.917 Y64.662 E0.32439 D0.00000 ; ->L2.143165882520532 ->E0.32439 ->D0.0 ;  perimeter
G1 X129.170 Y66.400 E0.32439 D0.00000 ; ->L2.1425809202921515 ->E0.32439 ->D0.0 ;  perimeter
G1 X130.783 Y66.400 E0.24419 D0.00000 ; ->L1.6129999999999995 ->E0.24419 ->D0.0 ;  perimeter
G1 X128.719 Y63.548 E0.53295 D0.00000 ; ->L3.5205113264978984 ->E0.53295 ->D0.0 ;  perimeter
G1 X130.903 Y60.400 E0.58006 D0.00000 ; ->L3.831417492260535 ->E0.58006 ->D0.0 ;  perimeter
G1 X139.600 Y60.400 E1.31670 D0.00000 ; ->L8.697000000000003 ->E1.3167 ->D0.0 ;  perimeter
G1 X139.600 Y75.368 E2.26615 D0.00000 ; ->L14.967999999999996 ->E2.26615 ->D0.0 ;  perimeter
G1 X139.149 Y75.508 E0.07153 D0.00000 ; ->L0.4722298169323854 ->E0.07153 ->D0.0 ;  perimeter
G1 X137.733 Y73.430 E0.38058 D0.00000 ; ->L2.5145854529126552 ->E0.38058 ->D0.0 ;  perimeter
G1 X137.733 Y70.600 E0.42844 D0.00000 ; ->L2.8300000000000125 ->E0.42844 ->D0.0 ;  perimeter
G1 X136.308 Y70.600 E0.21574 D0.00000 ; ->L1.4250000000000114 ->E0.21574 ->D0.0 ;  perimeter
G1 X136.308 Y73.430 E0.42844 D0.00000 ; ->L2.8300000000000125 ->E0.42844 ->D0.0 ;  perimeter
G1 X134.285 Y76.400 E0.54407 D0.00000 ; ->L3.593525984322359 ->E0.54407 ->D0.0 ;  perimeter
G1 X135.880 Y76.400 E0.24146 D0.00000 ; ->L1.5949999999999989 ->E0.24146 ->D0.0 ;  perimeter
G1 X137.021 Y74.697 E0.31027 D0.00000 ; ->L2.049899997560854 ->E0.31027 ->D0.0 ;  perimeter
G1 X139.600 Y78.547 E0.70155 D0.00000 ; ->L4.633976801840941 ->E0.70155 ->D0.0 ;  perimeter
G1 X139.600 Y119.600 E6.21524 D0.00000 ; ->L41.053 ->E6.21524 ->D0.0 ;  perimeter
G1 X115.400 Y119.600 E3.66378 D0.00000 ; ->L24.19999999999999 ->E3.66378 ->D0.0 ;  perimeter
G1 X115.400 Y118.150 E0.21952 D0.00000 ; ->L1.4499999999999886 ->E0.21952 ->D0.0 ;  perimeter
G1 X135.003 Y118.150 E2.96787 D0.00000 ; ->L19.60299999999998 ->E2.96787 ->D0.0 ;  perimeter
G1 X135.419 Y118.113 E0.06311 D0.00000 ; ->L0.41764219135525743 ->E0.06311 ->D0.0 ;  perimeter
G1 X135.821 Y118.006 E0.06303 D0.00000 ; ->L0.4159963942151293 ->E0.06303 ->D0.0 ;  perimeter
G1 X136.195 Y117.831 E0.06250 D0.00000 ; ->L0.41291766733816976 ->E0.0625 ->D0.0 ;  perimeter
G1 X136.543 Y117.589 E0.06424 D0.00000 ; ->L0.42387262237612294 ->E0.06424 ->D0.0 ;  perimeter
G1 X136.729 Y117.413 E0.03869 D0.00000 ; ->L0.2560703028467052 ->E0.03869 ->D0.0 ;  perimeter
G1 X136.966 Y117.126 E0.05635 D0.00000 ; ->L0.37220693169256386 ->E0.05635 ->D0.0 ;  perimeter
G1 X137.175 Y116.765 E0.06328 D0.00000 ; ->L0.41713546960190806 ->E0.06328 ->D0.0 ;  perimeter
G1 X137.319 Y116.371 E0.06342 D0.00000 ; ->L0.4194901667500654 ->E0.06342 ->D0.0 ;  perimeter
G1 X137.391 Y115.959 E0.06332 D0.00000 ; ->L0.41824394795381525 ->E0.06332 ->D0.0 ;  perimeter
G1 X137.391 Y115.541 E0.06325 D0.00000 ; ->L0.41800000000000637 ->E0.06325 ->D0.0 ;  perimeter
G1 X137.318 Y115.128 E0.06346 D0.00000 ; ->L0.41940195516949397 ->E0.06346 ->D0.0 ;  perimeter
G1 X137.175 Y114.736 E0.06328 D0.00000 ; ->L0.4172684986911868 ->E0.06328 ->D0.0 ;  perimeter
G1 X136.966 Y114.374 E0.06331 D0.00000 ; ->L0.41800119617054665 ->E0.06331 ->D0.0 ;  perimeter
G1 X136.697 Y114.053 E0.06342 D0.00000 ; ->L0.4188102195505759 ->E0.06342 ->D0.0 ;  perimeter
G1 X136.543 Y113.911 E0.03164 D0.00000 ; ->L0.20947553556441315 ->E0.03164 ->D0.0 ;  perimeter
G1 X136.269 Y113.713 E0.05122 D0.00000 ; ->L0.3380532502432176 ->E0.05122 ->D0.0 ;  perimeter
G1 X136.015 Y113.575 E0.04384 D0.00000 ; ->L0.2890674661735686 ->E0.04384 ->D0.0 ;  perimeter
G1 X135.821 Y113.494 E0.03176 D0.00000 ; ->L0.2102308255227953 ->E0.03176 ->D0.0 ;  perimeter
G1 X135.419 Y113.387 E0.06305 D0.00000 ; ->L0.4159963942151293 ->E0.06305 ->D0.0 ;  perimeter
G1 X135.004 Y113.350 E0.06306 D0.00000 ; ->L0.416646132827388 ->E0.06306 ->D0.0 ;  perimeter
G1 X121.019 Y113.350 E2.11727 D0.00000 ; ->L13.984999999999985 ->E2.11727 ->D0.0 ;  perimeter
G1 X120.779 Y113.328 E0.03649 D0.00000 ; ->L0.241006223986029 ->E0.03649 ->D0.0 ;  perimeter
G1 X120.586 Y113.272 E0.03041 D0.00000 ; ->L0.2009601950635968 ->E0.03041 ->D0.0 ;  perimeter
G1 X120.284 Y113.099 E0.05268 D0.00000 ; ->L0.34804166417254717 ->E0.05268 ->D0.0 ;  perimeter
G1 X120.151 Y112.975 E0.02751 D0.00000 ; ->L0.1818378398463998 ->E0.02751 ->D0.0 ;  perimeter
G1 X120.023 Y112.805 E0.03222 D0.00000 ; ->L0.21280037593950762 ->E0.03222 ->D0.0 ;  perimeter
G1 X119.897 Y112.520 E0.04717 D0.00000 ; ->L0.311610333589892 ->E0.04717 ->D0.0 ;  perimeter
G1 X119.855 Y112.299 E0.03413 D0.00000 ; ->L0.2249555511651034 ->E0.03413 ->D0.0 ;  perimeter
G1 X119.856 Y112.094 E0.03097 D0.00000 ; ->L0.2050024390098935 ->E0.03097 ->D0.0 ;  perimeter
G1 X119.895 Y111.885 E0.03218 D0.00000 ; ->L0.21260761980699447 ->E0.03218 ->D0.0 ;  perimeter
G1 X120.023 Y111.595 E0.04807 D0.00000 ; ->L0.31699211346657136 ->E0.04807 ->D0.0 ;  perimeter
G1 X120.151 Y111.425 E0.03221 D0.00000 ; ->L0.212800375939519 ->E0.03221 ->D0.0 ;  perimeter
G1 X120.395 Y111.223 E0.04803 D0.00000 ; ->L0.31676489704511 ->E0.04803 ->D0.0 ;  perimeter
G1 X120.586 Y111.128 E0.03222 D0.00000 ; ->L0.21332135383032036 ->E0.03222 ->D0.0 ;  perimeter
G1 X120.786 Y111.071 E0.03151 D0.00000 ; ->L0.2079639391817759 ->E0.03151 ->D0.0 ;  perimeter
G1 X121.007 Y111.050 E0.03367 D0.00000 ; ->L0.2219954954497988 ->E0.03367 ->D0.0 ;  perimeter
G1 X135.003 Y111.050 E2.11893 D0.00000 ; ->L13.995999999999981 ->E2.11893 ->D0.0 ;  perimeter
G1 X135.419 Y111.013 E0.06312 D0.00000 ; ->L0.41764219135525615 ->E0.06312 ->D0.0 ;  perimeter
G1 X135.821 Y110.906 E0.06303 D0.00000 ; ->L0.4159963942151293 ->E0.06303 ->D0.0 ;  perimeter
G1 X136.195 Y110.731 E0.06251 D0.00000 ; ->L0.4129176673381758 ->E0.06251 ->D0.0 ;  perimeter
G1 X136.543 Y110.489 E0.06423 D0.00000 ; ->L0.42387262237611484 ->E0.06423 ->D0.0 ;  perimeter
G1 X136.839 Y110.193 E0.06331 D0.00000 ; ->L0.41860721446243526 ->E0.06331 ->D0.0 ;  perimeter
G1 X137.079 Y109.850 E0.06330 D0.00000 ; ->L0.41862751940120563 ->E0.0633 ->D0.0 ;  perimeter
G1 X137.256 Y109.471 E0.06343 D0.00000 ; ->L0.4182941548718919 ->E0.06343 ->D0.0 ;  perimeter
G1 X137.364 Y109.067 E0.06322 D0.00000 ; ->L0.41818656123793535 ->E0.06322 ->D0.0 ;  perimeter
G1 X137.400 Y108.650 E0.06348 D0.00000 ; ->L0.4185510721524789 ->E0.06348 ->D0.0 ;  perimeter
G1 X137.364 Y108.233 E0.06329 D0.00000 ; ->L0.41855107215249304 ->E0.06329 ->D0.0 ;  perimeter
G1 X137.256 Y107.829 E0.06329 D0.00000 ; ->L0.41818656123793535 ->E0.06329 ->D0.0 ;  perimeter
G1 X137.079 Y107.450 E0.06344 D0.00000 ; ->L0.4182941548718919 ->E0.06344 ->D0.0 ;  perimeter
G1 X136.839 Y107.107 E0.06330 D0.00000 ; ->L0.41862751940120563 ->E0.0633 ->D0.0 ;  perimeter
G1 X136.543 Y106.811 E0.06331 D0.00000 ; ->L0.4186072144624252 ->E0.06331 ->D0.0 ;  perimeter
G1 X136.195 Y106.569 E0.06424 D0.00000 ; ->L0.42387262237612294 ->E0.06424 ->D0.0 ;  perimeter
G1 X135.821 Y106.394 E0.06250 D0.00000 ; ->L0.41291766733816976 ->E0.0625 ->D0.0 ;  perimeter
G1 X135.419 Y106.287 E0.06304 D0.00000 ; ->L0.4159963942151293 ->E0.06304 ->D0.0 ;  perimeter
G1 X135.004 Y106.250 E0.06307 D0.00000 ; ->L0.416646132827388 ->E0.06307 ->D0.0 ;  perimeter
G1 X121.019 Y106.250 E2.11727 D0.00000 ; ->L13.984999999999985 ->E2.11727 ->D0.0 ;  perimeter
G1 X120.779 Y106.228 E0.03648 D0.00000 ; ->L0.2410062239860303 ->E0.03648 ->D0.0 ;  perimeter
G1 X120.586 Y106.172 E0.03041 D0.00000 ; ->L0.2009601950635968 ->E0.03041 ->D0.0 ;  perimeter
G1 X120.284 Y105.999 E0.05267 D0.00000 ; ->L0.34804166417254717 ->E0.05267 ->D0.0 ;  perimeter
G1 X120.151 Y105.875 E0.02751 D0.00000 ; ->L0.18183783984639013 ->E0.02751 ->D0.0 ;  perimeter
G1 X120.023 Y105.705 E0.03222 D0.00000 ; ->L0.212800375939519 ->E0.03222 ->D0.0 ;  perimeter
G1 X119.897 Y105.420 E0.04717 D0.00000 ; ->L0.31161033358987905 ->E0.04717 ->D0.0 ;  perimeter
G1 X119.855 Y105.199 E0.03413 D0.00000 ; ->L0.22495555116511737 ->E0.03413 ->D0.0 ;  perimeter
G1 X119.856 Y104.994 E0.03097 D0.00000 ; ->L0.2050024390098793 ->E0.03097 ->D0.0 ;  perimeter
G1 X119.895 Y104.785 E0.03218 D0.00000 ; ->L0.21260761980700843 ->E0.03218 ->D0.0 ;  perimeter
G1 X120.023 Y104.495 E0.04807 D0.00000 ; ->L0.31699211346655837 ->E0.04807 ->D0.0 ;  perimeter
G1 X120.151 Y104.325 E0.03221 D0.00000 ; ->L0.212800375939519 ->E0.03221 ->D0.0 ;  perimeter
G1 X120.395 Y104.123 E0.04802 D0.00000 ; ->L0.31676489704511 ->E0.04802 ->D0.0 ;  perimeter
G1 X120.586 Y104.028 E0.03222 D0.00000 ; ->L0.21332135383032036 ->E0.03222 ->D0.0 ;  perimeter
G1 X120.786 Y103.971 E0.03151 D0.00000 ; ->L0.2079639391817759 ->E0.03151 ->D0.0 ;  perimeter
G1 X121.007 Y103.950 E0.03367 D0.00000 ; ->L0.2219954954497988 ->E0.03367 ->D0.0 ;  perimeter
G1 X135.003 Y103.950 E2.11893 D0.00000 ; ->L13.995999999999981 ->E2.11893 ->D0.0 ;  perimeter
G1 X135.419 Y103.913 E0.06311 D0.00000 ; ->L0.41764219135525743 ->E0.06311 ->D0.0 ;  perimeter
G1 X135.821 Y103.806 E0.06303 D0.00000 ; ->L0.4159963942151293 ->E0.06303 ->D0.0 ;  perimeter
G1 X136.195 Y103.631 E0.06250 D0.00000 ; ->L0.41291766733816976 ->E0.0625 ->D0.0 ;  perimeter
G1 X136.543 Y103.389 E0.06424 D0.00000 ; ->L0.42387262237612294 ->E0.06424 ->D0.0 ;  perimeter
G1 X136.839 Y103.093 E0.06331 D0.00000 ; ->L0.4186072144624252 ->E0.06331 ->D0.0 ;  perimeter
G1 X137.079 Y102.750 E0.06330 D0.00000 ; ->L0.41862751940120563 ->E0.0633 ->D0.0 ;  perimeter
G1 X137.256 Y102.371 E0.06343 D0.00000 ; ->L0.4182941548719048 ->E0.06343 ->D0.0 ;  perimeter
G1 X137.364 Y101.967 E0.06322 D0.00000 ; ->L0.4181865612379216 ->E0.06322 ->D0.0 ;  perimeter
G1 X137.400 Y101.550 E0.06348 D0.00000 ; ->L0.41855107215249304 ->E0.06348 ->D0.0 ;  perimeter
G1 X137.364 Y101.133 E0.06329 D0.00000 ; ->L0.41855107215249304 ->E0.06329 ->D0.0 ;  perimeter
G1 X137.256 Y100.729 E0.06329 D0.00000 ; ->L0.4181865612379216 ->E0.06329 ->D0.0 ;  perimeter
G1 X137.079 Y100.350 E0.06344 D0.00000 ; ->L0.4182941548719048 ->E0.06344 ->D0.0 ;  perimeter
G1 X136.839 Y100.007 E0.06330 D0.00000 ; ->L0.41862751940119397 ->E0.0633 ->D0.0 ;  perimeter
G1 X136.543 Y99.711 E0.06331 D0.00000 ; ->L0.41860721446243526 ->E0.06331 ->D0.0 ;  perimeter
G1 X136.195 Y99.469 E0.06424 D0.00000 ; ->L0.42387262237612294 ->E0.06424 ->D0.0 ;  perimeter
G1 X135.821 Y99.294 E0.06250 D0.00000 ; ->L0.41291766733816976 ->E0.0625 ->D0.0 ;  perimeter
G1 X135.419 Y99.187 E0.06304 D0.00000 ; ->L0.4159963942151293 ->E0.06304 ->D0.0 ;  perimeter
G1 X135.004 Y99.150 E0.06306 D0.00000 ; ->L0.4166461328273867 ->E0.06306 ->D0.0 ;  perimeter
G1 X121.019 Y99.150 E2.11727 D0.00000 ; ->L13.984999999999985 ->E2.11727 ->D0.0 ;  perimeter
G1 X120.686 Y99.106 E0.05086 D0.00000 ; ->L0.33589432862136853 ->E0.05086 ->D0.0 ;  perimeter
G1 X120.393 Y98.976 E0.04844 D0.00000 ; ->L0.3205448486561632 ->E0.04844 ->D0.0 ;  perimeter
G1 X120.151 Y98.775 E0.04764 D0.00000 ; ->L0.31458703088334633 ->E0.04764 ->D0.0 ;  perimeter
G1 X119.971 Y98.512 E0.04835 D0.00000 ; ->L0.318698917475413 ->E0.04835 ->D0.0 ;  perimeter
G1 X119.897 Y98.320 E0.03105 D0.00000 ; ->L0.20576685836159941 ->E0.03105 ->D0.0 ;  perimeter
G1 X119.851 Y97.999 E0.04911 D0.00000 ; ->L0.32427920068977484 ->E0.04911 ->D0.0 ;  perimeter
G1 X119.895 Y97.685 E0.04798 D0.00000 ; ->L0.3170678160898632 ->E0.04798 ->D0.0 ;  perimeter
G1 X119.971 Y97.489 E0.03194 D0.00000 ; ->L0.21021893349553544 ->E0.03194 ->D0.0 ;  perimeter
G1 X120.083 Y97.307 E0.03234 D0.00000 ; ->L0.21370072531463155 ->E0.03234 ->D0.0 ;  perimeter
G1 X120.281 Y97.103 E0.04310 D0.00000 ; ->L0.284288585771582 ->E0.0431 ->D0.0 ;  perimeter
G1 X120.487 Y96.972 E0.03689 D0.00000 ; ->L0.24412496799794048 ->E0.03689 ->D0.0 ;  perimeter
G1 X120.786 Y96.871 E0.04778 D0.00000 ; ->L0.315597845366542 ->E0.04778 ->D0.0 ;  perimeter
G1 X121.007 Y96.850 E0.03367 D0.00000 ; ->L0.2219954954497988 ->E0.03367 ->D0.0 ;  perimeter
G1 X135.003 Y96.850 E2.11893 D0.00000 ; ->L13.995999999999981 ->E2.11893 ->D0.0 ;  perimeter
G1 X135.373 Y96.820 E0.05609 D0.00000 ; ->L0.3712142238654163 ->E0.05609 ->D0.0 ;  perimeter
G1 X135.621 Y96.769 E0.03846 D0.00000 ; ->L0.25318965223722734 ->E0.03846 ->D0.0 ;  perimeter
G1 X136.015 Y96.625 E0.06335 D0.00000 ; ->L0.41949016675004847 ->E0.06335 ->D0.0 ;  perimeter
G1 X136.269 Y96.487 E0.04384 D0.00000 ; ->L0.28906746617357537 ->E0.04384 ->D0.0 ;  perimeter
G1 X136.543 Y96.289 E0.05122 D0.00000 ; ->L0.33805325024320926 ->E0.05122 ->D0.0 ;  perimeter
G1 X136.839 Y95.993 E0.06331 D0.00000 ; ->L0.41860721446243526 ->E0.06331 ->D0.0 ;  perimeter
G1 X137.079 Y95.650 E0.06330 D0.00000 ; ->L0.41862751940119397 ->E0.0633 ->D0.0 ;  perimeter
G1 X137.256 Y95.271 E0.06343 D0.00000 ; ->L0.4182941548719048 ->E0.06343 ->D0.0 ;  perimeter
G1 X137.364 Y94.867 E0.06322 D0.00000 ; ->L0.4181865612379216 ->E0.06322 ->D0.0 ;  perimeter
G1 X137.400 Y94.450 E0.06348 D0.00000 ; ->L0.41855107215249304 ->E0.06348 ->D0.0 ;  perimeter
G1 X137.364 Y94.033 E0.06329 D0.00000 ; ->L0.41855107215249304 ->E0.06329 ->D0.0 ;  perimeter
G1 X137.256 Y93.629 E0.06329 D0.00000 ; ->L0.4181865612379216 ->E0.06329 ->D0.0 ;  perimeter
G1 X137.079 Y93.250 E0.06344 D0.00000 ; ->L0.4182941548719048 ->E0.06344 ->D0.0 ;  perimeter
G1 X136.839 Y92.907 E0.06330 D0.00000 ; ->L0.41862751940120563 ->E0.0633 ->D0.0 ;  perimeter
G1 X136.543 Y92.611 E0.06331 D0.00000 ; ->L0.4186072144624252 ->E0.06331 ->D0.0 ;  perimeter
G1 X136.195 Y92.369 E0.06424 D0.00000 ; ->L0.42387262237612294 ->E0.06424 ->D0.0 ;  perimeter
G1 X135.821 Y92.194 E0.06250 D0.00000 ; ->L0.41291766733816976 ->E0.0625 ->D0.0 ;  perimeter
G1 X135.419 Y92.087 E0.06304 D0.00000 ; ->L0.4159963942151293 ->E0.06304 ->D0.0 ;  perimeter
G1 X135.004 Y92.050 E0.06307 D0.00000 ; ->L0.416646132827388 ->E0.06307 ->D0.0 ;  perimeter
G1 X121.019 Y92.050 E2.11727 D0.00000 ; ->L13.984999999999985 ->E2.11727 ->D0.0 ;  perimeter
G1 X120.686 Y92.006 E0.05086 D0.00000 ; ->L0.3358943286213667 ->E0.05086 ->D0.0 ;  perimeter
G1 X120.393 Y91.876 E0.04844 D0.00000 ; ->L0.3205448486561632 ->E0.04844 ->D0.0 ;  perimeter
G1 X120.151 Y91.675 E0.04764 D0.00000 ; ->L0.31458703088335543 ->E0.04764 ->D0.0 ;  perimeter
G1 X119.971 Y91.412 E0.04834 D0.00000 ; ->L0.31869891747540124 ->E0.04834 ->D0.0 ;  perimeter
G1 X119.897 Y91.220 E0.03105 D0.00000 ; ->L0.20576685836159941 ->E0.03105 ->D0.0 ;  perimeter
G1 X119.851 Y90.899 E0.04911 D0.00000 ; ->L0.32427920068977484 ->E0.04911 ->D0.0 ;  perimeter
G1 X119.895 Y90.585 E0.04798 D0.00000 ; ->L0.3170678160898773 ->E0.04798 ->D0.0 ;  perimeter
G1 X119.971 Y90.388 E0.03194 D0.00000 ; ->L0.21115160430362975 ->E0.03194 ->D0.0 ;  perimeter
G1 X120.083 Y90.207 E0.03234 D0.00000 ; ->L0.21284971223847832 ->E0.03234 ->D0.0 ;  perimeter
G1 X120.281 Y90.003 E0.04309 D0.00000 ; ->L0.2842885857715718 ->E0.04309 ->D0.0 ;  perimeter
G1 X120.487 Y89.872 E0.03690 D0.00000 ; ->L0.24412496799794048 ->E0.0369 ->D0.0 ;  perimeter
G1 X120.786 Y89.771 E0.04778 D0.00000 ; ->L0.315597845366542 ->E0.04778 ->D0.0 ;  perimeter
G1 X121.007 Y89.750 E0.03367 D0.00000 ; ->L0.2219954954497988 ->E0.03367 ->D0.0 ;  perimeter
G1 X135.003 Y89.750 E2.11893 D0.00000 ; ->L13.995999999999981 ->E2.11893 ->D0.0 ;  perimeter
G1 X135.373 Y89.720 E0.05609 D0.00000 ; ->L0.3712142238654163 ->E0.05609 ->D0.0 ;  perimeter
G1 X135.621 Y89.669 E0.03846 D0.00000 ; ->L0.25318965223723017 ->E0.03846 ->D0.0 ;  perimeter
G1 X136.015 Y89.525 E0.06335 D0.00000 ; ->L0.41949016675004364 ->E0.06335 ->D0.0 ;  perimeter
G1 X136.269 Y89.387 E0.04384 D0.00000 ; ->L0.28906746617357537 ->E0.04384 ->D0.0 ;  perimeter
G1 X136.543 Y89.189 E0.05122 D0.00000 ; ->L0.3380532502432176 ->E0.05122 ->D0.0 ;  perimeter
G1 X136.839 Y88.893 E0.06331 D0.00000 ; ->L0.4186072144624252 ->E0.06331 ->D0.0 ;  perimeter
G1 X137.079 Y88.550 E0.06330 D0.00000 ; ->L0.41862751940120563 ->E0.0633 ->D0.0 ;  perimeter
G1 X137.256 Y88.171 E0.06343 D0.00000 ; ->L0.4182941548718919 ->E0.06343 ->D0.0 ;  perimeter
G1 X137.364 Y87.767 E0.06322 D0.00000 ; ->L0.41818656123793535 ->E0.06322 ->D0.0 ;  perimeter
G1 X137.400 Y87.350 E0.06348 D0.00000 ; ->L0.41855107215249304 ->E0.06348 ->D0.0 ;  perimeter
G1 X137.364 Y86.933 E0.06329 D0.00000 ; ->L0.4185510721524789 ->E0.06329 ->D0.0 ;  perimeter
G1 X137.256 Y86.529 E0.06329 D0.00000 ; ->L0.41818656123793535 ->E0.06329 ->D0.0 ;  perimeter
G1 X137.079 Y86.150 E0.06344 D0.00000 ; ->L0.4182941548718919 ->E0.06344 ->D0.0 ;  perimeter
G1 X136.839 Y85.807 E0.06330 D0.00000 ; ->L0.41862751940120563 ->E0.0633 ->D0.0 ;  perimeter
G1 X136.543 Y85.511 E0.06331 D0.00000 ; ->L0.41860721446243526 ->E0.06331 ->D0.0 ;  perimeter
G1 X136.195 Y85.269 E0.06424 D0.00000 ; ->L0.42387262237611484 ->E0.06424 ->D0.0 ;  perimeter
G1 X135.821 Y85.094 E0.06250 D0.00000 ; ->L0.4129176673381758 ->E0.0625 ->D0.0 ;  perimeter
G1 X135.419 Y84.987 E0.06304 D0.00000 ; ->L0.4159963942151293 ->E0.06304 ->D0.0 ;  perimeter
G1 X135.004 Y84.950 E0.06306 D0.00000 ; ->L0.4166461328273867 ->E0.06306 ->D0.0 ;  perimeter
G1 X121.019 Y84.950 E2.11727 D0.00000 ; ->L13.984999999999985 ->E2.11727 ->D0.0 ;  perimeter
G1 X120.779 Y84.928 E0.03649 D0.00000 ; ->L0.2410062239860303 ->E0.03649 ->D0.0 ;  perimeter
G1 X120.487 Y84.828 E0.04664 D0.00000 ; ->L0.3086486675817665 ->E0.04664 ->D0.0 ;  perimeter
G1 X120.227 Y84.651 E0.04755 D0.00000 ; ->L0.3145298078084137 ->E0.04755 ->D0.0 ;  perimeter
G1 X120.023 Y84.405 E0.04847 D0.00000 ; ->L0.3195809756540598 ->E0.04847 ->D0.0 ;  perimeter
G1 X119.897 Y84.120 E0.04717 D0.00000 ; ->L0.31161033358987905 ->E0.04717 ->D0.0 ;  perimeter
G1 X119.855 Y83.899 E0.03413 D0.00000 ; ->L0.22495555116511737 ->E0.03413 ->D0.0 ;  perimeter
G1 X119.856 Y83.694 E0.03096 D0.00000 ; ->L0.2050024390098793 ->E0.03096 ->D0.0 ;  perimeter
G1 X119.895 Y83.485 E0.03218 D0.00000 ; ->L0.21260761980700843 ->E0.03218 ->D0.0 ;  perimeter
G1 X119.971 Y83.288 E0.03194 D0.00000 ; ->L0.211151604303643 ->E0.03194 ->D0.0 ;  perimeter
G1 X120.083 Y83.107 E0.03235 D0.00000 ; ->L0.21284971223846624 ->E0.03235 ->D0.0 ;  perimeter
G1 X120.281 Y82.903 E0.04309 D0.00000 ; ->L0.2842885857715718 ->E0.04309 ->D0.0 ;  perimeter
G1 X120.487 Y82.772 E0.03690 D0.00000 ; ->L0.24412496799794048 ->E0.0369 ->D0.0 ;  perimeter
G1 X120.786 Y82.671 E0.04778 D0.00000 ; ->L0.315597845366542 ->E0.04778 ->D0.0 ;  perimeter
G1 X121.007 Y82.650 E0.03367 D0.00000 ; ->L0.2219954954497988 ->E0.03367 ->D0.0 ;  perimeter
G1 X135.003 Y82.650 E2.11893 D0.00000 ; ->L13.995999999999981 ->E2.11893 ->D0.0 ;  perimeter
G1 X135.373 Y82.620 E0.05609 D0.00000 ; ->L0.3712142238654163 ->E0.05609 ->D0.0 ;  perimeter
G1 X135.621 Y82.569 E0.03846 D0.00000 ; ->L0.25318965223723017 ->E0.03846 ->D0.0 ;  perimeter
G1 X136.015 Y82.425 E0.06334 D0.00000 ; ->L0.41949016675004847 ->E0.06334 ->D0.0 ;  perimeter
G1 X136.269 Y82.287 E0.04383 D0.00000 ; ->L0.2890674661735686 ->E0.04383 ->D0.0 ;  perimeter
G1 X136.543 Y82.089 E0.05123 D0.00000 ; ->L0.3380532502432176 ->E0.05123 ->D0.0 ;  perimeter
G1 X136.839 Y81.793 E0.06331 D0.00000 ; ->L0.4186072144624252 ->E0.06331 ->D0.0 ;  perimeter
G1 X137.079 Y81.450 E0.06330 D0.00000 ; ->L0.41862751940120563 ->E0.0633 ->D0.0 ;  perimeter
G1 X137.256 Y81.071 E0.06344 D0.00000 ; ->L0.4182941548719048 ->E0.06344 ->D0.0 ;  perimeter
G1 X137.364 Y80.667 E0.06322 D0.00000 ; ->L0.4181865612379216 ->E0.06322 ->D0.0 ;  perimeter
G1 X137.398 Y80.297 E0.05637 D0.00000 ; ->L0.37155887824139366 ->E0.05637 ->D0.0 ;  perimeter
G1 X137.364 Y79.833 E0.07035 D0.00000 ; ->L0.4652440219927583 ->E0.07035 ->D0.0 ;  perimeter
G1 X137.256 Y79.429 E0.06329 D0.00000 ; ->L0.4181865612379216 ->E0.06329 ->D0.0 ;  perimeter
G1 X137.079 Y79.050 E0.06344 D0.00000 ; ->L0.4182941548719048 ->E0.06344 ->D0.0 ;  perimeter
G1 X136.839 Y78.707 E0.06330 D0.00000 ; ->L0.41862751940120563 ->E0.0633 ->D0.0 ;  perimeter
G1 X136.543 Y78.411 E0.06331 D0.00000 ; ->L0.4186072144624252 ->E0.06331 ->D0.0 ;  perimeter
G1 X136.195 Y78.169 E0.06423 D0.00000 ; ->L0.42387262237612294 ->E0.06423 ->D0.0 ;  perimeter
G1 X135.821 Y77.994 E0.06251 D0.00000 ; ->L0.41291766733816976 ->E0.06251 ->D0.0 ;  perimeter
G1 X135.419 Y77.887 E0.06304 D0.00000 ; ->L0.4159963942151293 ->E0.06304 ->D0.0 ;  perimeter
G1 X135.004 Y77.850 E0.06308 D0.00000 ; ->L0.416646132827388 ->E0.06308 ->D0.0 ;  perimeter
G1 X122.150 Y77.850 E1.94597 D0.00000 ; ->L12.853999999999985 ->E1.94597 ->D0.0 ;  perimeter
G1 X122.141 Y64.788 E1.97755 D0.00000 ; ->L13.062003100596781 ->E1.97755 ->D0.0 ;  perimeter
G1 X122.069 Y64.379 E0.06294 D0.00000 ; ->L0.4152890559598142 ->E0.06294 ->D0.0 ;  perimeter
G1 X122.006 Y64.179 E0.03163 D0.00000 ; ->L0.20968786326347416 ->E0.03163 ->D0.0 ;  perimeter
G1 X121.804 Y63.761 E0.07038 D0.00000 ; ->L0.46424993268712345 ->E0.07038 ->D0.0 ;  perimeter
G1 X121.589 Y63.457 E0.05633 D0.00000 ; ->L0.3723452698773045 ->E0.05633 ->D0.0 ;  perimeter
G1 X121.447 Y63.303 E0.03165 D0.00000 ; ->L0.20947553556441836 ->E0.03165 ->D0.0 ;  perimeter
G1 X121.127 Y63.034 E0.06337 D0.00000 ; ->L0.41804425603039186 ->E0.06337 ->D0.0 ;  perimeter
G1 X120.950 Y62.921 E0.03165 D0.00000 ; ->L0.20999523804124046 ->E0.03165 ->D0.0 ;  perimeter
G1 X120.765 Y62.825 E0.03173 D0.00000 ; ->L0.20842504647954424 ->E0.03173 ->D0.0 ;  perimeter
G1 X120.371 Y62.681 E0.06341 D0.00000 ; ->L0.41949016675007517 ->E0.06341 ->D0.0 ;  perimeter
G1 X119.956 Y62.609 E0.06377 D0.00000 ; ->L0.42119947768247856 ->E0.06377 ->D0.0 ;  perimeter
G1 X119.750 Y62.600 E0.03128 D0.00000 ; ->L0.20619650821486107 ->E0.03128 ->D0.0 ;  perimeter
G1 X119.333 Y62.636 E0.06330 D0.00000 ; ->L0.41855107215249304 ->E0.0633 ->D0.0 ;  perimeter
G1 X118.890 Y62.760 E0.06964 D0.00000 ; ->L0.4600271731104554 ->E0.06964 ->D0.0 ;  perimeter
G1 X118.550 Y62.921 E0.05707 D0.00000 ; ->L0.37619276973381977 ->E0.05707 ->D0.0 ;  perimeter
G1 X118.374 Y63.034 E0.03161 D0.00000 ; ->L0.20915305400591352 ->E0.03161 ->D0.0 ;  perimeter
G1 X118.087 Y63.271 E0.05636 D0.00000 ; ->L0.37220693169256835 ->E0.05636 ->D0.0 ;  perimeter
G1 X117.911 Y63.457 E0.03868 D0.00000 ; ->L0.2560703028467 ->E0.03868 ->D0.0 ;  perimeter
G1 X117.668 Y63.806 E0.06445 D0.00000 ; ->L0.4252646234992928 ->E0.06445 ->D0.0 ;  perimeter
G1 X117.494 Y64.179 E0.06229 D0.00000 ; ->L0.4115883866194548 ->E0.06229 ->D0.0 ;  perimeter
G1 X117.431 Y64.379 E0.03164 D0.00000 ; ->L0.20968786326347416 ->E0.03164 ->D0.0 ;  perimeter
G1 X117.387 Y64.581 E0.03146 D0.00000 ; ->L0.20673654732533142 ->E0.03146 ->D0.0 ;  perimeter
G1 X117.350 Y64.991 E0.06221 D0.00000 ; ->L0.4116661268552438 ->E0.06221 ->D0.0 ;  perimeter
G1 X117.350 Y78.981 E2.11813 D0.00000 ; ->L13.989999999999995 ->E2.11813 ->D0.0 ;  perimeter
G1 X117.328 Y79.221 E0.03649 D0.00000 ; ->L0.241006223986029 ->E0.03649 ->D0.0 ;  perimeter
G1 X117.272 Y79.414 E0.03041 D0.00000 ; ->L0.2009601950635968 ->E0.03041 ->D0.0 ;  perimeter
G1 X117.177 Y79.605 E0.03228 D0.00000 ; ->L0.21332135383032036 ->E0.03228 ->D0.0 ;  perimeter
G1 X117.049 Y79.775 E0.03222 D0.00000 ; ->L0.212800375939519 ->E0.03222 ->D0.0 ;  perimeter
G1 X116.892 Y79.918 E0.03211 D0.00000 ; ->L0.21236289694766255 ->E0.03211 ->D0.0 ;  perimeter
G1 X116.711 Y80.029 E0.03210 D0.00000 ; ->L0.21232522224172246 ->E0.0321 ->D0.0 ;  perimeter
G1 X116.520 Y80.103 E0.03105 D0.00000 ; ->L0.20483407919582297 ->E0.03105 ->D0.0 ;  perimeter
G1 X116.299 Y80.145 E0.03413 D0.00000 ; ->L0.2249555511651034 ->E0.03413 ->D0.0 ;  perimeter
G1 X116.100 Y80.145 E0.03013 D0.00000 ; ->L0.19900000000001228 ->E0.03013 ->D0.0 ;  perimeter
G1 X115.881 Y80.104 E0.03363 D0.00000 ; ->L0.22280484734403141 ->E0.03363 ->D0.0 ;  perimeter
G1 X115.689 Y80.029 E0.03130 D0.00000 ; ->L0.20612860063563043 ->E0.0313 ->D0.0 ;  perimeter
G1 X115.425 Y79.849 E0.04835 D0.00000 ; ->L0.31952464693665666 ->E0.04835 ->D0.0 ;  perimeter
G1 X115.223 Y79.606 E0.04778 D0.00000 ; ->L0.31599525312890975 ->E0.04778 ->D0.0 ;  perimeter
G1 X115.128 Y79.414 E0.03247 D0.00000 ; ->L0.21421717951648303 ->E0.03247 ->D0.0 ;  perimeter
G1 X115.071 Y79.214 E0.03151 D0.00000 ; ->L0.2079639391817759 ->E0.03151 ->D0.0 ;  perimeter
G1 X115.050 Y78.993 E0.03367 D0.00000 ; ->L0.2219954954497988 ->E0.03367 ->D0.0 ;  perimeter
G1 X115.050 Y64.991 E2.11980 D0.00000 ; ->L14.001999999999995 ->E2.1198 ->D0.0 ;  perimeter
G1 X115.013 Y64.581 E0.06225 D0.00000 ; ->L0.41166612685524245 ->E0.06225 ->D0.0 ;  perimeter
G1 X114.906 Y64.179 E0.06303 D0.00000 ; ->L0.415996394215143 ->E0.06303 ->D0.0 ;  perimeter
G1 X114.729 Y63.800 E0.06336 D0.00000 ; ->L0.4182941548719108 ->E0.06336 ->D0.0 ;  perimeter
G1 X114.616 Y63.623 E0.03169 D0.00000 ; ->L0.20999523804124645 ->E0.03169 ->D0.0 ;  perimeter
G1 X114.352 Y63.308 E0.06230 D0.00000 ; ->L0.41099999999999554 ->E0.0623 ->D0.0 ;  perimeter
G1 X114.191 Y63.160 E0.03308 D0.00000 ; ->L0.21868927728629356 ->E0.03308 ->D0.0 ;  perimeter
G1 X113.850 Y62.921 E0.06297 D0.00000 ; ->L0.41641565772675293 ->E0.06297 ->D0.0 ;  perimeter
G1 X113.513 Y62.762 E0.05645 D0.00000 ; ->L0.37262581767772385 ->E0.05645 ->D0.0 ;  perimeter
G1 X113.273 Y62.682 E0.03841 D0.00000 ; ->L0.25298221281347844 ->E0.03841 ->D0.0 ;  perimeter
G1 X112.859 Y62.609 E0.06359 D0.00000 ; ->L0.4203867267171994 ->E0.06359 ->D0.0 ;  perimeter
G1 X112.650 Y62.600 E0.03173 D0.00000 ; ->L0.2091936901533968 ->E0.03173 ->D0.0 ;  perimeter
G1 X112.233 Y62.636 E0.06330 D0.00000 ; ->L0.41855107215249304 ->E0.0633 ->D0.0 ;  perimeter
G1 X111.908 Y62.718 E0.05070 D0.00000 ; ->L0.33518502353178303 ->E0.0507 ->D0.0 ;  perimeter
G1 X111.636 Y62.825 E0.04435 D0.00000 ; ->L0.29228924030829956 ->E0.04435 ->D0.0 ;  perimeter
G1 X111.450 Y62.921 E0.03176 D0.00000 ; ->L0.20931316251014095 ->E0.03176 ->D0.0 ;  perimeter
G1 X111.107 Y63.161 E0.06329 D0.00000 ; ->L0.4186275194012015 ->E0.06329 ->D0.0 ;  perimeter
G1 X110.812 Y63.456 E0.06309 D0.00000 ; ->L0.41719300090006545 ->E0.06309 ->D0.0 ;  perimeter
G1 X110.680 Y63.629 E0.03306 D0.00000 ; ->L0.2176074447255786 ->E0.03306 ->D0.0 ;  perimeter
G1 X110.475 Y63.985 E0.06221 D0.00000 ; ->L0.41080530668432985 ->E0.06221 ->D0.0 ;  perimeter
G1 X110.331 Y64.379 E0.06334 D0.00000 ; ->L0.4194901667500703 ->E0.06334 ->D0.0 ;  perimeter
G1 X110.287 Y64.581 E0.03146 D0.00000 ; ->L0.20673654732533142 ->E0.03146 ->D0.0 ;  perimeter
G1 X110.250 Y64.991 E0.06221 D0.00000 ; ->L0.4116661268552438 ->E0.06221 ->D0.0 ;  perimeter
G1 X110.250 Y78.981 E2.11813 D0.00000 ; ->L13.989999999999995 ->E2.11813 ->D0.0 ;  perimeter
G1 X110.228 Y79.221 E0.03649 D0.00000 ; ->L0.2410062239860303 ->E0.03649 ->D0.0 ;  perimeter
G1 X110.172 Y79.414 E0.03040 D0.00000 ; ->L0.2009601950635968 ->E0.0304 ->D0.0 ;  perimeter
G1 X110.077 Y79.605 E0.03230 D0.00000 ; ->L0.21332135383032036 ->E0.0323 ->D0.0 ;  perimeter
G1 X109.949 Y79.775 E0.03221 D0.00000 ; ->L0.212800375939519 ->E0.03221 ->D0.0 ;  perimeter
G1 X109.793 Y79.917 E0.03186 D0.00000 ; ->L0.21095023109728098 ->E0.03186 ->D0.0 ;  perimeter
G1 X109.611 Y80.029 E0.03235 D0.00000 ; ->L0.21370072531463155 ->E0.03235 ->D0.0 ;  perimeter
G1 X109.420 Y80.103 E0.03105 D0.00000 ; ->L0.20483407919582297 ->E0.03105 ->D0.0 ;  perimeter
G1 X109.094 Y80.149 E0.04983 D0.00000 ; ->L0.32922940330414835 ->E0.04983 ->D0.0 ;  perimeter
G1 X108.785 Y80.105 E0.04727 D0.00000 ; ->L0.3121169652550117 ->E0.04727 ->D0.0 ;  perimeter
G1 X108.589 Y80.029 E0.03194 D0.00000 ; ->L0.21021893349553544 ->E0.03194 ->D0.0 ;  perimeter
G1 X108.320 Y79.845 E0.04933 D0.00000 ; ->L0.32590949663979113 ->E0.04933 ->D0.0 ;  perimeter
G1 X108.123 Y79.605 E0.04694 D0.00000 ; ->L0.3104979871110166 ->E0.04694 ->D0.0 ;  perimeter
G1 X108.072 Y79.513 E0.01600 D0.00000 ; ->L0.10519030373565791 ->E0.016 ->D0.0 ;  perimeter
G1 X107.971 Y79.214 E0.04778 D0.00000 ; ->L0.315597845366542 ->E0.04778 ->D0.0 ;  perimeter
G1 X107.950 Y78.993 E0.03367 D0.00000 ; ->L0.2219954954497988 ->E0.03367 ->D0.0 ;  perimeter
G1 X107.941 Y64.788 E2.15052 D0.00000 ; ->L14.205002851108476 ->E2.15052 ->D0.0 ;  perimeter
G1 X107.869 Y64.379 E0.06294 D0.00000 ; ->L0.4152890559598142 ->E0.06294 ->D0.0 ;  perimeter
G1 X107.806 Y64.179 E0.03165 D0.00000 ; ->L0.20968786326347416 ->E0.03165 ->D0.0 ;  perimeter
G1 X107.629 Y63.800 E0.06336 D0.00000 ; ->L0.4182941548719048 ->E0.06336 ->D0.0 ;  perimeter
G1 X107.516 Y63.623 E0.03170 D0.00000 ; ->L0.20999523804124645 ->E0.0317 ->D0.0 ;  perimeter
G1 X107.323 Y63.382 E0.04679 D0.00000 ; ->L0.30875556675144256 ->E0.04679 ->D0.0 ;  perimeter
G1 X107.093 Y63.161 E0.04828 D0.00000 ; ->L0.3189686504971825 ->E0.04828 ->D0.0 ;  perimeter
G1 X106.926 Y63.034 E0.03174 D0.00000 ; ->L0.20980467106335157 ->E0.03174 ->D0.0 ;  perimeter
G1 X106.709 Y62.900 E0.03868 D0.00000 ; ->L0.2550392126713058 ->E0.03868 ->D0.0 ;  perimeter
G1 X106.371 Y62.744 E0.05636 D0.00000 ; ->L0.37226334764519203 ->E0.05636 ->D0.0 ;  perimeter
G1 X106.116 Y62.668 E0.04023 D0.00000 ; ->L0.26608457302143196 ->E0.04023 ->D0.0 ;  perimeter
G1 X105.805 Y62.615 E0.04782 D0.00000 ; ->L0.3154837555247421 ->E0.04782 ->D0.0 ;  perimeter
G1 X105.341 Y62.609 E0.07019 D0.00000 ; ->L0.46403879148193194 ->E0.07019 ->D0.0 ;  perimeter
G1 X104.974 Y62.671 E0.05643 D0.00000 ; ->L0.37220021493813316 ->E0.05643 ->D0.0 ;  perimeter
G1 X104.729 Y62.745 E0.03869 D0.00000 ; ->L0.2559316314956046 ->E0.03869 ->D0.0 ;  perimeter
G1 X104.391 Y62.900 E0.05629 D0.00000 ; ->L0.3718453979814678 ->E0.05629 ->D0.0 ;  perimeter
G1 X104.174 Y63.034 E0.03868 D0.00000 ; ->L0.2550392126713058 ->E0.03868 ->D0.0 ;  perimeter
G1 X104.007 Y63.161 E0.03174 D0.00000 ; ->L0.20980467106335157 ->E0.03174 ->D0.0 ;  perimeter
G1 X103.747 Y63.418 E0.05535 D0.00000 ; ->L0.36558036052282894 ->E0.05535 ->D0.0 ;  perimeter
G1 X103.471 Y63.800 E0.07130 D0.00000 ; ->L0.47127486671792324 ->E0.0713 ->D0.0 ;  perimeter
G1 X103.294 Y64.179 E0.06337 D0.00000 ; ->L0.4182941548719108 ->E0.06337 ->D0.0 ;  perimeter
G1 X103.231 Y64.379 E0.03164 D0.00000 ; ->L0.20968786326347416 ->E0.03164 ->D0.0 ;  perimeter
G1 X103.187 Y64.581 E0.03146 D0.00000 ; ->L0.20673654732533142 ->E0.03146 ->D0.0 ;  perimeter
G1 X103.150 Y64.991 E0.06221 D0.00000 ; ->L0.41166612685524245 ->E0.06221 ->D0.0 ;  perimeter
G1 X103.150 Y78.981 E2.11813 D0.00000 ; ->L13.989999999999995 ->E2.11813 ->D0.0 ;  perimeter
G1 X103.128 Y79.221 E0.03649 D0.00000 ; ->L0.2410062239860303 ->E0.03649 ->D0.0 ;  perimeter
G1 X103.072 Y79.414 E0.03039 D0.00000 ; ->L0.2009601950635968 ->E0.03039 ->D0.0 ;  perimeter
G1 X102.977 Y79.605 E0.03231 D0.00000 ; ->L0.21332135383032036 ->E0.03231 ->D0.0 ;  perimeter
G1 X102.849 Y79.775 E0.03221 D0.00000 ; ->L0.212800375939519 ->E0.03221 ->D0.0 ;  perimeter
G1 X102.695 Y79.916 E0.03159 D0.00000 ; ->L0.20879894635749663 ->E0.03159 ->D0.0 ;  perimeter
G1 X102.511 Y80.029 E0.03263 D0.00000 ; ->L0.21592822881688947 ->E0.03263 ->D0.0 ;  perimeter
G1 X102.320 Y80.103 E0.03105 D0.00000 ; ->L0.20483407919582297 ->E0.03105 ->D0.0 ;  perimeter
G1 X102.016 Y80.149 E0.04660 D0.00000 ; ->L0.3074605665772331 ->E0.0466 ->D0.0 ;  perimeter
G1 X101.685 Y80.105 E0.05049 D0.00000 ; ->L0.33391166496545427 ->E0.05049 ->D0.0 ;  perimeter
G1 X101.489 Y80.029 E0.03194 D0.00000 ; ->L0.21021893349553544 ->E0.03194 ->D0.0 ;  perimeter
G1 X101.273 Y79.891 E0.03873 D0.00000 ; ->L0.256320112359528 ->E0.03873 ->D0.0 ;  perimeter
G1 X101.151 Y79.775 E0.02548 D0.00000 ; ->L0.1683448840921514 ->E0.02548 ->D0.0 ;  perimeter
G1 X101.023 Y79.605 E0.03221 D0.00000 ; ->L0.212800375939519 ->E0.03221 ->D0.0 ;  perimeter
G1 X100.928 Y79.414 E0.03234 D0.00000 ; ->L0.21332135383032036 ->E0.03234 ->D0.0 ;  perimeter
G1 X100.871 Y79.214 E0.03151 D0.00000 ; ->L0.2079639391817759 ->E0.03151 ->D0.0 ;  perimeter
G1 X100.850 Y78.993 E0.03367 D0.00000 ; ->L0.2219954954497988 ->E0.03367 ->D0.0 ;  perimeter
G1 X100.850 Y64.991 E2.11980 D0.00000 ; ->L14.001999999999995 ->E2.1198 ->D0.0 ;  perimeter
G1 X100.813 Y64.581 E0.06225 D0.00000 ; ->L0.41166612685524245 ->E0.06225 ->D0.0 ;  perimeter
G1 X100.706 Y64.179 E0.06303 D0.00000 ; ->L0.415996394215143 ->E0.06303 ->D0.0 ;  perimeter
G1 X100.529 Y63.800 E0.06336 D0.00000 ; ->L0.4182941548719108 ->E0.06336 ->D0.0 ;  perimeter
G1 X100.418 Y63.626 E0.03121 D0.00000 ; ->L0.20639040675379658 ->E0.03121 ->D0.0 ;  perimeter
G1 X100.285 Y63.453 E0.03311 D0.00000 ; ->L0.21821548982599923 ->E0.03311 ->D0.0 ;  perimeter
G1 X99.993 Y63.161 E0.06243 D0.00000 ; ->L0.412950360212946 ->E0.06243 ->D0.0 ;  perimeter
G1 X99.650 Y62.921 E0.06329 D0.00000 ; ->L0.41862751940118986 ->E0.06329 ->D0.0 ;  perimeter
G1 X99.465 Y62.825 E0.03173 D0.00000 ; ->L0.20842504647954424 ->E0.03173 ->D0.0 ;  perimeter
G1 X99.135 Y62.700 E0.05331 D0.00000 ; ->L0.35288099977187615 ->E0.05331 ->D0.0 ;  perimeter
G1 X98.867 Y62.636 E0.04169 D0.00000 ; ->L0.275535841588713 ->E0.04169 ->D0.0 ;  perimeter
G1 X98.497 Y62.602 E0.05636 D0.00000 ; ->L0.37155887824139494 ->E0.05636 ->D0.0 ;  perimeter
G1 X98.241 Y62.609 E0.03868 D0.00000 ; ->L0.2560956852428408 ->E0.03868 ->D0.0 ;  perimeter
G1 X97.824 Y62.683 E0.06410 D0.00000 ; ->L0.42351505286117164 ->E0.0641 ->D0.0 ;  perimeter
G1 X97.436 Y62.825 E0.06263 D0.00000 ; ->L0.4131682466017855 ->E0.06263 ->D0.0 ;  perimeter
G1 X97.250 Y62.921 E0.03176 D0.00000 ; ->L0.20931316251015358 ->E0.03176 ->D0.0 ;  perimeter
G1 X96.907 Y63.161 E0.06329 D0.00000 ; ->L0.4186275194012015 ->E0.06329 ->D0.0 ;  perimeter
G1 X96.724 Y63.332 E0.03796 D0.00000 ; ->L0.25045957757689585 ->E0.03796 ->D0.0 ;  perimeter
G1 X96.484 Y63.623 E0.05711 D0.00000 ; ->L0.3772015376426805 ->E0.05711 ->D0.0 ;  perimeter
G1 X96.371 Y63.800 E0.03170 D0.00000 ; ->L0.20999523804124645 ->E0.0317 ->D0.0 ;  perimeter
G1 X96.194 Y64.179 E0.06336 D0.00000 ; ->L0.4182941548719048 ->E0.06336 ->D0.0 ;  perimeter
G1 X96.087 Y64.581 E0.06304 D0.00000 ; ->L0.415996394215143 ->E0.06304 ->D0.0 ;  perimeter
G1 X96.050 Y64.991 E0.06221 D0.00000 ; ->L0.4116661268552438 ->E0.06221 ->D0.0 ;  perimeter
G1 X96.050 Y78.981 E2.11813 D0.00000 ; ->L13.989999999999995 ->E2.11813 ->D0.0 ;  perimeter
G1 X96.028 Y79.221 E0.03649 D0.00000 ; ->L0.241006223986029 ->E0.03649 ->D0.0 ;  perimeter
G1 X95.972 Y79.414 E0.03041 D0.00000 ; ->L0.20096019506360074 ->E0.03041 ->D0.0 ;  perimeter
G1 X95.877 Y79.605 E0.03229 D0.00000 ; ->L0.21332135383032036 ->E0.03229 ->D0.0 ;  perimeter
G1 X95.742 Y79.784 E0.03389 D0.00000 ; ->L0.2242008028531528 ->E0.03389 ->D0.0 ;  perimeter
G1 X95.593 Y79.917 E0.03022 D0.00000 ; ->L0.1997248106770891 ->E0.03022 ->D0.0 ;  perimeter
G1 X95.411 Y80.029 E0.03235 D0.00000 ; ->L0.21370072531463155 ->E0.03235 ->D0.0 ;  perimeter
G1 X95.220 Y80.103 E0.03105 D0.00000 ; ->L0.20483407919582297 ->E0.03105 ->D0.0 ;  perimeter
G1 X94.901 Y80.149 E0.04881 D0.00000 ; ->L0.322299550108284 ->E0.04881 ->D0.0 ;  perimeter
G1 X94.585 Y80.105 E0.04829 D0.00000 ; ->L0.31904858564175037 ->E0.04829 ->D0.0 ;  perimeter
G1 X94.389 Y80.029 E0.03194 D0.00000 ; ->L0.21021893349553544 ->E0.03194 ->D0.0 ;  perimeter
G1 X94.211 Y79.920 E0.03157 D0.00000 ; ->L0.20872230355186736 ->E0.03157 ->D0.0 ;  perimeter
G1 X94.051 Y79.775 E0.03265 D0.00000 ; ->L0.21592822881688664 ->E0.03265 ->D0.0 ;  perimeter
G1 X93.923 Y79.605 E0.03221 D0.00000 ; ->L0.212800375939519 ->E0.03221 ->D0.0 ;  perimeter
G1 X93.828 Y79.414 E0.03234 D0.00000 ; ->L0.21332135383032036 ->E0.03234 ->D0.0 ;  perimeter
G1 X93.771 Y79.214 E0.03151 D0.00000 ; ->L0.2079639391817759 ->E0.03151 ->D0.0 ;  perimeter
G1 X93.750 Y78.993 E0.03367 D0.00000 ; ->L0.2219954954497988 ->E0.03367 ->D0.0 ;  perimeter
G1 X93.750 Y64.991 E2.11980 D0.00000 ; ->L14.001999999999995 ->E2.1198 ->D0.0 ;  perimeter
G1 X93.713 Y64.581 E0.06225 D0.00000 ; ->L0.4116661268552438 ->E0.06225 ->D0.0 ;  perimeter
G1 X93.669 Y64.379 E0.03145 D0.00000 ; ->L0.20673654732533142 ->E0.03145 ->D0.0 ;  perimeter
G1 X93.606 Y64.179 E0.03163 D0.00000 ; ->L0.20968786326347416 ->E0.03163 ->D0.0 ;  perimeter
G1 X93.430 Y63.802 E0.06306 D0.00000 ; ->L0.41605889006244956 ->E0.06306 ->D0.0 ;  perimeter
G1 X93.312 Y63.618 E0.03298 D0.00000 ; ->L0.21858636736997403 ->E0.03298 ->D0.0 ;  perimeter
G1 X93.047 Y63.303 E0.06234 D0.00000 ; ->L0.4116430492550595 ->E0.06234 ->D0.0 ;  perimeter
G1 X92.893 Y63.161 E0.03174 D0.00000 ; ->L0.20947553556441315 ->E0.03174 ->D0.0 ;  perimeter
G1 X92.550 Y62.921 E0.06329 D0.00000 ; ->L0.4186275194012015 ->E0.06329 ->D0.0 ;  perimeter
G1 X92.212 Y62.762 E0.05664 D0.00000 ; ->L0.3735304539123892 ->E0.05664 ->D0.0 ;  perimeter
G1 X91.970 Y62.681 E0.03868 D0.00000 ; ->L0.2551960031035021 ->E0.03868 ->D0.0 ;  perimeter
G1 X91.605 Y62.615 E0.05616 D0.00000 ; ->L0.3709191286520495 ->E0.05616 ->D0.0 ;  perimeter
G1 X91.350 Y62.600 E0.03869 D0.00000 ; ->L0.2554407954889057 ->E0.03869 ->D0.0 ;  perimeter
G1 X90.940 Y62.635 E0.06225 D0.00000 ; ->L0.411491190671194 ->E0.06225 ->D0.0 ;  perimeter
G1 X90.728 Y62.682 E0.03280 D0.00000 ; ->L0.21714741536569526 ->E0.0328 ->D0.0 ;  perimeter
G1 X90.336 Y62.825 E0.06328 D0.00000 ; ->L0.4172684986911868 ->E0.06328 ->D0.0 ;  perimeter
G1 X90.150 Y62.921 E0.03176 D0.00000 ; ->L0.20931316251014095 ->E0.03176 ->D0.0 ;  perimeter
G1 X89.974 Y63.034 E0.03161 D0.00000 ; ->L0.20915305400591352 ->E0.03161 ->D0.0 ;  perimeter
G1 X89.738 Y63.222 E0.04559 D0.00000 ; ->L0.30172835465034253 ->E0.04559 ->D0.0 ;  perimeter
G1 X89.511 Y63.457 E0.04948 D0.00000 ; ->L0.32673230633042927 ->E0.04948 ->D0.0 ;  perimeter
G1 X89.384 Y63.623 E0.03174 D0.00000 ; ->L0.20900956915892094 ->E0.03174 ->D0.0 ;  perimeter
G1 X89.175 Y63.985 E0.06330 D0.00000 ; ->L0.4180011961705405 ->E0.0633 ->D0.0 ;  perimeter
G1 X89.031 Y64.379 E0.06334 D0.00000 ; ->L0.4194901667500703 ->E0.06334 ->D0.0 ;  perimeter
G1 X88.959 Y64.788 E0.06296 D0.00000 ; ->L0.4152890559598142 ->E0.06296 ->D0.0 ;  perimeter
G1 X88.950 Y78.981 E2.14881 D0.00000 ; ->L14.19300285351905 ->E2.14881 ->D0.0 ;  perimeter
G1 X88.928 Y79.221 E0.03649 D0.00000 ; ->L0.2410062239860303 ->E0.03649 ->D0.0 ;  perimeter
G1 X88.872 Y79.414 E0.03041 D0.00000 ; ->L0.2009601950635968 ->E0.03041 ->D0.0 ;  perimeter
G1 X88.776 Y79.607 E0.03256 D0.00000 ; ->L0.21555741694499836 ->E0.03256 ->D0.0 ;  perimeter
G1 X88.652 Y79.772 E0.03132 D0.00000 ; ->L0.2064000968992042 ->E0.03132 ->D0.0 ;  perimeter
G1 X88.493 Y79.917 E0.03250 D0.00000 ; ->L0.2151882896442108 ->E0.0325 ->D0.0 ;  perimeter
G1 X88.311 Y80.029 E0.03235 D0.00000 ; ->L0.21370072531461948 ->E0.03235 ->D0.0 ;  perimeter
G1 X88.117 Y80.105 E0.03158 D0.00000 ; ->L0.20835546549107412 ->E0.03158 ->D0.0 ;  perimeter
G1 X87.799 Y80.149 E0.04859 D0.00000 ; ->L0.3210295936514239 ->E0.04859 ->D0.0 ;  perimeter
G1 X87.485 Y80.105 E0.04799 D0.00000 ; ->L0.3170678160898773 ->E0.04799 ->D0.0 ;  perimeter
G1 X87.288 Y80.029 E0.03210 D0.00000 ; ->L0.211151604303643 ->E0.0321 ->D0.0 ;  perimeter
G1 X87.107 Y79.917 E0.03216 D0.00000 ; ->L0.21284971223846624 ->E0.03216 ->D0.0 ;  perimeter
G1 X86.951 Y79.775 E0.03190 D0.00000 ; ->L0.2109502310972915 ->E0.0319 ->D0.0 ;  perimeter
G1 X86.823 Y79.605 E0.03221 D0.00000 ; ->L0.212800375939519 ->E0.03221 ->D0.0 ;  perimeter
G1 X86.728 Y79.414 E0.03233 D0.00000 ; ->L0.21332135383032036 ->E0.03233 ->D0.0 ;  perimeter
G1 X86.671 Y79.214 E0.03151 D0.00000 ; ->L0.207963939181772 ->E0.03151 ->D0.0 ;  perimeter
G1 X86.650 Y78.993 E0.03367 D0.00000 ; ->L0.2219954954497988 ->E0.03367 ->D0.0 ;  perimeter
G1 X86.650 Y64.991 E2.11980 D0.00000 ; ->L14.001999999999995 ->E2.1198 ->D0.0 ;  perimeter
G1 X86.613 Y64.581 E0.06224 D0.00000 ; ->L0.4116661268552438 ->E0.06224 ->D0.0 ;  perimeter
G1 X86.569 Y64.379 E0.03145 D0.00000 ; ->L0.20673654732533142 ->E0.03145 ->D0.0 ;  perimeter
G1 X86.506 Y64.179 E0.03163 D0.00000 ; ->L0.20968786326347416 ->E0.03163 ->D0.0 ;  perimeter
G1 X86.360 Y63.856 E0.05374 D0.00000 ; ->L0.3544643846707317 ->E0.05374 ->D0.0 ;  perimeter
G1 X86.089 Y63.457 E0.07299 D0.00000 ; ->L0.4823297627142671 ->E0.07299 ->D0.0 ;  perimeter
G1 X85.913 Y63.271 E0.03868 D0.00000 ; ->L0.2560703028467 ->E0.03868 ->D0.0 ;  perimeter
G1 X85.626 Y63.034 E0.05636 D0.00000 ; ->L0.37220693169256835 ->E0.05636 ->D0.0 ;  perimeter
G1 X85.450 Y62.921 E0.03161 D0.00000 ; ->L0.20915305400591352 ->E0.03161 ->D0.0 ;  perimeter
G1 X85.157 Y62.778 E0.04948 D0.00000 ; ->L0.32603374058524054 ->E0.04948 ->D0.0 ;  perimeter
G1 X84.871 Y62.681 E0.04568 D0.00000 ; ->L0.30200165562460257 ->E0.04568 ->D0.0 ;  perimeter
G1 X84.667 Y62.636 E0.03158 D0.00000 ; ->L0.20890428430263672 ->E0.03158 ->D0.0 ;  perimeter
G1 X84.297 Y62.602 E0.05636 D0.00000 ; ->L0.37155887824139494 ->E0.05636 ->D0.0 ;  perimeter
G1 X84.046 Y62.609 E0.03793 D0.00000 ; ->L0.25109759058978515 ->E0.03793 ->D0.0 ;  perimeter
G1 X83.628 Y62.682 E0.06421 D0.00000 ; ->L0.42432652521378555 ->E0.06421 ->D0.0 ;  perimeter
G1 X83.236 Y62.825 E0.06328 D0.00000 ; ->L0.4172684986911868 ->E0.06328 ->D0.0 ;  perimeter
