; File post-processed by the CEL Tech Roboxiser on Tue 28 Apr 2015 09:33:09
; Robox® AutoMaker™ - tonywip
;
; Pre print gcode
; Printed with safety features OFF
;
; Macro Start - before_print
;
M83				;Set Extruder to Relative moves
M139			;Set & heat first layer Bed temp.

;
; Macro Start - Home_all_Axis_in_sequence
;
;Home_all_Axis_in_sequence
G90 			;Use X Y Z Absolute positioning
G0 Z5			;Move up 5mm if homed
G28 Y			;Home Y
G0 Y40			;Position Y
T0				;Select Nozzle 0
G39				;Clear the bed levelling points
G28 Z			;Home Z
G0 Z10			;Move up 10mm if homed
G28 X			;Home X
;
; Macro End - Home_all_Axis_in_sequence
;

M190			;Wait for Bed to get to temp.
M103			;Set & heat first layer nozzle temp.
M109			;Wait for Nozzle to get to temp.
M170			;Set Ambient temp.

;
; Macro Start - Short_Purge_T0
;
;Short_Purge_T0
G0 Y-6 X14 Z10
T0
G0 Z3
G1 Y-4 F400
G36 E500 F400
G0 B1
G1 E2 F250
G1 E30 X36 F250
G0 B0
G0 Z5
G0 Y3
;
; Macro End - Short_Purge_T0
;

;
; Macro Start - Short_Purge_T1
;
;Short_Purge_T1
G0 Y-6 Z8
T1
G0 Z4
G1 Y-4 F400
G36 E500 F400
G0 B1
G1 E4 F300
G1 E35 X14 F300
G0 B0
G0 Z5
G0 Y3
;
; Macro End - Short_Purge_T1
;

;
; Macro Start - Level_Gantry_(2-points)
;
;Level_Gantry
T0			;Select Nozzle 0 (T0)
G0 X20 Y75		;Level Gantry Position 1
G28 Z			;Home Z
G0 Z4 			;Move up 4mm
G0 X190 Y75		;Level Gantry Position 2
G28 Z			;Home Z
G0 Z4 			;Move up 4mm
G38 			;Level gantry
;
; Macro End - Level_Gantry_(2-points)
;

;
; Macro Start - 7_point_Bed_probing-Set_Washout
;
;7_point_Bed_probing-Set_Washout
G0 Y20
G28 Z
G0 Z2
G0 X105
G28 Z
G0 Z2
G0 X20
G28 Z
G0 Z2
G0 Y130
G28 Z
G0 Z2
G0 X105
G28 Z
G0 Z2
G0 X190
G28 Z
G0 Z2
G0 X105 Y75
G28 Z
G0 Z2

G39 S0.5		;set washout over the first 2mm
;
; Macro End - 7_point_Bed_probing-Set_Washout
;

;Centre head and prime
G0 X105 Y75 Z5
G1 E1 F1000
M129			;Head LED on
;
; Macro End - before_print
;
; End of Pre print gcode
G21 ; set units to millimeters
G90 ; use absolute coordinates
T0 ; Initialise using nozzle 0
 ;  generated by Slic3r 1.2.6 on 2015-04-28 at 09:33:08
 ;  external perimeters extrusion width = 0.30mm
 ;  perimeters extrusion width = 0.40mm
 ;  infill extrusion width = 0.80mm
 ;  solid infill extrusion width = 0.80mm
 ;  top infill extrusion width = 0.80mm
M83 ;  use relative distances for extrusion
T1 ;  - force to nozzle 1 on first layer
G1 Z0.2 F12000 ;  move to next layer (0)
G1 X66.305 Y80.349 F12000 ; ->104.17444420778064  ;  move to first perimeter point
G1 B1.0 ; Open and replenish from extrusion
G1 X66.934 Y79.906 E0.14721 D0 F840 ; ->L0.7693438762997898 ->E0.14721 ->D0.0; Perimeter ;  perimeter
G1 X67.681 Y79.562 E0.15742 D0 ; ->L0.8224019698420022 ->E0.15742 ->D0.0; Perimeter ;  perimeter
G1 X68.449 Y79.37 E0.15159 D0 ; ->L0.7916362801185898 ->E0.15159 ->D0.0; Perimeter ;  perimeter
G1 X69.15 Y79.305 E0.13465 D0 F840 ; ->L0.7040071022369095 ->E0.13465 ->D0.0; Perimeter ;  perimeter
G1 X69.921 Y79.369 E0.14819 D0 ; ->L0.7736517304317236 ->E0.14819 ->D0.0; Perimeter ;  perimeter
G1 X70.634 Y79.553 E0.1409 D0 ; ->L0.7363592873047711 ->E0.1409 ->D0.0; Perimeter ;  perimeter
G1 X71.315 Y79.858 E0.14281 D0 ; ->L0.7461809432034568 ->E0.14281 ->D0.0; Perimeter ;  perimeter
G1 X116.806 Y105.708 E10.01538 D0 ; ->L52.32259149736374 ->E10.01538 ->D0.0; Perimeter ;  perimeter
G1 X117.864 Y106.571 E0.26137 D0 ; ->L1.3653325602211404 ->E0.26137 ->D0.0; Perimeter ;  perimeter
G1 X118.599 Y107.762 E0.26795 D0 ; ->L1.3995377808405192 ->E0.26795 ->D0.0; Perimeter ;  perimeter
G1 X118.748 Y108.182 E0.08536 D0 ; ->L0.4456467210695056 ->E0.08536 ->D0.0; Perimeter ;  perimeter
G1 X118.95 Y109.228 E0.20378 D0 ; ->L1.0653262411111364 ->E0.20378 ->D0.0; Perimeter ;  perimeter
G1 X118.952 Y109.678 E0.08624 D0 ; ->L0.4500044444224996 ->E0.08624 ->D0.0; Perimeter ;  perimeter
G1 X118.799 Y110.712 E0.20008 D0 ; ->L1.04525834127263 ->E0.20008 ->D0.0; Perimeter ;  perimeter
G1 X118.639 Y111.168 E0.09252 D0 ; ->L0.4832556259372531 ->E0.09252 ->D0.0; Perimeter ;  perimeter
G1 X118.158 Y112.081 E0.19742 D0 ; ->L1.0319544563593825 ->E0.19742 ->D0.0; Perimeter ;  perimeter
G1 X117.695 Y112.625 E0.1368 D0 ; ->L0.7143563536499162 ->E0.1368 ->D0.0; Perimeter ;  perimeter
G1 X117.05 Y113.191 E0.16424 D0 ; ->L0.8581264475588651 ->E0.16424 ->D0.0; Perimeter ;  perimeter
G1 X115.753 Y113.821 E0.27602 D0 ; ->L1.4419115784263563 ->E0.27602 ->D0.0; Perimeter ;  perimeter
G1 X114.397 Y113.98 E0.26135 D0 ; ->L1.3652900790674438 ->E0.26135 ->D0.0; Perimeter ;  perimeter
G1 X55.393 Y111.037 E11.3083 D0 ; ->L59.07734984746693 ->E11.3083 ->D0.0; Perimeter ;  perimeter
G1 X54.9 Y110.974 E0.09527 D0 ; ->L0.49700905424348396 ->E0.09527 ->D0.0; Perimeter ;  perimeter
G1 X54.091 Y110.768 E0.1596 D0 ; ->L0.8348155484896033 ->E0.1596 ->D0.0; Perimeter ;  perimeter
G1 X52.968 Y110.146 E0.24586 D0 ; ->L1.2837495861732515 ->E0.24586 ->D0.0; Perimeter ;  perimeter
G1 X52.375 Y109.585 E0.15619 D0 ; ->L0.816314890223137 ->E0.15619 ->D0.0; Perimeter ;  perimeter
G1 X51.981 Y109.1 E0.11953 D0 ; ->L0.624868786226355 ->E0.11953 ->D0.0; Perimeter ;  perimeter
G1 X51.486 Y108.12 E0.21036 D0 ; ->L1.0979184851344768 ->E0.21036 ->D0.0; Perimeter ;  perimeter
G1 X51.372 Y107.746 E0.07478 D0 ; ->L0.39098849087921556 ->E0.07478 ->D0.0; Perimeter ;  perimeter
G1 X51.216 Y106.697 E0.20303 D0 ; ->L1.060536185144092 ->E0.20303 ->D0.0; Perimeter ;  perimeter
G1 X51.216 Y94.51 E2.33277 D0 ; ->L12.186999999999998 ->E2.33277 ->D0.0; Perimeter ;  perimeter
G1 X51.291 Y93.734 E0.14928 D0 ; ->L0.7796159310840278 ->E0.14928 ->D0.0; Perimeter ;  perimeter
G1 X51.49 Y93.024 E0.14096 D0 ; ->L0.7373608343273957 ->E0.14096 ->D0.0; Perimeter ;  perimeter
G1 X51.849 Y92.281 E0.15799 D0 ; ->L0.8251848277810182 ->E0.15799 ->D0.0; Perimeter ;  perimeter
G1 X52.267 Y91.701 E0.13687 D0 ; ->L0.7149293671405728 ->E0.13687 ->D0.0; Perimeter ;  perimeter
G1 X52.53 Y91.421 E0.07344 D0 ; ->L0.38414710723886974 ->E0.07344 ->D0.0; Perimeter ;  perimeter
G1 X52.944 Y91.052 E0.10619 D0 ; ->L0.5545782181081412 ->E0.10619 ->D0.0; Perimeter ;  perimeter
G1 X53.453 Y90.716 E0.11677 D0 ; ->L0.6098991719948543 ->E0.11677 ->D0.0; Perimeter ;  perimeter
G1 X55.607 Y89.514 E0.47217 D0 ; ->L2.4666819819344323 ->E0.47217 ->D0.0; Perimeter ;  perimeter
G1 X56.532 Y89.142 E0.19086 D0 ; ->L0.9969999999999973 ->E0.19086 ->D0.0; Perimeter ;  perimeter
G1 X57.096 Y89.036 E0.10981 D0 ; ->L0.5738745507512935 ->E0.10981 ->D0.0; Perimeter ;  perimeter
G1 X57.641 Y88.994 E0.10464 D0 ; ->L0.5466159529322228 ->E0.10464 ->D0.0; Perimeter ;  perimeter
G1 X60.724 Y88.994 E0.59012 D0 ; ->L3.0829999999999984 ->E0.59012 ->D0.0; Perimeter ;  perimeter
G1 X61.292 Y88.956 E0.10898 D0 ; ->L0.5692697076079188 ->E0.10898 ->D0.0; Perimeter ;  perimeter
G1 X61.792 Y88.857 E0.09757 D0 ; ->L0.5097067784520829 ->E0.09757 ->D0.0; Perimeter ;  perimeter
G1 X62.28 Y88.691 E0.09872 D0 ; ->L0.5154609587543935 ->E0.09872 ->D0.0; Perimeter ;  perimeter
G1 X62.742 Y88.463 E0.09864 D0 ; ->L0.5151970496809938 ->E0.09864 ->D0.0; Perimeter ;  perimeter
G1 X63.171 Y88.177 E0.09864 D0 ; ->L0.515593832391345 ->E0.09864 ->D0.0; Perimeter ;  perimeter
G1 X63.57 Y87.827 E0.10158 D0 ; ->L0.5307551224434924 ->E0.10158 ->D0.0; Perimeter ;  perimeter
G1 X63.771 Y87.607 E0.05702 D0 ; ->L0.2979949664004406 ->E0.05702 ->D0.0; Perimeter ;  perimeter
G1 X64.187 Y87.013 E0.13876 D0 ; ->L0.7251841145529805 ->E0.13876 ->D0.0; Perimeter ;  perimeter
G1 X64.449 Y86.466 E0.11616 D0 ; ->L0.6065088622600766 ->E0.11616 ->D0.0; Perimeter ;  perimeter
G1 X64.572 Y86.092 E0.07533 D0 ; ->L0.39370674365572855 ->E0.07533 ->D0.0; Perimeter ;  perimeter
G1 X64.696 Y85.394 E0.13579 D0 ; ->L0.7089287693414547 ->E0.13579 ->D0.0; Perimeter ;  perimeter
G1 X64.716 Y85.014 E0.07282 D0 ; ->L0.38052595180881843 ->E0.07282 ->D0.0; Perimeter ;  perimeter
G1 X64.716 Y83.712 E0.24921 D0 ; ->L1.3019999999999925 ->E0.24921 ->D0.0; Perimeter ;  perimeter
G1 X64.754 Y83.211 E0.09622 D0 ; ->L0.5024390510300784 ->E0.09622 ->D0.0; Perimeter ;  perimeter
G1 X64.964 Y82.276 E0.18336 D0 ; ->L0.9582927527639983 ->E0.18336 ->D0.0; Perimeter ;  perimeter
G1 X65.221 Y81.718 E0.11767 D0 ; ->L0.6143394826966556 ->E0.11767 ->D0.0; Perimeter ;  perimeter
G1 X65.729 Y80.925 E0.18014 D0 ; ->L0.9417605852869431 ->E0.18014 ->D0.0; Perimeter ;  perimeter
G1 X66.22 Y80.434 E0.13304 D0 ; ->L0.6943788591251892 ->E0.13304 ->D0.0; Perimeter ;  perimeter
G1 X66.923 Y81.084 F12000 ; ->0.9574492153634111  ;  move to first perimeter point
G1 X67.413 Y80.739 E0.11466 D0 F840 ; ->L0.5992703897240328 ->E0.11466 ->D0.0; Perimeter ;  perimeter
G1 X68 Y80.469 E0.12368 D0 ; ->L0.6461184102004905 ->E0.12368 ->D0.0; Perimeter ;  perimeter
G1 X68.611 Y80.316 E0.12048 D0 ; ->L0.6298650649147026 ->E0.12048 ->D0.0; Perimeter ;  perimeter
G1 X69.155 Y80.266 E0.10455 D0 F840 ; ->L0.5462929616972897 ->E0.10455 ->D0.0; Perimeter ;  perimeter
G1 X69.761 Y80.316 E0.11646 D0 ; ->L0.6080592076434606 ->E0.11646 ->D0.0; Perimeter ;  perimeter
G1 X70.316 Y80.459 E0.10972 D0 ; ->L0.57312651308416 ->E0.10972 ->D0.0; Perimeter ;  perimeter
G1 X70.881 Y80.713 E0.11858 D0 ; ->L0.619468320416785 ->E0.11858 ->D0.0; Perimeter ;  perimeter
G1 X116.263 Y106.5 E9.99134 D0 ; ->L52.19669810438205 ->E9.99134 ->D0.0; Perimeter ;  perimeter
G1 X117.134 Y107.21 E0.2151 D0 ; ->L1.123717491187168 ->E0.2151 ->D0.0; Perimeter ;  perimeter
G1 X117.731 Y108.178 E0.21758 D0 ; ->L1.1372919589973367 ->E0.21758 ->D0.0; Perimeter ;  perimeter
G1 X117.822 Y108.435 E0.05215 D0 ; ->L0.2726352875179662 ->E0.05215 ->D0.0; Perimeter ;  perimeter
G1 X117.993 Y109.322 E0.17291 D0 ; ->L0.9033327183269729 ->E0.17291 ->D0.0; Perimeter ;  perimeter
G1 X117.995 Y109.61 E0.0552 D0 ; ->L0.2880069443607187 ->E0.0552 ->D0.0; Perimeter ;  perimeter
G1 X117.866 Y110.482 E0.1687 D0 ; ->L0.8814902154873876 ->E0.1687 ->D0.0; Perimeter ;  perimeter
G1 X117.76 Y110.785 E0.06142 D0 ; ->L0.3210062304691253 ->E0.06142 ->D0.0; Perimeter ;  perimeter
G1 X117.36 Y111.541 E0.16373 D0 ; ->L0.8552987782056075 ->E0.16373 ->D0.0; Perimeter ;  perimeter
G1 X117.011 Y111.952 E0.10326 D0 ; ->L0.5391864241614432 ->E0.10326 ->D0.0; Perimeter ;  perimeter
G1 X116.516 Y112.387 E0.12601 D0 ; ->L0.6589764790946582 ->E0.12601 ->D0.0; Perimeter ;  perimeter
G1 X115.481 Y112.889 E0.22035 D0 ; ->L1.1503169128548958 ->E0.22035 ->D0.0; Perimeter ;  perimeter
G1 X114.365 Y113.02 E0.2151 D0 ; ->L1.1236623158226848 ->E0.2151 ->D0.0; Perimeter ;  perimeter
G1 X55.478 Y110.083 E11.28579 D0 ; ->L58.96019621744826 ->E11.28579 ->D0.0; Perimeter ;  perimeter
G1 X55.079 Y110.032 E0.07702 D0 ; ->L0.4022461932697448 ->E0.07702 ->D0.0; Perimeter ;  perimeter
G1 X54.447 Y109.871 E0.12482 D0 ; ->L0.6521847897643718 ->E0.12482 ->D0.0; Perimeter ;  perimeter
G1 X53.538 Y109.367 E0.19897 D0 ; ->L1.0393733689103264 ->E0.19897 ->D0.0; Perimeter ;  perimeter
G1 X53.079 Y108.932 E0.1211 D0 ; ->L0.6323812141422279 ->E0.1211 ->D0.0; Perimeter ;  perimeter
G1 X52.789 Y108.576 E0.08785 D0 ; ->L0.45916881427205586 ->E0.08785 ->D0.0; Perimeter ;  perimeter
G1 X52.377 Y107.762 E0.17475 D0 ; ->L0.9123266958715983 ->E0.17475 ->D0.0; Perimeter ;  perimeter
G1 X52.308 Y107.535 E0.0454 D0 ; ->L0.2372551369306935 ->E0.0454 ->D0.0; Perimeter ;  perimeter
G1 X52.173 Y106.626 E0.17592 D0 ; ->L0.9189700756825462 ->E0.17592 ->D0.0; Perimeter ;  perimeter
G1 X52.173 Y94.556 E2.31026 D0 ; ->L12.070000000000007 ->E2.31026 ->D0.0; Perimeter ;  perimeter
G1 X52.236 Y93.911 E0.12418 D0 ; ->L0.6480694407237502 ->E0.12418 ->D0.0; Perimeter ;  perimeter
G1 X52.389 Y93.364 E0.10866 D0 ; ->L0.5679947182853011 ->E0.10866 ->D0.0; Perimeter ;  perimeter
G1 X52.674 Y92.773 E0.1257 D0 ; ->L0.6561295603766132 ->E0.1257 ->D0.0; Perimeter ;  perimeter
G1 X53.007 Y92.311 E0.10898 D0 ; ->L0.5695024143934676 ->E0.10898 ->D0.0; Perimeter ;  perimeter
G1 X53.198 Y92.107 E0.05344 D0 ; ->L0.2794584047761028 ->E0.05344 ->D0.0; Perimeter ;  perimeter
G1 X53.529 Y91.813 E0.08485 D0 ; ->L0.4427154842559725 ->E0.08485 ->D0.0; Perimeter ;  perimeter
G1 X53.951 Y91.534 E0.09673 D0 ; ->L0.5058903043150713 ->E0.09673 ->D0.0; Perimeter ;  perimeter
G1 X56.02 Y90.379 E0.45351 D0 ; ->L2.3695539664671097 ->E0.45351 ->D0.0; Perimeter ;  perimeter
G1 X56.801 Y90.066 E0.16121 D0 ; ->L0.8413857617050574 ->E0.16121 ->D0.0; Perimeter ;  perimeter
G1 X57.222 Y89.987 E0.08186 D0 ; ->L0.42834798937312724 ->E0.08186 ->D0.0; Perimeter ;  perimeter
G1 X57.678 Y89.951 E0.08759 D0 ; ->L0.4574188452610981 ->E0.08759 ->D0.0; Perimeter ;  perimeter
G1 X60.756 Y89.951 E0.58918 D0 ; ->L3.078000000000003 ->E0.58918 ->D0.0; Perimeter ;  perimeter
G1 X61.418 Y89.907 E0.12695 D0 ; ->L0.663460624302602 ->E0.12695 ->D0.0; Perimeter ;  perimeter
G1 X62.04 Y89.783 E0.12153 D0 ; ->L0.6342397023208171 ->E0.12153 ->D0.0; Perimeter ;  perimeter
G1 X62.647 Y89.577 E0.12268 D0 ; ->L0.6410031201172116 ->E0.12268 ->D0.0; Perimeter ;  perimeter
G1 X63.222 Y89.294 E0.12265 D0 ; ->L0.6408697215503351 ->E0.12265 ->D0.0; Perimeter ;  perimeter
G1 X63.755 Y88.937 E0.12265 D0 ; ->L0.6415122757983676 ->E0.12265 ->D0.0; Perimeter ;  perimeter
G1 X64.241 Y88.512 E0.12366 D0 ; ->L0.6456167593859339 ->E0.12366 ->D0.0; Perimeter ;  perimeter
G1 X64.519 Y88.207 E0.07906 D0 ; ->L0.4126851099809725 ->E0.07906 ->D0.0; Perimeter ;  perimeter
G1 X65.016 Y87.498 E0.16569 D0 ; ->L0.865846406702704 ->E0.16569 ->D0.0; Perimeter ;  perimeter
G1 X65.339 Y86.824 E0.14311 D0 ; ->L0.7473988225840368 ->E0.14311 ->D0.0; Perimeter ;  perimeter
G1 X65.503 Y86.327 E0.1002 D0 ; ->L0.523359341179653 ->E0.1002 ->D0.0; Perimeter ;  perimeter
G1 X65.649 Y85.502 E0.16022 D0 ; ->L0.8378191929050115 ->E0.16022 ->D0.0; Perimeter ;  perimeter
G1 X65.673 Y85.038 E0.08892 D0 ; ->L0.46462027506341 ->E0.08892 ->D0.0; Perimeter ;  perimeter
G1 X65.673 Y83.748 E0.24693 D0 ; ->L1.289999999999992 ->E0.24693 ->D0.0; Perimeter ;  perimeter
G1 X65.703 Y83.353 E0.07588 D0 ; ->L0.3961376023555554 ->E0.07588 ->D0.0; Perimeter ;  perimeter
G1 X65.876 Y82.584 E0.15085 D0 ; ->L0.7882195125724732 ->E0.15085 ->D0.0; Perimeter ;  perimeter
G1 X66.063 Y82.178 E0.08565 D0 ; ->L0.44699552570468076 ->E0.08565 ->D0.0; Perimeter ;  perimeter
G1 X66.479 Y81.529 E0.14756 D0 ; ->L0.7708806652134936 ->E0.14756 ->D0.0; Perimeter ;  perimeter
G1 X66.838 Y81.169 E0.0974 D0 ; ->L0.508410267402219 ->E0.0974 ->D0.0; Perimeter ;  perimeter
G1 X66.479 Y81.529 B0.852 F2400 ; ->L0.0  ; ->E0.14756  ; Move to start of wipe:Close - reverse - start - Normal close
G1 X66.063 Y82.178 B0.767 F2400 ; ->L0.0  ; ->E0.08565  ; Move to start of wipe:Close - reverse - in progress - Normal close
G1 X65.876 Y82.584 B0.616 F2400 ; ->L0.0  ; ->E0.15085  ; Move to start of wipe:Close - reverse - in progress - Normal close
G1 X65.703 Y83.353 B0.54 F2400 ; ->L0.0  ; ->E0.07588  ; Move to start of wipe:Close - reverse - in progress - Normal close
G1 X65.673 Y83.748 B0.293 F2400 ; ->L0.0  ; ->E0.24693  ; Move to start of wipe:Close - reverse - in progress - Normal close
G1 X65.673 Y85.038 B0.204 F2400 ; ->L0.0  ; ->E0.08892  ; Move to start of wipe:Close - reverse - in progress - Normal close
G1 X65.649 Y85.502 B0.044 F2400 ; ->L0.0  ; ->E0.16022  ; Move to start of wipe:Close - reverse - in progress - Normal close
G1 X65.503 Y86.327 B0 F2400 ; ->L0.0  ; ->E0.043989999999999974  ; Move to start of wipe:Close - reverse - end - Normal close
M109
G1 X103.973 Y116.604 F12000 ; ->51.800632602314806  ;  move to first perimeter point
G1 B1.0 E1 F400 ; Open and replenish from extrusion
G1 X103.799 Y117.582 E0.19028 D0 F840 ; ->L0.9933579415296313 ->E0.19028 ->D0.0; Perimeter ;  perimeter
G1 X103.977 Y118.355 E0.15177 D0 ; ->L0.7932294749944779 ->E0.15177 ->D0.0; Perimeter ;  perimeter
G1 X104.263 Y119.058 E0.14533 D0 ; ->L0.7589499324724952 ->E0.14533 ->D0.0; Perimeter ;  perimeter
G1 X104.375 Y119.397 E0.06824 D0 ; ->L0.357022408260319 ->E0.06824 ->D0.0; Perimeter ;  perimeter
G1 X104.527 Y120.049 E0.12824 D0 ; ->L0.6694833829155147 ->E0.12824 ->D0.0; Perimeter ;  perimeter
G1 X104.599 Y120.648 E0.11535 D0 ; ->L0.6033116939029012 ->E0.11535 ->D0.0; Perimeter ;  perimeter
G1 X104.59 Y121.578 E0.17801 D0 ; ->L0.9300435473675481 ->E0.17801 ->D0.0; Perimeter ;  perimeter
G1 X104.483 Y122.283 E0.13664 D0 ; ->L0.713073628736891 ->E0.13664 ->D0.0; Perimeter ;  perimeter
G1 X104.4 Y122.618 E0.06597 D0 ; ->L0.3451289614042779 ->E0.06597 ->D0.0; Perimeter ;  perimeter
G1 X104.24 Y123.109 E0.09895 D0 ; ->L0.516411657498166 ->E0.09895 ->D0.0; Perimeter ;  perimeter
G1 X104.145 Y123.332 E0.04627 D0 ; ->L0.24239224410034108 ->E0.04627 ->D0.0; Perimeter ;  perimeter
G1 X104.493 Y121.735 E0.3129 D0 ; ->L1.6344763687493256 ->E0.3129 ->D0.0; Perimeter ;  perimeter
G1 X104.53 Y121.087 E0.12413 D0 ; ->L0.6490554675834689 ->E0.12413 ->D0.0; Perimeter ;  perimeter
G1 X104.489 Y120.33 E0.14521 D0 ; ->L0.7581094907729405 ->E0.14521 ->D0.0; Perimeter ;  perimeter
G1 X104.241 Y119.231 E0.21569 D0 ; ->L1.126634368373347 ->E0.21569 ->D0.0; Perimeter ;  perimeter
G1 X103.835 Y118.303 E0.19379 D0 ; ->L1.0129264534012328 ->E0.19379 ->D0.0; Perimeter ;  perimeter
G1 X103.415 Y117.643 E0.1498 D0 ; ->L0.7823042886243082 ->E0.1498 ->D0.0; Perimeter ;  perimeter
G1 X102.804 Y116.935 E0.17902 D0 ; ->L0.935192493554136 ->E0.17902 ->D0.0; Perimeter ;  perimeter
G1 X102.071 Y116.327 E0.18227 D0 ; ->L0.9523408003440843 ->E0.18227 ->D0.0; Perimeter ;  perimeter
G1 X101.253 Y115.854 E0.18088 D0 ; ->L0.9449089903265793 ->E0.18088 ->D0.0; Perimeter ;  perimeter
G1 X100.476 Y115.548 E0.15988 D0 ; ->L0.8350838281274521 ->E0.15988 ->D0.0; Perimeter ;  perimeter
G1 X99.553 Y115.342 E0.18104 D0 ; ->L0.9457087289435393 ->E0.18104 ->D0.0; Perimeter ;  perimeter
G1 X98.608 Y115.293 E0.18104 D0 ; ->L0.9462695176322581 ->E0.18104 ->D0.0; Perimeter ;  perimeter
G1 X97.777 Y115.379 E0.15985 D0 ; ->L0.8354382083673243 ->E0.15985 ->D0.0; Perimeter ;  perimeter
G1 X96.864 Y115.615 E0.18049 D0 ; ->L0.9430084835249306 ->E0.18049 ->D0.0; Perimeter ;  perimeter
G1 X96.016 Y115.994 E0.17797 D0 ; ->L0.9288406752506061 ->E0.17797 ->D0.0; Perimeter ;  perimeter
G1 X95.525 Y116.298 E0.11058 D0 ; ->L0.5774919912864601 ->E0.11058 ->D0.0; Perimeter ;  perimeter
G1 X95.19 Y116.544 E0.07945 D0 ; ->L0.415621221787342 ->E0.07945 ->D0.0; Perimeter ;  perimeter
G1 X94.655 Y117.024 E0.13747 D0 ; ->L0.7187663041629039 ->E0.13747 ->D0.0; Perimeter ;  perimeter
G1 X94.114 Y117.663 E0.16037 D0 ; ->L0.8372586219323103 ->E0.16037 ->D0.0; Perimeter ;  perimeter
G1 X93.901 Y117.999 E0.07616 D0 ; ->L0.39782533855952723 ->E0.07616 ->D0.0; Perimeter ;  perimeter
G1 X93.41 Y118.946 E0.20409 D0 ; ->L1.0667192695362755 ->E0.20409 ->D0.0; Perimeter ;  perimeter
G1 X93.211 Y119.563 E0.12424 D0 ; ->L0.6482977710898016 ->E0.12424 ->D0.0; Perimeter ;  perimeter
G1 X93.057 Y120.332 E0.15005 D0 ; ->L0.7842684489382353 ->E0.15005 ->D0.0; Perimeter ;  perimeter
G1 X93.028 Y121.02 E0.13183 D0 ; ->L0.6886109206220905 ->E0.13183 ->D0.0; Perimeter ;  perimeter
G1 X92.488 Y123.035 E0.39933 D0 ; ->L2.086102825845363 ->E0.39933 ->D0.0; Perimeter ;  perimeter
G1 X92.212 Y122.961 E0.05472 D0 ; ->L0.2857481408513407 ->E0.05472 ->D0.0; Perimeter ;  perimeter
G1 X93.12 Y119.571 E0.67182 D0 ; ->L3.509496260149027 ->E0.67182 ->D0.0; Perimeter ;  perimeter
G1 X93.373 Y118.823 E0.15114 D0 ; ->L0.7896283936131014 ->E0.15114 ->D0.0; Perimeter ;  perimeter
G1 X93.651 Y118.243 E0.12315 D0 ; ->L0.6431827112104254 ->E0.12315 ->D0.0; Perimeter ;  perimeter
G1 X93.837 Y117.914 E0.07234 D0 ; ->L0.3779378255745227 ->E0.07234 ->D0.0; Perimeter ;  perimeter
G1 X94.108 Y117.134 E0.15794 D0 ; ->L0.8257366408244231 ->E0.15794 ->D0.0; Perimeter ;  perimeter
G1 X94.047 Y116.157 E0.18748 D0 ; ->L0.9789024466207081 ->E0.18748 ->D0.0; Perimeter ;  perimeter
G1 X93.581 Y115.236 E0.19762 D0 ; ->L1.032180701234033 ->E0.19762 ->D0.0; Perimeter ;  perimeter
G1 X92.752 Y114.569 E0.20359 D0 ; ->L1.0640159773236562 ->E0.20359 ->D0.0; Perimeter ;  perimeter
G1 X91.916 Y114.352 E0.16546 D0 ; ->L0.8637042317830781 ->E0.16546 ->D0.0; Perimeter ;  perimeter
G1 X51.637 Y112.337 E7.71957 D0 ; ->L40.32936976943726 ->E7.71957 ->D0.0; Perimeter ;  perimeter
G1 X51.254 Y112.285 E0.07406 D0 ; ->L0.38651390660622126 ->E0.07406 ->D0.0; Perimeter ;  perimeter
G1 X50.995 Y112.211 E0.05142 D0 ; ->L0.26936406590337897 ->E0.05142 ->D0.0; Perimeter ;  perimeter
G1 X50.479 Y111.915 E0.114 D0 ; ->L0.5948714146771499 ->E0.114 ->D0.0; Perimeter ;  perimeter
G1 X50.103 Y111.53 E0.10293 D0 ; ->L0.5381458909998312 ->E0.10293 ->D0.0; Perimeter ;  perimeter
G1 X49.836 Y111.012 E0.11158 D0 ; ->L0.5827632452377228 ->E0.11158 ->D0.0; Perimeter ;  perimeter
G1 X49.735 Y110.432 E0.11262 D0 ; ->L0.5887282904702286 ->E0.11262 ->D0.0; Perimeter ;  perimeter
G1 X49.73 Y99.859 E2.02402 D0 ; ->L10.573001182256633 ->E2.02402 ->D0.0; Perimeter ;  perimeter
G1 X49.572 Y99.153 E0.13831 D0 ; ->L0.7234638899074248 ->E0.13831 ->D0.0; Perimeter ;  perimeter
G1 X49.352 Y98.734 E0.09071 D0 ; ->L0.4732451795845489 ->E0.09071 ->D0.0; Perimeter ;  perimeter
G1 X48.975 Y98.254 E0.11674 D0 ; ->L0.6103515380499885 ->E0.11674 ->D0.0; Perimeter ;  perimeter
G1 X48.215 Y97.752 E0.1743 D0 ; ->L0.9108259987505883 ->E0.1743 ->D0.0; Perimeter ;  perimeter
G1 X47.415 Y97.594 E0.15619 D0 ; ->L0.8154532482000468 ->E0.15619 ->D0.0; Perimeter ;  perimeter
G1 X40.086 Y97.594 E1.40289 D0 ; ->L7.329000000000001 ->E1.40289 ->D0.0; Perimeter ;  perimeter
G1 X39.687 Y97.559 E0.07669 D0 ; ->L0.4005321460257597 ->E0.07669 ->D0.0; Perimeter ;  perimeter
G1 X39.46 Y97.504 E0.04469 D0 ; ->L0.2335679772571525 ->E0.04469 ->D0.0; Perimeter ;  perimeter
G1 X38.977 Y97.283 E0.10166 D0 ; ->L0.5311591098719908 ->E0.10166 ->D0.0; Perimeter ;  perimeter
G1 X38.827 Y97.173 E0.03551 D0 ; ->L0.18601075237738127 ->E0.03551 ->D0.0; Perimeter ;  perimeter
G1 X56.152 Y87.508 E3.79727 D0 ; ->L19.83854455346965 ->E3.79727 ->D0.0; Perimeter ;  perimeter
G1 X60.914 Y87.508 E0.91156 D0 ; ->L4.7620000000000005 ->E0.91156 ->D0.0; Perimeter ;  perimeter
G1 X61.707 Y87.353 E0.15466 D0 ; ->L0.8080061880951156 ->E0.15466 ->D0.0; Perimeter ;  perimeter
G1 X62.477 Y86.85 E0.17613 D0 ; ->L0.91973311346281 ->E0.17613 ->D0.0; Perimeter ;  perimeter
G1 X62.902 Y86.287 E0.13502 D0 ; ->L0.7054034306692805 ->E0.13502 ->D0.0; Perimeter ;  perimeter
G1 X63.094 Y85.888 E0.0847 D0 ; ->L0.44279227635540436 ->E0.0847 ->D0.0; Perimeter ;  perimeter
G1 X63.23 Y85.192 E0.13567 D0 ; ->L0.709162886789781 ->E0.13567 ->D0.0; Perimeter ;  perimeter
G1 X63.23 Y76.948 E1.57809 D0 ; ->L8.244 ->E1.57809 ->D0.0; Perimeter ;  perimeter
G1 X63.252 Y76.646 E0.05804 D0 ; ->L0.30280026420067024 ->E0.05804 ->D0.0; Perimeter ;  perimeter
G1 X63.32 Y76.324 E0.06292 D0 ; ->L0.32910180795614213 ->E0.06292 ->D0.0; Perimeter ;  perimeter
G1 X63.412 Y76.087 E0.04859 D0 ; ->L0.25423021063594564 ->E0.04859 ->D0.0; Perimeter ;  perimeter
G1 X63.594 Y75.778 E0.06871 D0 ; ->L0.35861539286539174 ->E0.06871 ->D0.0; Perimeter ;  perimeter
G1 X63.835 Y75.49 E0.0719 D0 ; ->L0.3755329546125162 ->E0.0719 ->D0.0; Perimeter ;  perimeter
G1 X64.198 Y75.219 E0.0867 D0 ; ->L0.4530011037514091 ->E0.0867 ->D0.0; Perimeter ;  perimeter
G1 X64.487 Y75.082 E0.06127 D0 ; ->L0.3198280788173562 ->E0.06127 ->D0.0; Perimeter ;  perimeter
G1 X64.718 Y75.01 E0.0463 D0 ; ->L0.24196074061715547 ->E0.0463 ->D0.0; Perimeter ;  perimeter
G1 X65.042 Y74.96 E0.06272 D0 ; ->L0.3278353245152204 ->E0.06272 ->D0.0; Perimeter ;  perimeter
G1 X65.281 Y74.959 E0.04581 D0 ; ->L0.23900209204105735 ->E0.04581 ->D0.0; Perimeter ;  perimeter
G1 X65.538 Y74.996 E0.04974 D0 ; ->L0.25964976410540924 ->E0.04974 ->D0.0; Perimeter ;  perimeter
G1 X65.855 Y75.083 E0.0629 D0 ; ->L0.3287217668485085 ->E0.0629 ->D0.0; Perimeter ;  perimeter
G1 X66.186 Y75.235 E0.06969 D0 ; ->L0.3642320688791726 ->E0.06969 ->D0.0; Perimeter ;  perimeter
G1 X141.126 Y117.818 E16.4988 D0 ; ->L86.19347706758325 ->E16.4988 ->D0.0; Perimeter ;  perimeter
G1 X141.658 Y118.166 E0.12166 D0 ; ->L0.6357106259926606 ->E0.12166 ->D0.0; Perimeter ;  perimeter
G1 X142.17 Y118.604 E0.12897 D0 ; ->L0.6737863162754217 ->E0.12897 ->D0.0; Perimeter ;  perimeter
G1 X142.463 Y118.92 E0.08241 D0 ; ->L0.43093502990590743 ->E0.08241 ->D0.0; Perimeter ;  perimeter
G1 X142.784 Y119.343 E0.1017 D0 ; ->L0.5310084745086469 ->E0.1017 ->D0.0; Perimeter ;  perimeter
G1 X143.049 Y119.783 E0.09838 D0 ; ->L0.5136389782717097 ->E0.09838 ->D0.0; Perimeter ;  perimeter
G1 X143.197 Y120.085 E0.06439 D0 ; ->L0.33631532822634524 ->E0.06439 ->D0.0; Perimeter ;  perimeter
G1 X143.348 Y120.469 E0.07888 D0 ; ->L0.41262210314039577 ->E0.07888 ->D0.0; Perimeter ;  perimeter
G1 X143.475 Y120.912 E0.0882 D0 ; ->L0.4608448762870277 ->E0.0882 ->D0.0; Perimeter ;  perimeter
G1 X143.584 Y121.551 E0.12425 D0 ; ->L0.6482298974900776 ->E0.12425 ->D0.0; Perimeter ;  perimeter
G1 X143.597 Y122.424 E0.16711 D0 ; ->L0.8730967873036805 ->E0.16711 ->D0.0; Perimeter ;  perimeter
G1 X143.544 Y122.935 E0.09819 D0 ; ->L0.5137411799729464 ->E0.09819 ->D0.0; Perimeter ;  perimeter
G1 X143.595 Y123.698 E0.14651 D0 ; ->L0.764702556553844 ->E0.14651 ->D0.0; Perimeter ;  perimeter
G1 X143.807 Y124.24 E0.11127 D0 ; ->L0.5819862541332029 ->E0.11127 ->D0.0; Perimeter ;  perimeter
G1 X144.149 Y124.752 E0.11788 D0 ; ->L0.6157174676749144 ->E0.11788 ->D0.0; Perimeter ;  perimeter
G1 X144.486 Y125.013 E0.08163 D0 ; ->L0.4262510997053237 ->E0.08163 ->D0.0; Perimeter ;  perimeter
G1 X144.106 Y124.96 E0.07353 D0 ; ->L0.3836782506215302 ->E0.07353 ->D0.0; Perimeter ;  perimeter
G1 X143.65 Y124.767 E0.09463 D0 ; ->L0.49516158978659586 ->E0.09463 ->D0.0; Perimeter ;  perimeter
G1 X143.277 Y124.486 E0.08938 D0 ; ->L0.46700107066259433 ->E0.08938 ->D0.0; Perimeter ;  perimeter
G1 X143.113 Y124.323 E0.04424 D0 ; ->L0.2312249986485012 ->E0.04424 ->D0.0; Perimeter ;  perimeter
G1 X143.467 Y122.822 E0.29523 D0 ; ->L1.5421793021565233 ->E0.29523 ->D0.0; Perimeter ;  perimeter
G1 X143.534 Y121.958 E0.16585 D0 ; ->L0.866593907202217 ->E0.16585 ->D0.0; Perimeter ;  perimeter
G1 X143.461 Y121.231 E0.13986 D0 ; ->L0.7306558697499135 ->E0.13986 ->D0.0; Perimeter ;  perimeter
G1 X143.234 Y120.393 E0.16616 D0 ; ->L0.8682010135907419 ->E0.16616 ->D0.0; Perimeter ;  perimeter
G1 X142.955 Y119.774 E0.13001 D0 ; ->L0.678971280688659 ->E0.13001 ->D0.0; Perimeter ;  perimeter
G1 X142.349 Y118.909 E0.2022 D0 ; ->L1.0561538713653513 ->E0.2022 ->D0.0; Perimeter ;  perimeter
G1 X141.802 Y118.377 E0.14591 D0 ; ->L0.7630419385590862 ->E0.14591 ->D0.0; Perimeter ;  perimeter
G1 X141.09 Y117.892 E0.16506 D0 ; ->L0.8614923098902183 ->E0.16506 ->D0.0; Perimeter ;  perimeter
G1 X140.403 Y117.579 E0.1444 D0 ; ->L0.7549423819073994 ->E0.1444 ->D0.0; Perimeter ;  perimeter
G1 X139.581 Y117.358 E0.16305 D0 ; ->L0.8511903429903325 ->E0.16305 ->D0.0; Perimeter ;  perimeter
G1 X138.831 Y117.293 E0.14402 D0 ; ->L0.7528113973632438 ->E0.14402 ->D0.0; Perimeter ;  perimeter
G1 X137.974 Y117.355 E0.16438 D0 ; ->L0.8592397802709082 ->E0.16438 ->D0.0; Perimeter ;  perimeter
G1 X137.142 Y117.579 E0.16499 D0 ; ->L0.8616263691415118 ->E0.16499 ->D0.0; Perimeter ;  perimeter
G1 X136.456 Y117.892 E0.1444 D0 ; ->L0.7540324926685926 ->E0.1444 ->D0.0; Perimeter ;  perimeter
G1 X135.743 Y118.377 E0.16506 D0 ; ->L0.862318966508328 ->E0.16506 ->D0.0; Perimeter ;  perimeter
G1 X135.197 Y118.909 E0.14591 D0 ; ->L0.7623253898434729 ->E0.14591 ->D0.0; Perimeter ;  perimeter
G1 X134.59 Y119.774 E0.2022 D0 ; ->L1.0567279687790943 ->E0.2022 ->D0.0; Perimeter ;  perimeter
G1 X134.311 Y120.393 E0.13001 D0 ; ->L0.678971280688659 ->E0.13001 ->D0.0; Perimeter ;  perimeter
G1 X134.084 Y121.231 E0.16615 D0 ; ->L0.8682010135907419 ->E0.16615 ->D0.0; Perimeter ;  perimeter
G1 X134.013 Y121.946 E0.13755 D0 ; ->L0.7185165272977405 ->E0.13755 ->D0.0; Perimeter ;  perimeter
G1 X134.059 Y122.708 E0.14613 D0 ; ->L0.7633871887843023 ->E0.14613 ->D0.0; Perimeter ;  perimeter
G1 X134.355 Y124.027 E0.25874 D0 ; ->L1.3518050895007026 ->E0.25874 ->D0.0; Perimeter ;  perimeter
G1 X134.19 Y123.611 E0.08561 D0 ; ->L0.4475276527768923 ->E0.08561 ->D0.0; Perimeter ;  perimeter
G1 X134.078 Y123.233 E0.07551 D0 ; ->L0.3942435795292029 ->E0.07551 ->D0.0; Perimeter ;  perimeter
G1 X133.992 Y122.816 E0.0814 D0 ; ->L0.42577576257932237 ->E0.0814 ->D0.0; Perimeter ;  perimeter
G1 X133.944 Y122.362 E0.08749 D0 ; ->L0.4565303932927217 ->E0.08749 ->D0.0; Perimeter ;  perimeter
G1 X133.948 Y121.685 E0.12961 D0 ; ->L0.6770118167358602 ->E0.12961 ->D0.0; Perimeter ;  perimeter
G1 X134.024 Y121.112 E0.1106 D0 ; ->L0.5780181658045079 ->E0.1106 ->D0.0; Perimeter ;  perimeter
G1 X134.081 Y120.857 E0.04998 D0 ; ->L0.26129293905499307 ->E0.04998 ->D0.0; Perimeter ;  perimeter
G1 X134.18 Y120.521 E0.06716 D0 ; ->L0.35028131551654673 ->E0.06716 ->D0.0; Perimeter ;  perimeter
G1 X134.506 Y119.733 E0.16321 D0 ; ->L0.8527719507582262 ->E0.16321 ->D0.0; Perimeter ;  perimeter
G1 X134.706 Y118.991 E0.14696 D0 ; ->L0.7684816198192395 ->E0.14696 ->D0.0; Perimeter ;  perimeter
G1 X134.584 Y118.036 E0.18427 D0 ; ->L0.9627611334074476 ->E0.18427 ->D0.0; Perimeter ;  perimeter
G1 X134.105 Y117.193 E0.18566 D0 ; ->L0.969582384328438 ->E0.18566 ->D0.0; Perimeter ;  perimeter
G1 X133.298 Y116.575 E0.19457 D0 ; ->L1.0164511793490008 ->E0.19457 ->D0.0; Perimeter ;  perimeter
G1 X132.492 Y116.373 E0.15905 D0 ; ->L0.8309271929597791 ->E0.15905 ->D0.0; Perimeter ;  perimeter
G1 X106.345 Y115.065 E5.01115 D0 ; ->L26.179695815650714 ->E5.01115 ->D0.0; Perimeter ;  perimeter
G1 X106.058 Y115.076 E0.05505 D0 ; ->L0.2872107240337576 ->E0.05505 ->D0.0; Perimeter ;  perimeter
G1 X105.392 Y115.208 E0.1299 D0 ; ->L0.6789550795155862 ->E0.1299 ->D0.0; Perimeter ;  perimeter
G1 X104.56 Y115.728 E0.1878 D0 ; ->L0.9811340377338793 ->E0.1878 ->D0.0; Perimeter ;  perimeter
G1 X104.04 Y116.504 E0.17885 D0 ; ->L0.9341177655949019 ->E0.17885 ->D0.0; Perimeter ;  perimeter
G1 X103.903 Y123.845 F12000 ; ->7.342278256781059  ;  move to first perimeter point
G1 X103.901 Y123.847 E0.00058 D0 F840 ; ->L0.002828427124749647 ->E5.8E-4 ->D0.0; Perimeter ;  perimeter
G1 X103.796 Y124.014 E0.03775 D0 F840 ; ->L0.1972663174492756 ->E0.03775 ->D0.0; Perimeter ;  perimeter
G1 X103.626 Y123.845 E0.04585 D0 ; ->L0.2397102417503256 ->E0.04585 ->D0.0; Perimeter ;  perimeter
G1 X103.783 Y123.845 E0.0299 D0 ; ->L0.15699999999999648 ->E0.0299 ->D0.0; Perimeter ;  perimeter
G1 X104.88 Y116.969 F12000 ; ->6.96295806392657  ;  move to first perimeter point
G1 X104.776 Y117.558 E0.11437 D0 F840 ; ->L0.5981111936755698 ->E0.11437 ->D0.0; Perimeter ;  perimeter
G1 X104.893 Y118.065 E0.09973 D0 ; ->L0.520324898500919 ->E0.09973 ->D0.0; Perimeter ;  perimeter
G1 X105.162 Y118.728 E0.13689 D0 ; ->L0.7154928371409448 ->E0.13689 ->D0.0; Perimeter ;  perimeter
G1 X105.297 Y119.138 E0.0827 D0 ; ->L0.4316537964619406 ->E0.0827 ->D0.0; Perimeter ;  perimeter
G1 X105.471 Y119.883 E0.14644 D0 ; ->L0.7650496715900137 ->E0.14644 ->D0.0; Perimeter ;  perimeter
G1 X105.556 Y120.59 E0.13616 D0 ; ->L0.7120912862828824 ->E0.13616 ->D0.0; Perimeter ;  perimeter
G1 X105.543 Y121.679 E0.2086 D0 ; ->L1.0890775913588513 ->E0.2086 ->D0.0; Perimeter ;  perimeter
G1 X105.422 Y122.471 E0.15331 D0 ; ->L0.8011897403237292 ->E0.15331 ->D0.0; Perimeter ;  perimeter
G1 X105.32 Y122.881 E0.08094 D0 ; ->L0.42249733726971345 ->E0.08094 ->D0.0; Perimeter ;  perimeter
G1 X105.137 Y123.445 E0.11344 D0 ; ->L0.5929460346439542 ->E0.11344 ->D0.0; Perimeter ;  perimeter
G1 X104.929 Y123.936 E0.10203 D0 ; ->L0.5332400960168064 ->E0.10203 ->D0.0; Perimeter ;  perimeter
G1 X104.735 Y124.32 E0.08239 D0 ; ->L0.4302231978868531 ->E0.08239 ->D0.0; Perimeter ;  perimeter
G1 X104.296 Y125.013 E0.15696 D0 ; ->L0.8203474873491176 ->E0.15696 ->D0.0; Perimeter ;  perimeter
G1 X104.147 Y125.16 E0.04003 D0 ; ->L0.20930838492520487 ->E0.04003 ->D0.0; Perimeter ;  perimeter
G1 X103.904 Y125.229 E0.04843 D0 ; ->L0.2526064132202602 ->E0.04843 ->D0.0; Perimeter ;  perimeter
G1 X103.704 Y125.202 E0.0387 D0 ; ->L0.20181427105138328 ->E0.0387 ->D0.0; Perimeter ;  perimeter
G1 X103.594 Y125.148 E0.02342 D0 ; ->L0.12253978945632352 ->E0.02342 ->D0.0; Perimeter ;  perimeter
G1 X103.506 Y125.077 E0.02166 D0 ; ->L0.11307077429644952 ->E0.02166 ->D0.0; Perimeter ;  perimeter
G1 X102.356 Y123.928 E0.31108 D0 ; ->L1.625638643733599 ->E0.31108 ->D0.0; Perimeter ;  perimeter
G1 X102.697 Y123.451 E0.11212 D0 ; ->L0.5863531359172638 ->E0.11212 ->D0.0; Perimeter ;  perimeter
G1 X102.981 Y122.887 E0.12083 D0 ; ->L0.6314681306289237 ->E0.12083 ->D0.0; Perimeter ;  perimeter
G1 X103.263 Y122.887 E0.05398 D0 ; ->L0.2820000000000107 ->E0.05398 ->D0.0; Perimeter ;  perimeter
G1 X103.542 Y121.605 E0.25121 D0 ; ->L1.3120080030243675 ->E0.25121 ->D0.0; Perimeter ;  perimeter
G1 X103.571 Y121.086 E0.09957 D0 ; ->L0.5198095805196413 ->E0.09957 ->D0.0; Perimeter ;  perimeter
G1 X103.538 Y120.462 E0.11966 D0 ; ->L0.6248719868901103 ->E0.11966 ->D0.0; Perimeter ;  perimeter
G1 X103.327 Y119.531 E0.18272 D0 ; ->L0.9546109155043192 ->E0.18272 ->D0.0; Perimeter ;  perimeter
G1 X102.988 Y118.754 E0.1622 D0 ; ->L0.8477322690566879 ->E0.1622 ->D0.0; Perimeter ;  perimeter
G1 X102.645 Y118.215 E0.12226 D0 ; ->L0.6388818357098627 ->E0.12226 ->D0.0; Perimeter ;  perimeter
G1 X102.132 Y117.621 E0.15037 D0 ; ->L0.7848598601024266 ->E0.15037 ->D0.0; Perimeter ;  perimeter
G1 X101.522 Y117.115 E0.15159 D0 ; ->L0.7925503138602619 ->E0.15159 ->D0.0; Perimeter ;  perimeter
G1 X100.836 Y116.718 E0.15168 D0 ; ->L0.7925938430242836 ->E0.15168 ->D0.0; Perimeter ;  perimeter
G1 X100.195 Y116.466 E0.13194 D0 ; ->L0.6887561251996324 ->E0.13194 ->D0.0; Perimeter ;  perimeter
G1 X99.423 Y116.294 E0.15141 D0 ; ->L0.7909285682032137 ->E0.15141 ->D0.0; Perimeter ;  perimeter
G1 X98.633 Y116.253 E0.15142 D0 ; ->L0.7910632085996729 ->E0.15142 ->D0.0; Perimeter ;  perimeter
G1 X97.947 Y116.324 E0.13193 D0 ; ->L0.6896644111450074 ->E0.13193 ->D0.0; Perimeter ;  perimeter
G1 X97.182 Y116.521 E0.15133 D0 ; ->L0.789958226743669 ->E0.15133 ->D0.0; Perimeter ;  perimeter
G1 X96.465 Y116.842 E0.15023 D0 ; ->L0.7855762216360657 ->E0.15023 ->D0.0; Perimeter ;  perimeter
G1 X96.061 Y117.092 E0.09101 D0 ; ->L0.47509577981707757 ->E0.09101 ->D0.0; Perimeter ;  perimeter
G1 X95.794 Y117.288 E0.06331 D0 ; ->L0.33121745123106755 ->E0.06331 ->D0.0; Perimeter ;  perimeter
G1 X95.343 Y117.692 E0.11595 D0 ; ->L0.6054890585303677 ->E0.11595 ->D0.0; Perimeter ;  perimeter
G1 X94.887 Y118.232 E0.13529 D0 ; ->L0.7067786074861134 ->E0.13529 ->D0.0; Perimeter ;  perimeter
G1 X94.731 Y118.477 E0.05562 D0 ; ->L0.29044965140279316 ->E0.05562 ->D0.0; Perimeter ;  perimeter
G1 X94.296 Y119.315 E0.1807 D0 ; ->L0.9441763606445458 ->E0.1807 ->D0.0; Perimeter ;  perimeter
G1 X94.139 Y119.805 E0.09849 D0 ; ->L0.5145376565422712 ->E0.09849 ->D0.0; Perimeter ;  perimeter
G1 X94.01 Y120.447 E0.12534 D0 ; ->L0.6548320395337971 ->E0.12534 ->D0.0; Perimeter ;  perimeter
G1 X93.98 Y121.166 E0.13776 D0 ; ->L0.71962559709893 ->E0.13776 ->D0.0; Perimeter ;  perimeter
G1 X93.165 Y124.207 E0.60272 D0 ; ->L3.148317963611677 ->E0.60272 ->D0.0; Perimeter ;  perimeter
G1 X91.569 Y123.78 E0.31613 D0 ; ->L1.6521334691846192 ->E0.31613 ->D0.0; Perimeter ;  perimeter
G1 X91.361 Y123.678 E0.04436 D0 ; ->L0.23166354913969553 ->E0.04436 ->D0.0; Perimeter ;  perimeter
G1 X91.21 Y123.503 E0.04426 D0 ; ->L0.23114064982170957 ->E0.04426 ->D0.0; Perimeter ;  perimeter
G1 X91.163 Y123.373 E0.02645 D0 ; ->L0.13823530663328576 ->E0.02645 ->D0.0; Perimeter ;  perimeter
G1 X91.182 Y123.108 E0.05085 D0 ; ->L0.2656802589580199 ->E0.05085 ->D0.0; Perimeter ;  perimeter
G1 X92.201 Y119.302 E0.75421 D0 ; ->L3.9400503803885507 ->E0.75421 ->D0.0; Perimeter ;  perimeter
G1 X92.393 Y118.698 E0.12135 D0 ; ->L0.6337822970074337 ->E0.12135 ->D0.0; Perimeter ;  perimeter
G1 X92.495 Y118.44 E0.05311 D0 ; ->L0.2774310725207227 ->E0.05311 ->D0.0; Perimeter ;  perimeter
G1 X92.802 Y117.8 E0.13578 D0 ; ->L0.7098232174281157 ->E0.13578 ->D0.0; Perimeter ;  perimeter
G1 X92.961 Y117.518 E0.06205 D0 ; ->L0.3237360035584479 ->E0.06205 ->D0.0; Perimeter ;  perimeter
G1 X93.141 Y117.002 E0.10467 D0 ; ->L0.5464942817633208 ->E0.10467 ->D0.0; Perimeter ;  perimeter
G1 X93.104 Y116.413 E0.11284 D0 ; ->L0.5901609949835712 ->E0.11284 ->D0.0; Perimeter ;  perimeter
G1 X92.82 Y115.852 E0.12042 D0 ; ->L0.6287901080646827 ->E0.12042 ->D0.0; Perimeter ;  perimeter
G1 X92.313 Y115.444 E0.12463 D0 ; ->L0.6507787642509486 ->E0.12463 ->D0.0; Perimeter ;  perimeter
G1 X91.77 Y115.303 E0.10725 D0 ; ->L0.5610080213330362 ->E0.10725 ->D0.0; Perimeter ;  perimeter
G1 X51.549 Y113.291 E7.70868 D0 ; ->L40.27129231847421 ->E7.70868 ->D0.0; Perimeter ;  perimeter
G1 X51.057 Y113.224 E0.095 D0 ; ->L0.4965410355650341 ->E0.095 ->D0.0; Perimeter ;  perimeter
G1 X50.677 Y113.116 E0.07567 D0 ; ->L0.39504936400404805 ->E0.07567 ->D0.0; Perimeter ;  perimeter
G1 X49.906 Y112.689 E0.16872 D0 ; ->L0.8813455621945384 ->E0.16872 ->D0.0; Perimeter ;  perimeter
G1 X49.439 Y112.24 E0.12398 D0 ; ->L0.647834855499453 ->E0.12398 ->D0.0; Perimeter ;  perimeter
G1 X49.289 Y112.04 E0.04773 D0 ; ->L0.24999999999999006 ->E0.04773 ->D0.0; Perimeter ;  perimeter
G1 X48.953 Y111.388 E0.14047 D0 ; ->L0.7334848328356902 ->E0.14047 ->D0.0; Perimeter ;  perimeter
G1 X48.909 Y111.265 E0.02498 D0 ; ->L0.13063307391316145 ->E0.02498 ->D0.0; Perimeter ;  perimeter
G1 X48.784 Y110.546 E0.13979 D0 ; ->L0.7297848998163715 ->E0.13979 ->D0.0; Perimeter ;  perimeter
G1 X48.773 Y99.964 E2.02556 D0 ; ->L10.58200571725418 ->E2.02556 ->D0.0; Perimeter ;  perimeter
G1 X48.666 Y99.486 E0.09382 D0 ; ->L0.4898295621948476 ->E0.09382 ->D0.0; Perimeter ;  perimeter
G1 X48.546 Y99.256 E0.04955 D0 ; ->L0.2594224354214593 ->E0.04955 ->D0.0; Perimeter ;  perimeter
G1 X48.318 Y98.968 E0.07035 D0 ; ->L0.36732546876033356 ->E0.07035 ->D0.0; Perimeter ;  perimeter
G1 X47.845 Y98.655 E0.10863 D0 ; ->L0.5671842734068008 ->E0.10863 ->D0.0; Perimeter ;  perimeter
G1 X47.321 Y98.551 E0.10214 D0 ; ->L0.5342209280812581 ->E0.10214 ->D0.0; Perimeter ;  perimeter
G1 X40.044 Y98.551 E1.393 D0 ; ->L7.277000000000001 ->E1.393 ->D0.0; Perimeter ;  perimeter
G1 X39.531 Y98.506 E0.0986 D0 ; ->L0.5149699020331171 ->E0.0986 ->D0.0; Perimeter ;  perimeter
G1 X39.145 Y98.412 E0.07604 D0 ; ->L0.39728075714788347 ->E0.07604 ->D0.0; Perimeter ;  perimeter
G1 X38.502 Y98.119 E0.13527 D0 ; ->L0.706610217871214 ->E0.13527 ->D0.0; Perimeter ;  perimeter
G1 X38.277 Y97.963 E0.05251 D0 ; ->L0.27379006556119323 ->E0.05251 ->D0.0; Perimeter ;  perimeter
G1 X37.964 Y97.691 E0.07922 D0 ; ->L0.41467215966350673 ->E0.07922 ->D0.0; Perimeter ;  perimeter
G1 X37.606 Y97.248 E0.109 D0 ; ->L0.5695726468151328 ->E0.109 ->D0.0; Perimeter ;  perimeter
G1 X37.424 Y96.861 E0.08203 D0 ; ->L0.42765991161202044 ->E0.08203 ->D0.0; Perimeter ;  perimeter
G1 X55.903 Y86.551 E4.0504 D0 ; ->L21.160565706048597 ->E4.0504 ->D0.0; Perimeter ;  perimeter
G1 X60.821 Y86.551 E0.94146 D0 ; ->L4.917999999999999 ->E0.94146 ->D0.0; Perimeter ;  perimeter
G1 X61.339 Y86.45 E0.10109 D0 ; ->L0.5277546778570518 ->E0.10109 ->D0.0; Perimeter ;  perimeter
G1 X61.814 Y86.14 E0.10853 D0 ; ->L0.5672080746957 ->E0.10853 ->D0.0; Perimeter ;  perimeter
G1 X62.081 Y85.787 E0.08475 D0 ; ->L0.4426036601746507 ->E0.08475 ->D0.0; Perimeter ;  perimeter
G1 X62.178 Y85.585 E0.04285 D0 ; ->L0.22408257406590965 ->E0.04285 ->D0.0; Perimeter ;  perimeter
G1 X62.273 Y85.1 E0.09457 D0 ; ->L0.4942165517260633 ->E0.09457 ->D0.0; Perimeter ;  perimeter
G1 X62.273 Y76.913 E1.56717 D0 ; ->L8.186999999999998 ->E1.56717 ->D0.0; Perimeter ;  perimeter
G1 X62.303 Y76.511 E0.07716 D0 ; ->L0.4031178487737804 ->E0.07716 ->D0.0; Perimeter ;  perimeter
G1 X62.4 Y76.051 E0.08997 D0 ; ->L0.47011594314593763 ->E0.08997 ->D0.0; Perimeter ;  perimeter
G1 X62.548 Y75.669 E0.07842 D0 ; ->L0.4096681583916485 ->E0.07842 ->D0.0; Perimeter ;  perimeter
G1 X62.81 Y75.225 E0.09858 D0 ; ->L0.5155385533594966 ->E0.09858 ->D0.0; Perimeter ;  perimeter
G1 X63.146 Y74.822 E0.10051 D0 ; ->L0.5246951495868741 ->E0.10051 ->D0.0; Perimeter ;  perimeter
G1 X63.327 Y74.661 E0.04644 D0 ; ->L0.24224367896809917 ->E0.04644 ->D0.0; Perimeter ;  perimeter
G1 X63.715 Y74.389 E0.09064 D0 ; ->L0.4738438561382928 ->E0.09064 ->D0.0; Perimeter ;  perimeter
G1 X64.137 Y74.189 E0.08947 D0 ; ->L0.46699464665025725 ->E0.08947 ->D0.0; Perimeter ;  perimeter
G1 X64.501 Y74.074 E0.07307 D0 ; ->L0.38173420072087066 ->E0.07307 ->D0.0; Perimeter ;  perimeter
G1 X64.967 Y74.004 E0.09014 D0 ; ->L0.47122818251882326 ->E0.09014 ->D0.0; Perimeter ;  perimeter
G1 X65.348 Y74.002 E0.07285 D0 ; ->L0.3810052493076706 ->E0.07285 ->D0.0; Perimeter ;  perimeter
G1 X65.733 Y74.057 E0.0746 D0 ; ->L0.38890872965260714 ->E0.0746 ->D0.0; Perimeter ;  perimeter
G1 X66.184 Y74.18 E0.08938 D0 ; ->L0.46747192429064144 ->E0.08938 ->D0.0; Perimeter ;  perimeter
G1 X66.624 Y74.383 E0.09272 D0 ; ->L0.48457094423829566 ->E0.09272 ->D0.0; Perimeter ;  perimeter
G1 X141.625 Y117.001 E16.51222 D0 ; ->L86.26380425763752 ->E16.51222 ->D0.0; Perimeter ;  perimeter
G1 X142.233 Y117.399 E0.13919 D0 ; ->L0.7266828744369871 ->E0.13919 ->D0.0; Perimeter ;  perimeter
G1 X142.834 Y117.913 E0.15129 D0 ; ->L0.7908204600286936 ->E0.15129 ->D0.0; Perimeter ;  perimeter
G1 X143.196 Y118.303 E0.10195 D0 ; ->L0.5321127700027474 ->E0.10195 ->D0.0; Perimeter ;  perimeter
G1 X143.578 Y118.805 E0.12071 D0 ; ->L0.6308153454062555 ->E0.12071 ->D0.0; Perimeter ;  perimeter
G1 X143.891 Y119.326 E0.11636 D0 ; ->L0.6077910825275232 ->E0.11636 ->D0.0; Perimeter ;  perimeter
G1 X144.074 Y119.7 E0.07965 D0 ; ->L0.4163712285929646 ->E0.07965 ->D0.0; Perimeter ;  perimeter
G1 X144.255 Y120.161 E0.09479 D0 ; ->L0.4952595279244939 ->E0.09479 ->D0.0; Perimeter ;  perimeter
G1 X144.409 Y120.698 E0.10707 D0 ; ->L0.5586456837745999 ->E0.10707 ->D0.0; Perimeter ;  perimeter
G1 X144.54 Y121.463 E0.14857 D0 ; ->L0.7761352974836287 ->E0.14857 ->D0.0; Perimeter ;  perimeter
G1 X144.555 Y122.467 E0.19207 D0 ; ->L1.0041120455407404 ->E0.19207 ->D0.0; Perimeter ;  perimeter
G1 X144.505 Y122.952 E0.09347 D0 ; ->L0.4875705077217044 ->E0.09347 ->D0.0; Perimeter ;  perimeter
G1 X144.54 Y123.487 E0.10264 D0 ; ->L0.536143637470404 ->E0.10264 ->D0.0; Perimeter ;  perimeter
G1 X144.66 Y123.794 E0.06301 D0 ; ->L0.3296194775798336 ->E0.06301 ->D0.0; Perimeter ;  perimeter
G1 X144.859 Y124.091 E0.0684 D0 ; ->L0.35750524471677775 ->E0.0684 ->D0.0; Perimeter ;  perimeter
G1 X145.337 Y124.463 E0.116 D0 ; ->L0.6056962935333029 ->E0.116 ->D0.0; Perimeter ;  perimeter
G1 X145.937 Y124.606 E0.11807 D0 ; ->L0.6168054798719184 ->E0.11807 ->D0.0; Perimeter ;  perimeter
G1 X158.806 Y124.606 E2.46319 D0 ; ->L12.869 ->E2.46319 ->D0.0; Perimeter ;  perimeter
G1 X158.806 Y126.006 E0.26798 D0 ; ->L1.4000000000000057 ->E0.26798 ->D0.0; Perimeter ;  perimeter
G1 X144.671 Y126.006 E2.7056 D0 ; ->L14.13500000000002 ->E2.7056 ->D0.0; Perimeter ;  perimeter
G1 X143.848 Y125.89 E0.15912 D0 ; ->L0.8311347664488385 ->E0.15912 ->D0.0; Perimeter ;  perimeter
G1 X143.168 Y125.602 E0.14122 D0 ; ->L0.7384741024572272 ->E0.14122 ->D0.0; Perimeter ;  perimeter
G1 X142.649 Y125.211 E0.12444 D0 ; ->L0.6498015081546132 ->E0.12444 ->D0.0; Perimeter ;  perimeter
G1 X141.635 Y124.204 E0.27352 D0 ; ->L1.4290713768038428 ->E0.27352 ->D0.0; Perimeter ;  perimeter
G1 X141.812 Y123.982 E0.05443 D0 ; ->L0.2839242856819487 ->E0.05443 ->D0.0; Perimeter ;  perimeter
G1 X141.922 Y123.796 E0.04134 D0 ; ->L0.21609257275527563 ->E0.04134 ->D0.0; Perimeter ;  perimeter
G1 X142.024 Y123.569 E0.04758 D0 ; ->L0.24886341635524203 ->E0.04758 ->D0.0; Perimeter ;  perimeter
G1 X142.308 Y123.569 E0.05432 D0 ; ->L0.2839999999999918 ->E0.05432 ->D0.0; Perimeter ;  perimeter
G1 X142.518 Y122.674 E0.17598 D0 ; ->L0.9193068040648869 ->E0.17598 ->D0.0; Perimeter ;  perimeter
G1 X142.573 Y121.968 E0.13552 D0 ; ->L0.7081391106272871 ->E0.13552 ->D0.0; Perimeter ;  perimeter
G1 X142.517 Y121.405 E0.10841 D0 ; ->L0.5657782251023841 ->E0.10841 ->D0.0; Perimeter ;  perimeter
G1 X142.33 Y120.717 E0.13643 D0 ; ->L0.7129607282312238 ->E0.13643 ->D0.0; Perimeter ;  perimeter
G1 X142.119 Y120.249 E0.09822 D0 ; ->L0.5133663409301478 ->E0.09822 ->D0.0; Perimeter ;  perimeter
G1 X141.617 Y119.532 E0.16763 D0 ; ->L0.8752673877164668 ->E0.16763 ->D0.0; Perimeter ;  perimeter
G1 X141.194 Y119.121 E0.11274 D0 ; ->L0.5897880975401273 ->E0.11274 ->D0.0; Perimeter ;  perimeter
G1 X140.618 Y118.729 E0.1335 D0 ; ->L0.6967352438336883 ->E0.1335 ->D0.0; Perimeter ;  perimeter
G1 X140.078 Y118.483 E0.11354 D0 ; ->L0.5933936298950209 ->E0.11354 ->D0.0; Perimeter ;  perimeter
G1 X139.414 Y118.304 E0.13169 D0 ; ->L0.6877041515070428 ->E0.13169 ->D0.0; Perimeter ;  perimeter
G1 X138.824 Y118.253 E0.11329 D0 ; ->L0.5922001350894566 ->E0.11329 ->D0.0; Perimeter ;  perimeter
G1 X138.135 Y118.303 E0.13238 D0 ; ->L0.6908118412419036 ->E0.13238 ->D0.0; Perimeter ;  perimeter
G1 X137.467 Y118.483 E0.13236 D0 ; ->L0.6918265678621868 ->E0.13236 ->D0.0; Perimeter ;  perimeter
G1 X136.927 Y118.729 E0.11354 D0 ; ->L0.5933936298950467 ->E0.11354 ->D0.0; Perimeter ;  perimeter
G1 X136.351 Y119.121 E0.1335 D0 ; ->L0.6967352438336883 ->E0.1335 ->D0.0; Perimeter ;  perimeter
G1 X135.929 Y119.532 E0.11274 D0 ; ->L0.5890713029846205 ->E0.11274 ->D0.0; Perimeter ;  perimeter
G1 X135.426 Y120.249 E0.16763 D0 ; ->L0.875841309827307 ->E0.16763 ->D0.0; Perimeter ;  perimeter
G1 X135.215 Y120.717 E0.09821 D0 ; ->L0.5133663409301361 ->E0.09821 ->D0.0; Perimeter ;  perimeter
G1 X135.028 Y121.405 E0.13643 D0 ; ->L0.7129607282312314 ->E0.13643 ->D0.0; Perimeter ;  perimeter
G1 X134.973 Y121.964 E0.10762 D0 ; ->L0.5616992077615873 ->E0.10762 ->D0.0; Perimeter ;  perimeter
G1 X135.01 Y122.573 E0.11676 D0 ; ->L0.6101229384312573 ->E0.11676 ->D0.0; Perimeter ;  perimeter
G1 X135.233 Y123.569 E0.19539 D0 ; ->L1.0206591007775438 ->E0.19539 ->D0.0; Perimeter ;  perimeter
G1 X135.52 Y123.569 E0.05489 D0 ; ->L0.28700000000000614 ->E0.05489 ->D0.0; Perimeter ;  perimeter
G1 X135.729 Y123.977 E0.08764 D0 ; ->L0.4584157501657228 ->E0.08764 ->D0.0; Perimeter ;  perimeter
G1 X135.911 Y124.206 E0.05604 D0 ; ->L0.29251495688254175 ->E0.05604 ->D0.0; Perimeter ;  perimeter
G1 X134.777 Y125.34 E0.307 D0 ; ->L1.6037181797311004 ->E0.307 ->D0.0; Perimeter ;  perimeter
G1 X134.559 Y125.479 E0.04947 D0 ; ->L0.2585440001237588 ->E0.04947 ->D0.0; Perimeter ;  perimeter
G1 X134.326 Y125.507 E0.04496 D0 ; ->L0.23467637290533155 ->E0.04496 ->D0.0; Perimeter ;  perimeter
G1 X134.132 Y125.441 E0.0393 D0 ; ->L0.20491949638820567 ->E0.0393 ->D0.0; Perimeter ;  perimeter
G1 X133.95 Y125.269 E0.04799 D0 ; ->L0.2504156544627451 ->E0.04799 ->D0.0; Perimeter ;  perimeter
G1 X133.71 Y124.876 E0.08805 D0 ; ->L0.46048778485426867 ->E0.08805 ->D0.0; Perimeter ;  perimeter
G1 X133.462 Y124.381 E0.10601 D0 ; ->L0.5536506118483153 ->E0.10601 ->D0.0; Perimeter ;  perimeter
G1 X133.283 Y123.92 E0.09452 D0 ; ->L0.4945321020924722 ->E0.09452 ->D0.0; Perimeter ;  perimeter
G1 X133.149 Y123.465 E0.09086 D0 ; ->L0.4743216208439109 ->E0.09086 ->D0.0; Perimeter ;  perimeter
G1 X133.046 Y122.964 E0.09786 D0 ; ->L0.5114782497819498 ->E0.09786 ->D0.0; Perimeter ;  perimeter
G1 X132.986 Y122.41 E0.10672 D0 ; ->L0.5572396252959785 ->E0.10672 ->D0.0; Perimeter ;  perimeter
G1 X132.991 Y121.619 E0.15144 D0 ; ->L0.7910158026234339 ->E0.15144 ->D0.0; Perimeter ;  perimeter
G1 X133.08 Y120.943 E0.1304 D0 ; ->L0.681833557402393 ->E0.1304 ->D0.0; Perimeter ;  perimeter
G1 X133.276 Y120.202 E0.14677 D0 ; ->L0.7664835288510763 ->E0.14677 ->D0.0; Perimeter ;  perimeter
G1 X133.598 Y119.424 E0.16115 D0 ; ->L0.842002375293555 ->E0.16115 ->D0.0; Perimeter ;  perimeter
G1 X133.732 Y118.925 E0.09898 D0 ; ->L0.5166788170614368 ->E0.09898 ->D0.0; Perimeter ;  perimeter
G1 X133.659 Y118.345 E0.11186 D0 ; ->L0.5845759146595069 ->E0.11186 ->D0.0; Perimeter ;  perimeter
G1 X133.368 Y117.835 E0.11233 D0 ; ->L0.5871805514490439 ->E0.11233 ->D0.0; Perimeter ;  perimeter
G1 X132.873 Y117.455 E0.11946 D0 ; ->L0.6240392615853597 ->E0.11946 ->D0.0; Perimeter ;  perimeter
G1 X132.35 Y117.324 E0.10313 D0 ; ->L0.5391567490071844 ->E0.10313 ->D0.0; Perimeter ;  perimeter
G1 X106.338 Y116.023 E4.98533 D0 ; ->L26.044514681598503 ->E4.98533 ->D0.0; Perimeter ;  perimeter
G1 X106.169 Y116.029 E0.03249 D0 ; ->L0.16910647533432588 ->E0.03249 ->D0.0; Perimeter ;  perimeter
G1 X105.751 Y116.112 E0.0816 D0 ; ->L0.4261607677860471 ->E0.0816 ->D0.0; Perimeter ;  perimeter
G1 X105.241 Y116.431 E0.11503 D0 ; ->L0.6015488342603673 ->E0.11503 ->D0.0; Perimeter ;  perimeter
G1 X104.947 Y116.87 E0.10114 D0 ; ->L0.5283531016280727 ->E0.10114 ->D0.0; Perimeter ;  perimeter
G1 X103.601 Y116.251 F12000 ; ->1.0925538888311148  ;  move to first infill point
G1 X101.271 Y113.921 E0.65226 D0 F840 ; ->L3.295117600329309 ->E0.65226 ->D0.0; Fill ;  infill
G1 X102.744 Y113.994 E0.29189 D0 ; ->L1.4748077840857756 ->E0.29189 ->D0.0; Fill ;  infill
G1 X104.163 Y115.413 E0.39723 D0 ; ->L2.0067690450074176 ->E0.39723 ->D0.0; Fill ;  infill
G1 X104.217 Y114.068 E0.26655 D0 ; ->L1.3460835783858285 ->E0.26655 ->D0.0; Fill ;  infill
G1 X104.665 Y114.516 E0.12561 D0 ; ->L0.6335676759431572 ->E0.12561 ->D0.0; Fill ;  infill
G1 X100.971 Y115.021 F12000 ; ->3.7283590224118726  ;  move to first infill point
G1 X99.798 Y113.847 E0.32844 D0 F840 ; ->L1.6595797660853844 ->E0.32844 ->D0.0; Fill ;  infill
G1 X99.283 Y114.733 E0.20263 D0 ; ->L1.0248029078803487 ->E0.20263 ->D0.0; Fill ;  infill
G1 X98.325 Y113.774 E0.26837 D0 ; ->L1.3555238839651638 ->E0.26837 ->D0.0; Fill ;  infill
G1 X97.946 Y114.794 E0.21546 D0 ; ->L1.0881364804104288 ->E0.21546 ->D0.0; Fill ;  infill
G1 X96.852 Y113.7 E0.30621 D0 ; ->L1.5471496372361577 ->E0.30621 ->D0.0; Fill ;  infill
G1 X96.82 Y115.069 E0.27086 D0 ; ->L1.3693739445454627 ->E0.27086 ->D0.0; Fill ;  infill
G1 X95.379 Y113.627 E0.40352 D0 ; ->L2.03858897279466 ->E0.40352 ->D0.0; Fill ;  infill
G1 X93.906 Y113.553 E0.29189 D0 ; ->L1.4748576202467807 ->E0.29189 ->D0.0; Fill ;  infill
G1 X95.852 Y115.499 E0.54463 D0 ; ->L2.75205959237804 ->E0.54463 ->D0.0; Fill ;  infill
G1 X95.007 Y116.054 E0.2 D0 ; ->L1.010964885641438 ->E0.2 ->D0.0; Fill ;  infill
G1 X94.541 Y115.589 E0.13037 D0 ; ->L0.6583167930411701 ->E0.13037 ->D0.0; Fill ;  infill
G1 X92.98 Y113.756 F12000 ; ->2.40761500244536  ;  move to first infill point
G1 X92.002 Y113.61 E0.09042 D0 F840 ; ->L0.9888377015466274 ->E0.09042 ->D0.0; Fill ;  infill
G1 X55.337 Y111.778 E3.35586 D0 ; ->L36.710740240425544 ->E3.35586 ->D0.0; Fill ;  infill
G1 X54.739 Y111.724 E0.05496 D0 ; ->L0.6004331769647705 ->E0.05496 ->D0.0; Fill ;  infill
G1 X53.838 Y111.589 E0.08326 D0 ; ->L0.9110576271564794 ->E0.08326 ->D0.0; Fill ;  infill
G1 X51.235 Y111.528 F12000 ; ->2.6037146541047864  ;  move to first infill point
G1 X50.521 Y110.814 E0.33312 D0 F840 ; ->L1.009748483534398 ->E0.33312 ->D0.0; Fill ;  infill
G1 X50.79 Y108.75 E0.68692 D0 ; ->L2.081455500365062 ->E0.68692 ->D0.0; Fill ;  infill
G1 X51.26 Y109.22 E0.21934 D0 ; ->L0.6646803743153531 ->E0.21934 ->D0.0; Fill ;  infill
G1 X50.579 Y108.194 F12000 ; ->1.231436965500057  ;  move to first infill point
G1 X50.473 Y106.732 E0.13403 D0 F840 ; ->L1.4658376444886418 ->E0.13403 ->D0.0; Fill ;  infill
G1 X50.473 Y99.806 E0.63317 D0 ; ->L6.926000000000002 ->E0.63317 ->D0.0; Fill ;  infill
G1 X50.372 Y98.866 E0.08641 D0 ; ->L0.9454104928548209 ->E0.08641 ->D0.0; Fill ;  infill
G1 X50.631 Y97.863 F12000 ; ->1.0359005743796073  ;  move to first infill point
G1 X46.337 Y93.569 E1.19945 D0 F840 ; ->L6.072633036830066 ->E1.19945 ->D0.0; Fill ;  infill
G1 X47.234 Y93.069 E0.20274 D0 ; ->L1.0269415757481033 ->E0.20274 ->D0.0; Fill ;  infill
G1 X50.631 Y96.466 E0.94906 D0 ; ->L4.804083471381397 ->E0.94906 ->D0.0; Fill ;  infill
G1 X50.631 Y95.07 E0.27583 D0 ; ->L1.3960000000000008 ->E0.27583 ->D0.0; Fill ;  infill
G1 X48.13 Y92.568 E0.69867 D0 ; ->L3.537655296944569 ->E0.69867 ->D0.0; Fill ;  infill
G1 X49.027 Y92.068 E0.20274 D0 ; ->L1.0269415757481033 ->E0.20274 ->D0.0; Fill ;  infill
G1 X50.725 Y93.767 E0.47432 D0 ; ->L2.4020418397688235 ->E0.47432 ->D0.0; Fill ;  infill
G1 X51.068 Y92.713 E0.21883 D0 ; ->L1.1084065138747614 ->E0.21883 ->D0.0; Fill ;  infill
G1 X49.923 Y91.568 E0.31974 D0 ; ->L1.6192745289171881 ->E0.31974 ->D0.0; Fill ;  infill
G1 X50.819 Y91.068 E0.20274 D0 ; ->L1.0260682238525864 ->E0.20274 ->D0.0; Fill ;  infill
G1 X51.325 Y91.574 E0.14125 D0 ; ->L0.7155920625607863 ->E0.14125 ->D0.0; Fill ;  infill
G1 X48.551 Y97.179 F12000 ; ->6.253886871378475  ;  move to first infill point
G1 X45.441 Y94.069 E0.86873 D0 F840 ; ->L4.398204178980325 ->E0.86873 ->D0.0; Fill ;  infill
G1 X44.544 Y94.569 E0.20274 D0 ; ->L1.0269415757481093 ->E0.20274 ->D0.0; Fill ;  infill
G1 X46.986 Y97.01 E0.68187 D0 ; ->L3.452802484938867 ->E0.68187 ->D0.0; Fill ;  infill
G1 X45.589 Y97.01 E0.27583 D0 ; ->L1.3969999999999985 ->E0.27583 ->D0.0; Fill ;  infill
G1 X43.648 Y95.069 E0.54218 D0 ; ->L2.744988524566176 ->E0.54218 ->D0.0; Fill ;  infill
G1 X42.751 Y95.569 E0.20274 D0 ; ->L1.0269415757481093 ->E0.20274 ->D0.0; Fill ;  infill
G1 X44.192 Y97.01 E0.40249 D0 ; ->L2.0378817433796335 ->E0.40249 ->D0.0; Fill ;  infill
G1 X42.796 Y97.01 E0.27583 D0 ; ->L1.3960000000000008 ->E0.27583 ->D0.0; Fill ;  infill
G1 X41.855 Y96.069 E0.2628 D0 ; ->L1.330774962193086 ->E0.2628 ->D0.0; Fill ;  infill
G1 X40.973 Y96.584 E0.20166 D0 ; ->L1.0213466600523042 ->E0.20166 ->D0.0; Fill ;  infill
G1 X41.399 Y97.01 E0.119 D0 ; ->L0.6024549775709412 ->E0.119 ->D0.0; Fill ;  infill
G1 X51.778 Y90.936 F12000 ; ->12.02568571849439  ;  move to first infill point
G1 X52.456 Y90.453 E0.07606 D0 F840 ; ->L0.8324499984984142 ->E0.07606 ->D0.0; Fill ;  infill
G1 X53.075 Y90.076 E0.06624 D0 ; ->L0.7247689286938334 ->E0.06624 ->D0.0; Fill ;  infill
G1 X55.271 Y88.85 E0.22995 D0 ; ->L2.5150530809507754 ->E0.22995 ->D0.0; Fill ;  infill
G1 X56.366 Y88.334 E0.11065 D0 ; ->L1.210487918155315 ->E0.11065 ->D0.0; Fill ;  infill
G1 X56.98 Y88.277 E0.05631 D0 ; ->L0.6166400895173755 ->E0.05631 ->D0.0; Fill ;  infill
G1 X57.602 Y88.252 E0.05696 D0 ; ->L0.6225022088314226 ->E0.05696 ->D0.0; Fill ;  infill
G1 X61.009 Y88.239 E0.31148 D0 ; ->L3.4070248017882148 ->E0.31148 ->D0.0; Fill ;  infill
G1 X61.598 Y88.135 E0.05466 D0 ; ->L0.5981111936755558 ->E0.05466 ->D0.0; Fill ;  infill
G1 X61.961 Y88.041 E0.03424 D0 ; ->L0.3749733323851194 ->E0.03424 ->D0.0; Fill ;  infill
G1 X62.368 Y87.814 E0.04258 D0 ; ->L0.46602360455239245 ->E0.04258 ->D0.0; Fill ;  infill
G1 X62.716 Y87.584 E0.03816 D0 ; ->L0.4171378668977375 ->E0.03816 ->D0.0; Fill ;  infill
G1 X62.943 Y87.411 E0.0261 D0 ; ->L0.28540847920130047 ->E0.0261 ->D0.0; Fill ;  infill
G1 X63.056 Y87.301 E0.01438 D0 ; ->L0.15769908052997575 ->E0.01438 ->D0.0; Fill ;  infill
G1 X63.517 Y86.691 E0.06987 D0 ; ->L0.7646051268465341 ->E0.06987 ->D0.0; Fill ;  infill
G1 X63.765 Y86.191 E0.05107 D0 ; ->L0.5581254339304014 ->E0.05107 ->D0.0; Fill ;  infill
G1 X63.848 Y85.91 E0.0268 D0 ; ->L0.29300170647967744 ->E0.0268 ->D0.0; Fill ;  infill
G1 X63.966 Y85.239 E0.0623 D0 ; ->L0.6812965580420836 ->E0.0623 ->D0.0; Fill ;  infill
G1 X63.973 Y83.694 E0.14125 D0 ; ->L1.5450158575238009 ->E0.14125 ->D0.0; Fill ;  infill
G1 X63.994 Y83.118 E0.05269 D0 ; ->L0.5763826853749242 ->E0.05269 ->D0.0; Fill ;  infill
G1 X64.101 Y82.147 E0.08925 D0 ; ->L0.9768776791389899 ->E0.08925 ->D0.0; Fill ;  infill
G1 X64.262 Y81.554 F12000 ; ->0.6144672489238174  ;  move to first infill point
G1 X63.814 Y81.105 E0.13135 D0 F840 ; ->L0.6342751768751467 ->E0.13135 ->D0.0; Fill ;  infill
G1 X63.814 Y79.641 E0.303 D0 ; ->L1.4639999999999986 ->E0.303 ->D0.0; Fill ;  infill
G1 X65.116 Y80.943 E0.38113 D0 ; ->L1.8413060582097642 ->E0.38113 ->D0.0; Fill ;  infill
G1 X65.791 Y80.155 E0.21488 D0 ; ->L1.0375784307704121 ->E0.21488 ->D0.0; Fill ;  infill
G1 X63.814 Y78.178 E0.57896 D0 ; ->L2.7959002128116093 ->E0.57896 ->D0.0; Fill ;  infill
G1 X63.818 Y76.718 E0.30213 D0 ; ->L1.4600054794417663 ->E0.30213 ->D0.0; Fill ;  infill
G1 X66.615 Y79.515 E0.81869 D0 ; ->L3.9555553339575424 ->E0.81869 ->D0.0; Fill ;  infill
G1 X67.595 Y79.032 E0.22631 D0 ; ->L1.0925607534595099 ->E0.22631 ->D0.0; Fill ;  infill
G1 X64.319 Y75.756 E0.95904 D0 ; ->L4.632963630334254 ->E0.95904 ->D0.0; Fill ;  infill
G1 X65.94 Y75.913 E0.3371 D0 ; ->L1.62858527563035 ->E0.3371 ->D0.0; Fill ;  infill
G1 X68.796 Y78.769 E0.83613 D0 ; ->L4.038993934137572 ->E0.83613 ->D0.0; Fill ;  infill
G1 X69.33 Y77.839 E0.22195 D0 ; ->L1.0724066392931386 ->E0.22195 ->D0.0; Fill ;  infill
G1 X69.805 Y78.314 E0.13896 D0 ; ->L0.6717514421272222 ->E0.13896 ->D0.0; Fill ;  infill
G1 X70.27 Y78.558 F12000 ; ->0.5251295078359212  ;  move to first infill point
G1 X70.917 Y78.823 E0.06389 D0 F840 ; ->L0.6991666468017478 ->E0.06389 ->D0.0; Fill ;  infill
G1 X71.662 Y79.201 E0.07636 D0 ; ->L0.8354094804345992 ->E0.07636 ->D0.0; Fill ;  infill
G1 X105.156 Y98.234 E3.52171 D0 ; ->L38.5242700710186 ->E3.521710023841858 ->D0.0 ; retract trigger
G1 X114.667 Y103.638 B0 ; ->L10.939080350766499  ; ->E0.9999999701976776  ; retract trigger Normal close
G1 X117.208 Y105.082 ; ->2.9223754680028446  ; Wipe
G1 X118.408 Y105.901 ; ->1.4528458280216836  ; Wipe
M109
G1 X115.852 Y114.677 F12000 ; ->9.140640677764342  ;  move to first infill point
G1 B1.0 E1.4 F400 ; Open and replenish from extrusion
G1 X114.4 Y114.724 E0.13284 D0 F840 ; ->L1.452760475783945 ->E0.13284 ->D0.0; Fill ;  infill
G1 X106.362 Y114.323 E0.73576 D0 ; ->L8.047996334492218 ->E0.73576 ->D0.0; Fill ;  infill
G1 X105.947 Y114.321 E0.0379 D0 ; ->L0.4150048192491183 ->E0.0379 ->D0.0; Fill ;  infill
G1 X105.256 Y114.372 E0.06336 D0 ; ->L0.6928794989029504 ->E0.06336 ->D0.0; Fill ;  infill
G1 X116.887 Y114.997 F12000 ; ->11.647780303559987  ;  move to first infill point
G1 X116.439 Y114.55 E0.13024 D0 F840 ; ->L0.6328609641935653 ->E0.13024 ->D0.0; Fill ;  infill
G1 X117.09 Y113.746 E0.21263 D0 ; ->L1.0345129288704018 ->E0.21263 ->D0.0; Fill ;  infill
G1 X118.418 Y115.074 E0.38632 D0 ; ->L1.8780756108314745 ->E0.38632 ->D0.0; Fill ;  infill
G1 X119.949 Y115.151 E0.31518 D0 ; ->L1.5329350932117034 ->E0.31518 ->D0.0; Fill ;  infill
G1 X117.905 Y113.107 E0.59427 D0 ; ->L2.890652521490602 ->E0.59427 ->D0.0; Fill ;  infill
G1 X118.593 Y112.341 E0.21175 D0 ; ->L1.029611577246493 ->E0.21175 ->D0.0; Fill ;  infill
G1 X121.479 Y115.227 E0.83929 D0 ; ->L4.081420341008756 ->E0.83929 ->D0.0; Fill ;  infill
G1 X123.01 Y115.304 E0.31518 D0 ; ->L1.5329350932117176 ->E0.31518 ->D0.0; Fill ;  infill
G1 X119.1 Y111.394 E1.13714 D0 ; ->L5.529575028878806 ->E1.13714 ->D0.0; Fill ;  infill
G1 X119.428 Y110.267 E0.24128 D0 ; ->L1.1737601969738212 ->E0.24128 ->D0.0; Fill ;  infill
G1 X124.541 Y115.38 E1.48708 D0 ; ->L7.230873944413634 ->E1.48708 ->D0.0; Fill ;  infill
G1 X126.072 Y115.457 E0.31518 D0 ; ->L1.5329350932117176 ->E0.31518 ->D0.0; Fill ;  infill
G1 X119.527 Y108.912 E1.90334 D0 ; ->L9.256027765731899 ->E1.90334 ->D0.0; Fill ;  infill
G1 X120.358 Y106.835 F12000 ; ->2.237071746726076  ;  move to first infill point
G1 X129.133 Y115.61 E2.55211 D0 F840 ; ->L12.409724009823917 ->E2.55211 ->D0.0; Fill ;  infill
G1 X127.602 Y115.533 E0.31518 D0 ; ->L1.5329350932117176 ->E0.31518 ->D0.0; Fill ;  infill
G1 X118.826 Y106.757 E2.55235 D0 ; ->L12.411138223386288 ->E2.55235 ->D0.0; Fill ;  infill
G1 X123.725 Y108.748 F12000 ; ->5.288126511345961  ;  move to first infill point
G1 X130.664 Y115.687 E2.01782 D0 F840 ; ->L9.813227909306896 ->E2.01782 ->D0.0; Fill ;  infill
G1 X132.194 Y115.763 F12000 ; ->1.5318864187660928  ;  move to first infill point
G1 X127.093 Y110.662 E1.48353 D0 F840 ; ->L7.213903381665147 ->E1.48353 ->D0.0; Fill ;  infill
G1 X130.461 Y112.576 F12000 ; ->3.873863704365451  ;  move to first infill point
G1 X134.232 Y116.346 E1.09658 D0 F840 ; ->L5.3322922838119045 ->E1.09658 ->D0.0; Fill ;  infill
G1 X133.829 Y114.49 E0.39072 D0 ; ->L1.8992485356056026 ->E0.39072 ->D0.0; Fill ;  infill
G1 X133.953 Y114.614 E0.036 D0 ; ->L0.17505173207956787 ->E0.03600002384185785 ->D0.0 ; closing nozzle after forced nozzle select on layer 0
G1 X136.597 Y117.258 B0.231 ; ->L3.73949140856916  ; ->E0.7690399761581421  ; closing nozzle after forced nozzle select on layer 0 Normal close
G1 X137.197 Y116.403 B0.016 ; ->L1.0445214215132095  ; ->E0.21467  ;  infill Normal close
G1 X137.253 Y116.459 B0 ; ->L0.07924059834219795  ; ->E0.016289994039535516  ; closing nozzle after forced nozzle select on layer 0 Normal close
G1 X137.656 Y116.863 ; ->0.5705909182834558  ; Wipe
G1 X135.689 Y117.803 F12000 ; ->2.1800662833959996  ;  move to first infill point
G1 X134.717 Y116.831 F840 ; ->1.3746155826266302  ; Wipe
M109
M104 ; take post layer 1 nozzle temperature from loaded reel - don't wait
M140 ; take post layer 1 bed temperature from loaded reel - don't wait
G1 Z0.45 F12000 ;  move to next layer (1)
G1 X105.103 Y112.505 F12000 ; ->29.928302190401666  ;  move to first perimeter point
T0 ; return to required nozzle
G1 B1.0 E1.4 F400 ; Open and replenish from extrusion
G1 X55.475 Y110.029 E4.3025 D0 F2400 ; ->L49.68972690607183 ->E4.3025 ->D0.0; Perimeter ;  perimeter
G1 X54.929 Y109.939 E0.04787 D0 ; ->L0.5533678704081038 ->E0.04787 ->D0.0; Perimeter ;  perimeter
G1 X54.467 Y109.821 E0.0413 D0 ; ->L0.47683120703242765 ->E0.0413 ->D0.0; Perimeter ;  perimeter
G1 X53.573 Y109.325 E0.08854 D0 ; ->L1.0223756648121043 ->E0.08854 ->D0.0; Perimeter ;  perimeter
G1 X53.222 Y108.996 E0.04167 D0 ; ->L0.4810841922158786 ->E0.04167 ->D0.0; Perimeter ;  perimeter
G1 X52.839 Y108.556 E0.05052 D0 ; ->L0.5833429523016457 ->E0.05052 ->D0.0; Perimeter ;  perimeter
G1 X52.478 Y107.862 E0.0677 D0 ; ->L0.7822768052294543 ->E0.0677 ->D0.0; Perimeter ;  perimeter
G1 X52.381 Y107.615 E0.02296 D0 ; ->L0.26536390108679103 ->E0.02296 ->D0.0; Perimeter ;  perimeter
G1 X52.328 Y107.361 E0.02247 D0 ; ->L0.25947061490657275 ->E0.02247 ->D0.0; Perimeter ;  perimeter
G1 X52.226 Y106.619 E0.06487 D0 ; ->L0.748977970303538 ->E0.06487 ->D0.0; Perimeter ;  perimeter
G1 X52.226 Y94.558 E1.04435 D0 ; ->L12.060999999999993 ->E1.04435 ->D0.0; Perimeter ;  perimeter
G1 X52.295 Y93.889 E0.05825 D0 ; ->L0.6725488829817616 ->E0.05825 ->D0.0; Perimeter ;  perimeter
G1 X52.44 Y93.38 E0.04577 D0 ; ->L0.5292504133205748 ->E0.04577 ->D0.0; Perimeter ;  perimeter
G1 X52.748 Y92.757 E0.06019 D0 ; ->L0.6949769780359548 ->E0.06019 ->D0.0; Perimeter ;  perimeter
G1 X53.053 Y92.341 E0.04466 D0 ; ->L0.5158303984838515 ->E0.04466 ->D0.0; Perimeter ;  perimeter
G1 X53.302 Y92.085 E0.0309 D0 ; ->L0.3571232280320076 ->E0.0309 ->D0.0; Perimeter ;  perimeter
G1 X53.543 Y91.87 E0.02799 D0 ; ->L0.32296439432233887 ->E0.02799 ->D0.0; Perimeter ;  perimeter
G1 X53.978 Y91.58 E0.04525 D0 ; ->L0.5228049349422837 ->E0.04525 ->D0.0; Perimeter ;  perimeter
G1 X56.043 Y90.428 E0.20476 D0 ; ->L2.364599120358458 ->E0.20476 ->D0.0; Perimeter ;  perimeter
G1 X56.822 Y90.115 E0.0727 D0 ; ->L0.839529630209683 ->E0.0727 ->D0.0; Perimeter ;  perimeter
G1 X57.35 Y90.03 E0.04629 D0 ; ->L0.5347980927415482 ->E0.04629 ->D0.0; Perimeter ;  perimeter
G1 X57.68 Y90.005 E0.02866 D0 ; ->L0.33094561486745694 ->E0.02866 ->D0.0; Perimeter ;  perimeter
G1 X60.758 Y90.005 E0.26649 D0 ; ->L3.078000000000003 ->E0.26649 ->D0.0; Perimeter ;  perimeter
G1 X61.425 Y89.96 E0.05788 D0 ; ->L0.6685162675657136 ->E0.05788 ->D0.0; Perimeter ;  perimeter
G1 X62.054 Y89.835 E0.05558 D0 ; ->L0.6413002416965131 ->E0.05558 ->D0.0; Perimeter ;  perimeter
G1 X62.668 Y89.626 E0.0561 D0 ; ->L0.6485961763686184 ->E0.0561 ->D0.0; Perimeter ;  perimeter
G1 X63.249 Y89.34 E0.05609 D0 ; ->L0.6475777945544491 ->E0.05609 ->D0.0; Perimeter ;  perimeter
G1 X63.787 Y88.98 E0.05609 D0 ; ->L0.6473360796371511 ->E0.05609 ->D0.0; Perimeter ;  perimeter
G1 X64.278 Y88.551 E0.05642 D0 ; ->L0.6520138035348703 ->E0.05642 ->D0.0; Perimeter ;  perimeter
G1 X64.585 Y88.212 E0.03962 D0 ; ->L0.4573510686551325 ->E0.03962 ->D0.0; Perimeter ;  perimeter
G1 X65.062 Y87.526 E0.0723 D0 ; ->L0.8355387483534282 ->E0.0723 ->D0.0; Perimeter ;  perimeter
G1 X65.399 Y86.818 E0.06794 D0 ; ->L0.7841128745276409 ->E0.06794 ->D0.0; Perimeter ;  perimeter
G1 X65.555 Y86.339 E0.04363 D0 ; ->L0.5037628410274035 ->E0.04363 ->D0.0; Perimeter ;  perimeter
G1 X65.691 Y85.603 E0.06476 D0 ; ->L0.7484597517569032 ->E0.06476 ->D0.0; Perimeter ;  perimeter
G1 X65.726 Y85.037 E0.0491 D0 ; ->L0.5670811229444924 ->E0.0491 ->D0.0; Perimeter ;  perimeter
G1 X65.726 Y83.742 E0.11212 D0 ; ->L1.2950000000000017 ->E0.11212 ->D0.0; Perimeter ;  perimeter
G1 X65.787 Y83.201 E0.0472 D0 ; ->L0.5444281403454572 ->E0.0472 ->D0.0; Perimeter ;  perimeter
G1 X65.932 Y82.582 E0.05502 D0 ; ->L0.6357562425961687 ->E0.05502 ->D0.0; Perimeter ;  perimeter
G1 X66.124 Y82.241 E0.03388 D0 ; ->L0.39133745029065803 ->E0.03388 ->D0.0; Perimeter ;  perimeter
G1 X66.199 Y82.061 E0.01688 D0 ; ->L0.1949999999999943 ->E0.01688 ->D0.0; Perimeter ;  perimeter
G1 X66.521 Y81.562 E0.05143 D0 ; ->L0.5938728820210696 ->E0.05143 ->D0.0; Perimeter ;  perimeter
G1 X66.955 Y81.127 E0.05318 D0 ; ->L0.6144761997018272 ->E0.05318 ->D0.0; Perimeter ;  perimeter
G1 X67.443 Y80.784 E0.05162 D0 ; ->L0.5964838639896239 ->E0.05162 ->D0.0; Perimeter ;  perimeter
G1 X68.089 Y80.498 E0.0612 D0 ; ->L0.7064785913246076 ->E0.0612 ->D0.0; Perimeter ;  perimeter
G1 X68.56 Y80.375 E0.04214 D0 ; ->L0.4867956450092837 ->E0.04214 ->D0.0; Perimeter ;  perimeter
G1 X68.784 Y80.354 E0.01947 D0 ; ->L0.22498222151983857 ->E0.01947 ->D0.0; Perimeter ;  perimeter
G1 X69.155 Y80.319 E0.03227 D0 F2400 ; ->L0.37264728631776745 ->E0.03227 ->D0.0; Perimeter ;  perimeter
G1 X69.75 Y80.369 E0.05174 D0 ; ->L0.597097144525075 ->E0.05174 ->D0.0; Perimeter ;  perimeter
G1 X70.229 Y80.489 E0.04277 D0 ; ->L0.4938025921357646 ->E0.04277 ->D0.0; Perimeter ;  perimeter
G1 X70.854 Y80.759 E0.05895 D0 ; ->L0.6808267033540899 ->E0.05895 ->D0.0; Perimeter ;  perimeter
G1 X116.233 Y106.545 E4.51925 D0 ; ->L52.19359574698797 ->E4.51925 ->D0.0; Perimeter ;  perimeter
G1 X117.077 Y107.233 E0.09429 D0 ; ->L1.0888893424035306 ->E0.09429 ->D0.0; Perimeter ;  perimeter
G1 X117.221 Y107.424 E0.02075 D0 ; ->L0.2392007525071828 ->E0.02075 ->D0.0; Perimeter ;  perimeter
G1 X117.686 Y108.21 E0.07905 D0 ; ->L0.9132475020496815 ->E0.07905 ->D0.0; Perimeter ;  perimeter
G1 X117.799 Y108.554 E0.03134 D0 ; ->L0.36208424434101744 ->E0.03134 ->D0.0; Perimeter ;  perimeter
G1 X117.941 Y109.335 E0.06874 D0 ; ->L0.7938041320124164 ->E0.06874 ->D0.0; Perimeter ;  perimeter
G1 X117.933 Y109.713 E0.03278 D0 ; ->L0.37808464660707924 ->E0.03278 ->D0.0; Perimeter ;  perimeter
G1 X117.812 Y110.477 E0.06696 D0 ; ->L0.7735224625051412 ->E0.06696 ->D0.0; Perimeter ;  perimeter
G1 X117.662 Y110.872 E0.03654 D0 ; ->L0.4225221887664532 ->E0.03654 ->D0.0; Perimeter ;  perimeter
G1 X117.306 Y111.527 E0.06456 D0 ; ->L0.7454937960841845 ->E0.06456 ->D0.0; Perimeter ;  perimeter
G1 X117.039 Y111.8 E0.03303 D0 ; ->L0.38186123133933836 ->E0.03303 ->D0.0; Perimeter ;  perimeter
G1 X116.872 Y112.005 E0.02294 D0 ; ->L0.2644125564340692 ->E0.02294 ->D0.0; Perimeter ;  perimeter
G1 X116.486 Y112.342 E0.04439 D0 ; ->L0.5124109678763705 ->E0.04439 ->D0.0; Perimeter ;  perimeter
G1 X115.465 Y112.837 E0.09819 D0 ; ->L1.1346655895020374 ->E0.09819 ->D0.0; Perimeter ;  perimeter
G1 X114.363 Y112.967 E0.09613 D0 ; ->L1.1096413835109105 ->E0.09613 ->D0.0; Perimeter ;  perimeter
G1 X105.223 Y112.511 E0.79241 D0 ; ->L9.151367985170305 ->E0.79241 ->D0.0; Perimeter ;  perimeter
G1 X105.118 Y112.209 F12000 ; ->0.319732700861198  ;  move to first perimeter point
G1 X55.507 Y109.734 E3.0592 D0 F2400 ; ->L49.67269819528631 ->E3.0592 ->D0.0; Perimeter ;  perimeter
G1 X54.99 Y109.648 E0.03223 D0 ; ->L0.524103997313506 ->E0.03223 ->D0.0; Perimeter ;  perimeter
G1 X54.577 Y109.543 E0.02625 D0 ; ->L0.426138475146285 ->E0.02625 ->D0.0; Perimeter ;  perimeter
G1 X53.749 Y109.084 E0.05834 D0 ; ->L0.9467127336209205 ->E0.05834 ->D0.0; Perimeter ;  perimeter
G1 X53.436 Y108.79 E0.02644 D0 ; ->L0.4294240328626237 ->E0.02644 ->D0.0; Perimeter ;  perimeter
G1 X53.086 Y108.388 E0.03284 D0 ; ->L0.5330140711088234 ->E0.03284 ->D0.0; Perimeter ;  perimeter
G1 X52.748 Y107.739 E0.04504 D0 ; ->L0.7317410744245548 ->E0.04504 ->D0.0; Perimeter ;  perimeter
G1 X52.666 Y107.53 E0.01385 D0 ; ->L0.22451057881534547 ->E0.01385 ->D0.0; Perimeter ;  perimeter
G1 X52.62 Y107.311 E0.01379 D0 ; ->L0.2237789087469982 ->E0.01379 ->D0.0; Perimeter ;  perimeter
G1 X52.523 Y106.599 E0.04424 D0 ; ->L0.7185770661522699 ->E0.04424 ->D0.0; Perimeter ;  perimeter
G1 X52.523 Y94.573 E0.74064 D0 ; ->L12.02600000000001 ->E0.74064 ->D0.0; Perimeter ;  perimeter
G1 X52.588 Y93.945 E0.03889 D0 ; ->L0.6313548922753349 ->E0.03889 ->D0.0; Perimeter ;  perimeter
G1 X52.718 Y93.487 E0.0293 D0 ; ->L0.47609242800111745 ->E0.0293 ->D0.0; Perimeter ;  perimeter
G1 X53.003 Y92.911 E0.03958 D0 ; ->L0.6426515385494619 ->E0.03958 ->D0.0; Perimeter ;  perimeter
G1 X53.279 Y92.532 E0.02889 D0 ; ->L0.4688464567425092 ->E0.02889 ->D0.0; Perimeter ;  perimeter
G1 X53.507 Y92.3 E0.02004 D0 ; ->L0.3252814166225872 ->E0.02004 ->D0.0; Perimeter ;  perimeter
G1 X53.725 Y92.105 E0.01801 D0 ; ->L0.29248760657504597 ->E0.01801 ->D0.0; Perimeter ;  perimeter
G1 X54.133 Y91.833 E0.03019 D0 ; ->L0.4903549734631067 ->E0.03019 ->D0.0; Perimeter ;  perimeter
G1 X56.171 Y90.696 E0.14374 D0 ; ->L2.3337122787524573 ->E0.14374 ->D0.0; Perimeter ;  perimeter
G1 X56.902 Y90.402 E0.04851 D0 ; ->L0.7879067203673291 ->E0.04851 ->D0.0; Perimeter ;  perimeter
G1 X57.385 Y90.325 E0.03013 D0 ; ->L0.4890991719477726 ->E0.03013 ->D0.0; Perimeter ;  perimeter
G1 X57.691 Y90.301 E0.01893 D0 ; ->L0.30693973349829246 ->E0.01893 ->D0.0; Perimeter ;  perimeter
G1 X60.768 Y90.301 E0.18945 D0 ; ->L3.076999999999998 ->E0.18945 ->D0.0; Perimeter ;  perimeter
G1 X61.464 Y90.255 E0.04296 D0 ; ->L0.6975184585371184 ->E0.04296 ->D0.0; Perimeter ;  perimeter
G1 X62.131 Y90.122 E0.04192 D0 ; ->L0.6801308697596375 ->E0.04192 ->D0.0; Perimeter ;  perimeter
G1 X62.781 Y89.901 E0.04229 D0 ; ->L0.6865427881785663 ->E0.04229 ->D0.0; Perimeter ;  perimeter
G1 X63.397 Y89.598 E0.04229 D0 ; ->L0.6864874361559707 ->E0.04229 ->D0.0; Perimeter ;  perimeter
G1 X63.968 Y89.216 E0.04229 D0 ; ->L0.6869970887856873 ->E0.04229 ->D0.0; Perimeter ;  perimeter
G1 X64.486 Y88.763 E0.04237 D0 ; ->L0.6881373409429186 ->E0.04237 ->D0.0; Perimeter ;  perimeter
G1 X64.817 Y88.397 E0.03041 D0 ; ->L0.4934744167634148 ->E0.03041 ->D0.0; Perimeter ;  perimeter
G1 X65.319 Y87.676 E0.0541 D0 ; ->L0.8785470960625928 ->E0.0541 ->D0.0; Perimeter ;  perimeter
G1 X65.675 Y86.928 E0.051 D0 ; ->L0.8283960405506554 ->E0.051 ->D0.0; Perimeter ;  perimeter
G1 X65.843 Y86.412 E0.03343 D0 ; ->L0.5426601146205542 ->E0.03343 ->D0.0; Perimeter ;  perimeter
G1 X65.985 Y85.639 E0.04837 D0 ; ->L0.7859344756403137 ->E0.04837 ->D0.0; Perimeter ;  perimeter
G1 X66.023 Y85.047 E0.03659 D0 ; ->L0.5932183409167304 ->E0.03659 ->D0.0; Perimeter ;  perimeter
G1 X66.023 Y83.759 E0.0793 D0 ; ->L1.2879999999999967 ->E0.0793 ->D0.0; Perimeter ;  perimeter
G1 X66.08 Y83.251 E0.03148 D0 ; ->L0.5111878324060499 ->E0.03148 ->D0.0; Perimeter ;  perimeter
G1 X66.211 Y82.69 E0.03547 D0 ; ->L0.5760920065406289 ->E0.03547 ->D0.0; Perimeter ;  perimeter
G1 X66.391 Y82.371 E0.02258 D0 ; ->L0.3662799475810874 ->E0.02258 ->D0.0; Perimeter ;  perimeter
G1 X66.462 Y82.199 E0.01144 D0 ; ->L0.18607794065928043 ->E0.01144 ->D0.0; Perimeter ;  perimeter
G1 X66.753 Y81.749 E0.03302 D0 ; ->L0.5358927131432193 ->E0.03302 ->D0.0; Perimeter ;  perimeter
G1 X67.147 Y81.355 E0.03431 D0 ; ->L0.5572001435749971 ->E0.03431 ->D0.0; Perimeter ;  perimeter
G1 X67.589 Y81.043 E0.03333 D0 ; ->L0.5410249532137981 ->E0.03333 ->D0.0; Perimeter ;  perimeter
G1 X68.187 Y80.779 E0.04026 D0 ; ->L0.6536818798161718 ->E0.04026 ->D0.0; Perimeter ;  perimeter
G1 X68.611 Y80.668 E0.02701 D0 ; ->L0.4382887176280076 ->E0.02701 ->D0.0; Perimeter ;  perimeter
G1 X68.811 Y80.649 E0.01235 D0 ; ->L0.2009004728715225 ->E0.01235 ->D0.0; Perimeter ;  perimeter
G1 X69.156 Y80.617 E0.02135 D0 F2400 ; ->L0.346480879703338 ->E0.02135 ->D0.0; Perimeter ;  perimeter
G1 X69.702 Y80.662 E0.03371 D0 ; ->L0.5478512571857362 ->E0.03371 ->D0.0; Perimeter ;  perimeter
G1 X70.134 Y80.77 E0.02744 D0 ; ->L0.445295407566707 ->E0.02744 ->D0.0; Perimeter ;  perimeter
G1 X70.722 Y81.025 E0.03945 D0 ; ->L0.6409126305511522 ->E0.03945 ->D0.0; Perimeter ;  perimeter
G1 X116.065 Y106.79 E3.21191 D0 ; ->L52.15192109596731 ->E3.21191 ->D0.0; Perimeter ;  perimeter
G1 X116.862 Y107.44 E0.06332 D0 ; ->L1.0284498043171502 ->E0.06332 ->D0.0; Perimeter ;  perimeter
G1 X116.974 Y107.589 E0.01153 D0 ; ->L0.1864001072961126 ->E0.01153 ->D0.0; Perimeter ;  perimeter
G1 X117.415 Y108.333 E0.05321 D0 ; ->L0.8648797604291604 ->E0.05321 ->D0.0; Perimeter ;  perimeter
G1 X117.511 Y108.627 E0.01904 D0 ; ->L0.30927657525263075 ->E0.01904 ->D0.0; Perimeter ;  perimeter
G1 X117.644 Y109.359 E0.04582 D0 ; ->L0.7439845428501869 ->E0.04582 ->D0.0; Perimeter ;  perimeter
G1 X117.637 Y109.687 E0.02023 D0 ; ->L0.32807468661876676 ->E0.02023 ->D0.0; Perimeter ;  perimeter
G1 X117.524 Y110.4 E0.04448 D0 ; ->L0.7218988848862501 ->E0.04448 ->D0.0; Perimeter ;  perimeter
G1 X117.392 Y110.748 E0.02289 D0 ; ->L0.3721934980625005 ->E0.02289 ->D0.0; Perimeter ;  perimeter
G1 X117.065 Y111.349 E0.04215 D0 ; ->L0.6842002630809182 ->E0.04215 ->D0.0; Perimeter ;  perimeter
G1 X116.818 Y111.602 E0.02179 D0 ; ->L0.35357884552105207 ->E0.02179 ->D0.0; Perimeter ;  perimeter
G1 X116.658 Y111.799 E0.01559 D0 ; ->L0.2537892826736385 ->E0.01559 ->D0.0; Perimeter ;  perimeter
G1 X116.321 Y112.092 E0.02756 D0 ; ->L0.446562425647297 ->E0.02756 ->D0.0; Perimeter ;  perimeter
G1 X115.381 Y112.548 E0.06433 D0 ; ->L1.0447660025096521 ->E0.06433 ->D0.0; Perimeter ;  perimeter
G1 X114.353 Y112.669 E0.06376 D0 ; ->L1.0350966138482005 ->E0.06376 ->D0.0; Perimeter ;  perimeter
G1 X105.237 Y112.215 E0.56209 D0 ; ->L9.127298176349887 ->E0.56209 ->D0.0; Perimeter ;  perimeter
G1 X104.912 Y117.063 F12000 ; ->4.188265153974855  ;  move to first perimeter point
G1 X104.833 Y117.58 E0.04529 D0 F2400 ; ->L0.5230009560220679 ->E0.04529 ->D0.0; Perimeter ;  perimeter
G1 X104.922 Y117.971 E0.0347 D0 ; ->L0.40100124688085936 ->E0.0347 ->D0.0; Perimeter ;  perimeter
G1 X105.338 Y119.086 E0.10306 D0 ; ->L1.1900760479902055 ->E0.10306 ->D0.0; Perimeter ;  perimeter
G1 X105.524 Y119.874 E0.07006 D0 ; ->L0.8096542471944413 ->E0.07006 ->D0.0; Perimeter ;  perimeter
G1 X105.612 Y120.633 E0.06618 D0 ; ->L0.7640844194197389 ->E0.06618 ->D0.0; Perimeter ;  perimeter
G1 X105.595 Y121.694 E0.09194 D0 ; ->L1.0611361835316024 ->E0.09194 ->D0.0; Perimeter ;  perimeter
G1 X105.468 Y122.512 E0.07164 D0 ; ->L0.8278000966416924 ->E0.07164 ->D0.0; Perimeter ;  perimeter
G1 X105.393 Y122.815 E0.027 D0 ; ->L0.31214419744726757 ->E0.027 ->D0.0; Perimeter ;  perimeter
G1 X105.187 Y123.463 E0.05894 D0 ; ->L0.6799558809216936 ->E0.05894 ->D0.0; Perimeter ;  perimeter
G1 X104.933 Y124.048 E0.05514 D0 ; ->L0.6377624949775619 ->E0.05514 ->D0.0; Perimeter ;  perimeter
G1 X104.79 Y124.331 E0.0275 D0 ; ->L0.3170772776469498 ->E0.0275 ->D0.0; Perimeter ;  perimeter
G1 X104.338 Y125.047 E0.07325 D0 ; ->L0.8467349053865693 ->E0.07325 ->D0.0; Perimeter ;  perimeter
G1 X104.186 Y125.197 E0.01851 D0 ; ->L0.21355093069335404 ->E0.01851 ->D0.0; Perimeter ;  perimeter
G1 X103.914 Y125.29 E0.02489 D0 ; ->L0.2874595623735688 ->E0.02489 ->D0.0; Perimeter ;  perimeter
G1 X103.67 Y125.252 E0.02143 D0 ; ->L0.24694128856876227 ->E0.02143 ->D0.0; Perimeter ;  perimeter
G1 X103.466 Y125.113 E0.02134 D0 ; ->L0.24685420798520327 ->E0.02134 ->D0.0; Perimeter ;  perimeter
G1 X102.282 Y123.93 E0.14495 D0 ; ->L1.6737219004362633 ->E0.14495 ->D0.0; Perimeter ;  perimeter
G1 X102.392 Y123.804 E0.01446 D0 ; ->L0.1672602762164438 ->E0.01446 ->D0.0; Perimeter ;  perimeter
G1 X102.687 Y123.36 E0.04613 D0 ; ->L0.5330675379349256 ->E0.04613 ->D0.0; Perimeter ;  perimeter
G1 X102.949 Y122.834 E0.0509 D0 ; ->L0.5876393451769515 ->E0.0509 ->D0.0; Perimeter ;  perimeter
G1 X103.22 Y122.834 E0.02352 D0 ; ->L0.2710000000000008 ->E0.02352 ->D0.0; Perimeter ;  perimeter
G1 X103.49 Y121.58 E0.11107 D0 ; ->L1.282737697270962 ->E0.11107 ->D0.0; Perimeter ;  perimeter
G1 X103.513 Y121.186 E0.03413 D0 ; ->L0.39467074885275394 ->E0.03413 ->D0.0; Perimeter ;  perimeter
G1 X103.485 Y120.471 E0.06195 D0 ; ->L0.7155480417134864 ->E0.06195 ->D0.0; Perimeter ;  perimeter
G1 X103.269 Y119.526 E0.08396 D0 ; ->L0.9693714458348829 ->E0.08396 ->D0.0; Perimeter ;  perimeter
G1 X102.906 Y118.721 E0.07643 D0 ; ->L0.8830594543970343 ->E0.07643 ->D0.0; Perimeter ;  perimeter
G1 X102.648 Y118.314 E0.04175 D0 ; ->L0.4818848410149605 ->E0.04175 ->D0.0; Perimeter ;  perimeter
G1 X102.11 Y117.674 E0.07243 D0 ; ->L0.836088512060762 ->E0.07243 ->D0.0; Perimeter ;  perimeter
G1 X101.459 Y117.138 E0.07295 D0 ; ->L0.8432656758104153 ->E0.07295 ->D0.0; Perimeter ;  perimeter
G1 X101.019 Y116.878 E0.0443 D0 ; ->L0.5110772935672262 ->E0.0443 ->D0.0; Perimeter ;  perimeter
G1 X100.711 Y116.724 E0.02985 D0 ; ->L0.3443544685349722 ->E0.02985 ->D0.0; Perimeter ;  perimeter
G1 X100.236 Y116.537 E0.04419 D0 ; ->L0.5104840839830305 ->E0.04419 ->D0.0; Perimeter ;  perimeter
G1 X99.415 Y116.347 E0.07292 D0 ; ->L0.8426986412710069 ->E0.07292 ->D0.0; Perimeter ;  perimeter
G1 X98.574 Y116.31 E0.07292 D0 ; ->L0.841813518541971 ->E0.07292 ->D0.0; Perimeter ;  perimeter
G1 X98.066 Y116.362 E0.04419 D0 ; ->L0.5106544820130288 ->E0.04419 ->D0.0; Perimeter ;  perimeter
G1 X97.728 Y116.428 E0.02984 D0 ; ->L0.3443835071544597 ->E0.02984 ->D0.0; Perimeter ;  perimeter
G1 X97.235 Y116.56 E0.04418 D0 ; ->L0.510365555264064 ->E0.04418 ->D0.0; Perimeter ;  perimeter
G1 X96.474 Y116.898 E0.07213 D0 ; ->L0.8326854147875952 ->E0.07213 ->D0.0; Perimeter ;  perimeter
G1 X96.165 Y117.089 E0.03142 D0 ; ->L0.3632657429486015 ->E0.03142 ->D0.0; Perimeter ;  perimeter
G1 X95.769 Y117.38 E0.04256 D0 ; ->L0.49142344266426563 ->E0.04256 ->D0.0; Perimeter ;  perimeter
G1 X95.427 Y117.687 E0.0398 D0 ; ->L0.4595791553149473 ->E0.0398 ->D0.0; Perimeter ;  perimeter
G1 X94.916 Y118.282 E0.06788 D0 ; ->L0.7843124377440465 ->E0.06788 ->D0.0; Perimeter ;  perimeter
G1 X94.681 Y118.683 E0.04023 D0 ; ->L0.46478597224960233 ->E0.04023 ->D0.0; Perimeter ;  perimeter
G1 X94.355 Y119.312 E0.06133 D0 ; ->L0.708461008101352 ->E0.06133 ->D0.0; Perimeter ;  perimeter
G1 X94.168 Y119.916 E0.05477 D0 ; ->L0.6322855367632555 ->E0.05477 ->D0.0; Perimeter ;  perimeter
G1 X94.071 Y120.401 E0.04281 D0 ; ->L0.49460489281850123 ->E0.04281 ->D0.0; Perimeter ;  perimeter
G1 X94.033 Y121.173 E0.06693 D0 ; ->L0.772934667355533 ->E0.06693 ->D0.0; Perimeter ;  perimeter
G1 X93.203 Y124.273 E0.27793 D0 ; ->L3.209189928938448 ->E0.27793 ->D0.0; Perimeter ;  perimeter
G1 X91.549 Y123.83 E0.14825 D0 ; ->L1.7122981632881542 ->E0.14825 ->D0.0; Perimeter ;  perimeter
G1 X91.333 Y123.726 E0.02073 D0 ; ->L0.23973318502035418 ->E0.02073 ->D0.0; Perimeter ;  perimeter
G1 X91.188 Y123.572 E0.01831 D0 ; ->L0.21152068456772194 ->E0.01831 ->D0.0; Perimeter ;  perimeter
G1 X91.108 Y123.36 E0.0196 D0 ; ->L0.22659214461229923 ->E0.0196 ->D0.0; Perimeter ;  perimeter
G1 X91.128 Y123.101 E0.02252 D0 ; ->L0.2597710530447918 ->E0.02252 ->D0.0; Perimeter ;  perimeter
G1 X92.149 Y119.291 E0.34153 D0 ; ->L3.9444316447366683 ->E0.34153 ->D0.0; Perimeter ;  perimeter
G1 X92.423 Y118.477 E0.07435 D0 ; ->L0.8588783382994294 ->E0.07435 ->D0.0; Perimeter ;  perimeter
G1 X92.713 Y117.856 E0.05935 D0 ; ->L0.6853765388456239 ->E0.05935 ->D0.0; Perimeter ;  perimeter
G1 X92.912 Y117.495 E0.0357 D0 ; ->L0.41221596281560674 ->E0.0357 ->D0.0; Perimeter ;  perimeter
G1 X93.083 Y117.015 E0.0441 D0 ; ->L0.509549801295223 ->E0.0441 ->D0.0; Perimeter ;  perimeter
G1 X93.06 Y116.492 E0.04532 D0 ; ->L0.5235054918527559 ->E0.04532 ->D0.0; Perimeter ;  perimeter
G1 X92.994 Y116.292 E0.01827 D0 ; ->L0.2106086417980076 ->E0.01827 ->D0.0; Perimeter ;  perimeter
G1 X92.826 Y115.97 E0.03148 D0 ; ->L0.3631914095900451 ->E0.03148 ->D0.0; Perimeter ;  perimeter
G1 X92.694 Y115.802 E0.01848 D0 ; ->L0.2136539257771664 ->E0.01848 ->D0.0; Perimeter ;  perimeter
G1 X92.264 Y115.483 E0.04638 D0 ; ->L0.5354073215786347 ->E0.04638 ->D0.0; Perimeter ;  perimeter
G1 X91.761 Y115.357 E0.0449 D0 ; ->L0.5185412230478897 ->E0.0449 ->D0.0; Perimeter ;  perimeter
G1 X51.547 Y113.345 E3.48635 D0 ; ->L40.26430106185875 ->E3.48635 ->D0.0; Perimeter ;  perimeter
G1 X50.975 Y113.259 E0.05012 D0 ; ->L0.578428906608232 ->E0.05012 ->D0.0; Perimeter ;  perimeter
G1 X50.7 Y113.18 E0.02476 D0 ; ->L0.28612235145125975 ->E0.02476 ->D0.0; Perimeter ;  perimeter
G1 X50.431 Y113.061 E0.0255 D0 ; ->L0.2941462221413066 ->E0.0255 ->D0.0; Perimeter ;  perimeter
G1 X49.939 Y112.778 E0.04913 D0 ; ->L0.5675852358897279 ->E0.04913 ->D0.0; Perimeter ;  perimeter
G1 X49.765 Y112.637 E0.01935 D0 ; ->L0.22395758527007145 ->E0.01935 ->D0.0; Perimeter ;  perimeter
G1 X49.436 Y112.318 E0.03971 D0 ; ->L0.458259751669293 ->E0.03971 ->D0.0; Perimeter ;  perimeter
G1 X49.203 Y112.004 E0.03379 D0 ; ->L0.39100511505604907 ->E0.03379 ->D0.0; Perimeter ;  perimeter
G1 X48.954 Y111.52 E0.0472 D0 ; ->L0.5442949568019253 ->E0.0472 ->D0.0; Perimeter ;  perimeter
G1 X48.845 Y111.238 E0.02613 D0 ; ->L0.3023325983085489 ->E0.02613 ->D0.0; Perimeter ;  perimeter
G1 X48.753 Y110.705 E0.04688 D0 ; ->L0.5408816876175427 ->E0.04688 ->D0.0; Perimeter ;  perimeter
G1 X48.719 Y110.371 E0.02903 D0 ; ->L0.3357260788202222 ->E0.02903 ->D0.0; Perimeter ;  perimeter
G1 X48.719 Y98.979 E0.9864 D0 ; ->L11.391999999999996 ->E0.9864 ->D0.0; Perimeter ;  perimeter
G1 X48.395 Y99.16 E0.03209 D0 ; ->L0.3711293575022027 ->E0.03209 ->D0.0; Perimeter ;  perimeter
G1 X48.274 Y98.999 E0.01742 D0 ; ->L0.2014000993048439 ->E0.01742 ->D0.0; Perimeter ;  perimeter
G1 X47.813 Y98.701 E0.04752 D0 ; ->L0.5489307788783571 ->E0.04752 ->D0.0; Perimeter ;  perimeter
G1 X47.315 Y98.605 E0.04392 D0 ; ->L0.5071686110161024 ->E0.04392 ->D0.0; Perimeter ;  perimeter
G1 X40.045 Y98.605 E0.62954 D0 ; ->L7.269999999999996 ->E0.62954 ->D0.0; Perimeter ;  perimeter
G1 X39.454 Y98.545 E0.05138 D0 ; ->L0.5940378775802109 ->E0.05138 ->D0.0; Perimeter ;  perimeter
G1 X39.171 Y98.476 E0.02525 D0 ; ->L0.291290233272592 ->E0.02525 ->D0.0; Perimeter ;  perimeter
G1 X38.504 Y98.182 E0.06314 D0 ; ->L0.7289204346154664 ->E0.06314 ->D0.0; Perimeter ;  perimeter
G1 X38.172 Y97.945 E0.03535 D0 ; ->L0.40791298091627914 ->E0.03535 ->D0.0; Perimeter ;  perimeter
G1 X37.942 Y97.746 E0.02627 D0 ; ->L0.3041397705003372 ->E0.02627 ->D0.0; Perimeter ;  perimeter
G1 X37.548 Y97.258 E0.0543 D0 ; ->L0.6272001275510061 ->E0.0543 ->D0.0; Perimeter ;  perimeter
G1 X37.353 Y96.839 E0.04005 D0 ; ->L0.4621536541021801 ->E0.04005 ->D0.0; Perimeter ;  perimeter
G1 X55.889 Y86.498 E1.83787 D0 ; ->L21.225446449957182 ->E1.83787 ->D0.0; Perimeter ;  perimeter
G1 X60.814 Y86.498 E0.42648 D0 ; ->L4.924999999999997 ->E0.42648 ->D0.0; Perimeter ;  perimeter
G1 X61.295 Y86.407 E0.04238 D0 ; ->L0.48953242997783414 ->E0.04238 ->D0.0; Perimeter ;  perimeter
G1 X61.739 Y86.132 E0.04527 D0 ; ->L0.5222652582739841 ->E0.04527 ->D0.0; Perimeter ;  perimeter
G1 X62.012 Y85.797 E0.03739 D0 ; ->L0.43215043676942766 ->E0.03739 ->D0.0; Perimeter ;  perimeter
G1 X62.133 Y85.552 E0.02363 D0 ; ->L0.27325080054776746 ->E0.02363 ->D0.0; Perimeter ;  perimeter
G1 X62.219 Y85.093 E0.04046 D0 ; ->L0.4669871518575245 ->E0.04046 ->D0.0; Perimeter ;  perimeter
G1 X62.219 Y76.915 E0.70806 D0 ; ->L8.177999999999997 ->E0.70806 ->D0.0; Perimeter ;  perimeter
G1 X62.269 Y76.402 E0.04466 D0 ; ->L0.5154308877046515 ->E0.04466 ->D0.0; Perimeter ;  perimeter
G1 X62.34 Y76.064 E0.02988 D0 ; ->L0.3453766060404297 ->E0.02988 ->D0.0; Perimeter ;  perimeter
G1 X62.532 Y75.58 E0.04514 D0 ; ->L0.5206918474491339 ->E0.04514 ->D0.0; Perimeter ;  perimeter
G1 X62.689 Y75.301 E0.02774 D0 ; ->L0.32014059411452195 ->E0.02774 ->D0.0; Perimeter ;  perimeter
G1 X62.839 Y75.105 E0.02136 D0 ; ->L0.24681166909204025 ->E0.02136 ->D0.0; Perimeter ;  perimeter
G1 X63.101 Y74.79 E0.03544 D0 ; ->L0.4097181958370885 ->E0.03544 ->D0.0; Perimeter ;  perimeter
G1 X63.233 Y74.673 E0.01525 D0 ; ->L0.17638877515307055 ->E0.01525 ->D0.0; Perimeter ;  perimeter
G1 X63.688 Y74.343 E0.04869 D0 ; ->L0.5620720594372254 ->E0.04869 ->D0.0; Perimeter ;  perimeter
G1 X64.195 Y74.113 E0.04822 D0 ; ->L0.5567306350471406 ->E0.04822 ->D0.0; Perimeter ;  perimeter
G1 X64.461 Y74.029 E0.0241 D0 ; ->L0.2789480238324039 ->E0.0241 ->D0.0; Perimeter ;  perimeter
G1 X65.018 Y73.947 E0.0488 D0 ; ->L0.5630035523866624 ->E0.0488 ->D0.0; Perimeter ;  perimeter
G1 X65.295 Y73.946 E0.02391 D0 ; ->L0.27700180504827143 ->E0.02391 ->D0.0; Perimeter ;  perimeter
G1 X65.857 Y74.023 E0.04917 D0 ; ->L0.5672503856323035 ->E0.04917 ->D0.0; Perimeter ;  perimeter
G1 X66.12 Y74.102 E0.02373 D0 ; ->L0.2746088126772409 ->E0.02373 ->D0.0; Perimeter ;  perimeter
G1 X66.651 Y74.337 E0.05035 D0 ; ->L0.5806771908728557 ->E0.05035 ->D0.0; Perimeter ;  perimeter
G1 X141.652 Y116.955 E7.46929 D0 ; ->L86.2638042576375 ->E7.46929 ->D0.0; Perimeter ;  perimeter
G1 X142.297 Y117.38 E0.06693 D0 ; ->L0.7724312267121332 ->E0.06693 ->D0.0; Perimeter ;  perimeter
G1 X142.916 Y117.919 E0.07109 D0 ; ->L0.8207813350704323 ->E0.07109 ->D0.0; Perimeter ;  perimeter
G1 X143.184 Y118.208 E0.03411 D0 ; ->L0.3941383006001843 ->E0.03411 ->D0.0; Perimeter ;  perimeter
G1 X143.614 Y118.762 E0.06073 D0 ; ->L0.7012959432365256 ->E0.06073 ->D0.0; Perimeter ;  perimeter
G1 X143.964 Y119.35 E0.0592 D0 ; ->L0.6842835669515883 ->E0.0592 ->D0.0; Perimeter ;  perimeter
G1 X144.098 Y119.625 E0.02647 D0 ; ->L0.30591011751821323 ->E0.02647 ->D0.0; Perimeter ;  perimeter
G1 X144.318 Y120.181 E0.05184 D0 ; ->L0.5979431411095846 ->E0.05184 ->D0.0; Perimeter ;  perimeter
G1 X144.486 Y120.808 E0.05616 D0 ; ->L0.6491170926728125 ->E0.05616 ->D0.0; Perimeter ;  perimeter
G1 X144.585 Y121.388 E0.05094 D0 ; ->L0.5883884771135491 ->E0.05094 ->D0.0; Perimeter ;  perimeter
G1 X144.612 Y121.717 E0.02865 D0 ; ->L0.33010604356781326 ->E0.02865 ->D0.0; Perimeter ;  perimeter
G1 X144.613 Y122.35 E0.0548 D0 ; ->L0.6330007898889183 ->E0.0548 ->D0.0; Perimeter ;  perimeter
G1 X144.559 Y122.954 E0.05252 D0 ; ->L0.6064091028340515 ->E0.05252 ->D0.0; Perimeter ;  perimeter
G1 X144.588 Y123.455 E0.04339 D0 ; ->L0.5018386194784182 ->E0.04339 ->D0.0; Perimeter ;  perimeter
G1 X144.72 Y123.795 E0.03159 D0 ; ->L0.36472455360176076 ->E0.03159 ->D0.0; Perimeter ;  perimeter
G1 X144.965 Y124.124 E0.03558 D0 ; ->L0.41020238907153866 ->E0.03558 ->D0.0; Perimeter ;  perimeter
G1 X145.427 Y124.445 E0.04868 D0 ; ->L0.5625699956449762 ->E0.04868 ->D0.0; Perimeter ;  perimeter
G1 X145.951 Y124.552 E0.04627 D0 ; ->L0.5348130514488253 ->E0.04627 ->D0.0; Perimeter ;  perimeter
G1 X159.035 Y124.552 E1.13293 D0 ; ->L13.084000000000003 ->E1.13293 ->D0.0; Perimeter ;  perimeter
G1 X159.035 Y126.06 E0.13051 D0 ; ->L1.5079999999999956 ->E0.13051 ->D0.0; Perimeter ;  perimeter
G1 X144.663 Y126.06 E1.24443 D0 ; ->L14.371999999999986 ->E1.24443 ->D0.0; Perimeter ;  perimeter
G1 X143.92 Y125.969 E0.06484 D0 ; ->L0.7485519354059785 ->E0.06484 ->D0.0; Perimeter ;  perimeter
G1 X143.768 Y125.922 E0.01376 D0 ; ->L0.1591005971076027 ->E0.01376 ->D0.0; Perimeter ;  perimeter
G1 X143.115 Y125.635 E0.0618 D0 ; ->L0.7132867586041286 ->E0.0618 ->D0.0; Perimeter ;  perimeter
G1 X142.707 Y125.328 E0.04414 D0 ; ->L0.5106006267132992 ->E0.04414 ->D0.0; Perimeter ;  perimeter
G1 X142.534 Y125.181 E0.01968 D0 ; ->L0.2270198229230264 ->E0.01968 ->D0.0; Perimeter ;  perimeter
G1 X141.562 Y124.21 E0.11897 D0 ; ->L1.3739086578080684 ->E0.11897 ->D0.0; Perimeter ;  perimeter
G1 X141.78 Y123.936 E0.03024 D0 ; ->L0.35014282800021485 ->E0.03024 ->D0.0; Perimeter ;  perimeter
G1 X141.982 Y123.515 E0.04043 D0 ; ->L0.4669528884159565 ->E0.04043 ->D0.0; Perimeter ;  perimeter
G1 X142.265 Y123.515 E0.02454 D0 ; ->L0.28299999999998704 ->E0.02454 ->D0.0; Perimeter ;  perimeter
G1 X142.433 Y122.804 E0.06331 D0 ; ->L0.7305785378725548 ->E0.06331 ->D0.0; Perimeter ;  perimeter
G1 X142.491 Y122.459 E0.03028 D0 ; ->L0.3498413926338644 ->E0.03028 ->D0.0; Perimeter ;  perimeter
G1 X142.519 Y122.003 E0.03959 D0 ; ->L0.4568588403434942 ->E0.03959 ->D0.0; Perimeter ;  perimeter
G1 X142.446 Y121.333 E0.0583 D0 ; ->L0.6739651326292803 ->E0.0583 ->D0.0; Perimeter ;  perimeter
G1 X142.305 Y120.812 E0.04682 D0 ; ->L0.539742531212798 ->E0.04682 ->D0.0; Perimeter ;  perimeter
G1 X142.047 Y120.232 E0.05495 D0 ; ->L0.6347944549222237 ->E0.05495 ->D0.0; Perimeter ;  perimeter
G1 X141.723 Y119.757 E0.04977 D0 ; ->L0.5749791300560257 ->E0.04977 ->D0.0; Perimeter ;  perimeter
G1 X141.492 Y119.483 E0.03105 D0 ; ->L0.35838108209001646 ->E0.03105 ->D0.0; Perimeter ;  perimeter
G1 X141.181 Y119.18 E0.03759 D0 ; ->L0.43420041455528924 ->E0.03759 ->D0.0; Perimeter ;  perimeter
G1 X140.537 Y118.748 E0.0671 D0 ; ->L0.7754740485664294 ->E0.0671 ->D0.0; Perimeter ;  perimeter
G1 X140.127 Y118.56 E0.03909 D0 ; ->L0.4510476693211019 ->E0.03909 ->D0.0; Perimeter ;  perimeter
G1 X139.387 Y118.354 E0.06648 D0 ; ->L0.76813800843339 ->E0.06648 ->D0.0; Perimeter ;  perimeter
G1 X138.949 Y118.316 E0.03809 D0 ; ->L0.43964531158649856 ->E0.03809 ->D0.0; Perimeter ;  perimeter
G1 X138.596 Y118.316 E0.03052 D0 ; ->L0.35300000000000864 ->E0.03052 ->D0.0; Perimeter ;  perimeter
G1 X138.158 Y118.354 E0.03809 D0 ; ->L0.43964531158652687 ->E0.03809 ->D0.0; Perimeter ;  perimeter
G1 X137.419 Y118.56 E0.06648 D0 ; ->L0.7671746867565207 ->E0.06648 ->D0.0; Perimeter ;  perimeter
G1 X137.008 Y118.748 E0.03909 D0 ; ->L0.45195685634803906 ->E0.03909 ->D0.0; Perimeter ;  perimeter
G1 X136.365 Y119.18 E0.0671 D0 ; ->L0.7746437891056784 ->E0.0671 ->D0.0; Perimeter ;  perimeter
G1 X136.053 Y119.483 E0.0376 D0 ; ->L0.4349172335054174 ->E0.0376 ->D0.0; Perimeter ;  perimeter
G1 X135.822 Y119.757 E0.03105 D0 ; ->L0.35838108208999814 ->E0.03105 ->D0.0; Perimeter ;  perimeter
G1 X135.498 Y120.232 E0.04977 D0 ; ->L0.5749791300560417 ->E0.04977 ->D0.0; Perimeter ;  perimeter
G1 X135.241 Y120.812 E0.05495 D0 ; ->L0.6343886821184518 ->E0.05495 ->D0.0; Perimeter ;  perimeter
G1 X135.099 Y121.333 E0.04682 D0 ; ->L0.5400046296097911 ->E0.04682 ->D0.0; Perimeter ;  perimeter
G1 X135.026 Y122.003 E0.0583 D0 ; ->L0.6739651326292772 ->E0.0583 ->D0.0; Perimeter ;  perimeter
G1 X135.054 Y122.467 E0.04025 D0 ; ->L0.4648440598738444 ->E0.04025 ->D0.0; Perimeter ;  perimeter
G1 X135.269 Y123.515 E0.0927 D0 ; ->L1.069826621467238 ->E0.0927 ->D0.0; Perimeter ;  perimeter
G1 X135.563 Y123.515 E0.02547 D0 ; ->L0.2939999999999827 ->E0.02547 ->D0.0; Perimeter ;  perimeter
G1 X135.765 Y123.936 E0.04043 D0 ; ->L0.4669528884159565 ->E0.04043 ->D0.0; Perimeter ;  perimeter
G1 X135.983 Y124.21 E0.03024 D0 ; ->L0.35014282800023255 ->E0.03024 ->D0.0; Perimeter ;  perimeter
G1 X134.81 Y125.383 E0.1437 D0 ; ->L1.658872508663643 ->E0.1437 ->D0.0; Perimeter ;  perimeter
G1 X134.586 Y125.529 E0.02315 D0 ; ->L0.26737987957210907 ->E0.02315 ->D0.0; Perimeter ;  perimeter
G1 X134.333 Y125.57 E0.02214 D0 ; ->L0.25630060475934696 ->E0.02214 ->D0.0; Perimeter ;  perimeter
G1 X134.09 Y125.481 E0.02239 D0 ; ->L0.2587856255667948 ->E0.02239 ->D0.0; Perimeter ;  perimeter
G1 X133.956 Y125.355 E0.01598 D0 ; ->L0.18393477104669884 ->E0.01598 ->D0.0; Perimeter ;  perimeter
G1 X133.902 Y125.294 E0.00702 D0 ; ->L0.08146778504415768 ->E0.00702 ->D0.0; Perimeter ;  perimeter
G1 X133.583 Y124.754 E0.05431 D0 ; ->L0.6271849806875034 ->E0.05431 ->D0.0; Perimeter ;  perimeter
G1 X133.434 Y124.45 E0.02931 D0 ; ->L0.33855132550324113 ->E0.02931 ->D0.0; Perimeter ;  perimeter
G1 X133.216 Y123.886 E0.05236 D0 ; ->L0.6046651966171059 ->E0.05236 ->D0.0; Perimeter ;  perimeter
G1 X133.117 Y123.551 E0.03027 D0 ; ->L0.34932220084042664 ->E0.03027 ->D0.0; Perimeter ;  perimeter
G1 X132.99 Y122.952 E0.05303 D0 ; ->L0.6123152782676582 ->E0.05303 ->D0.0; Perimeter ;  perimeter
G1 X132.929 Y122.307 E0.05606 D0 ; ->L0.6478780749492884 ->E0.05606 ->D0.0; Perimeter ;  perimeter
G1 X132.933 Y121.719 E0.05092 D0 ; ->L0.5880136052847836 ->E0.05092 ->D0.0; Perimeter ;  perimeter
G1 X133.018 Y120.99 E0.06359 D0 ; ->L0.7339386895374846 ->E0.06359 ->D0.0; Perimeter ;  perimeter
G1 X133.22 Y120.203 E0.07031 D0 ; ->L0.8125103076269166 ->E0.07031 ->D0.0; Perimeter ;  perimeter
G1 X133.546 Y119.408 E0.07449 D0 ; ->L0.859244435536244 ->E0.07449 ->D0.0; Perimeter ;  perimeter
G1 X133.674 Y118.946 E0.04148 D0 ; ->L0.47940379639715697 ->E0.04148 ->D0.0; Perimeter ;  perimeter
G1 X133.632 Y118.465 E0.04179 D0 ; ->L0.4828301978956938 ->E0.04179 ->D0.0; Perimeter ;  perimeter
G1 X133.549 Y118.242 E0.02059 D0 ; ->L0.23794537188186551 ->E0.02059 ->D0.0; Perimeter ;  perimeter
G1 X133.377 Y117.949 E0.02949 D0 ; ->L0.33975432300414177 ->E0.02949 ->D0.0; Perimeter ;  perimeter
G1 X133.246 Y117.793 E0.0176 D0 ; ->L0.20370812453114742 ->E0.0176 ->D0.0; Perimeter ;  perimeter
G1 X132.826 Y117.495 E0.0446 D0 ; ->L0.514979611246906 ->E0.0446 ->D0.0; Perimeter ;  perimeter
G1 X132.341 Y117.378 E0.04318 D0 ; ->L0.49891281803536247 ->E0.04318 ->D0.0; Perimeter ;  perimeter
G1 X106.313 Y116.076 E2.25647 D0 ; ->L26.060544660463265 ->E2.25647 ->D0.0; Perimeter ;  perimeter
G1 X105.8 Y116.151 E0.04493 D0 ; ->L0.5184534694647205 ->E0.04493 ->D0.0; Perimeter ;  perimeter
G1 X105.34 Y116.426 E0.04641 D0 ; ->L0.5359337645642391 ->E0.04641 ->D0.0; Perimeter ;  perimeter
G1 X105.194 Y116.579 E0.01832 D0 ; ->L0.21148285982556048 ->E0.01832 ->D0.0; Perimeter ;  perimeter
G1 X104.961 Y116.953 E0.0382 D0 ; ->L0.44064157770234186 ->E0.0382 ->D0.0; Perimeter ;  perimeter
G1 X105.199 Y117.147 F12000 ; ->0.307050484448406  ;  move to first perimeter point
G1 X105.134 Y117.569 E0.02627 D0 F2400 ; ->L0.42697658015399065 ->E0.02627 ->D0.0; Perimeter ;  perimeter
G1 X105.206 Y117.883 E0.01986 D0 ; ->L0.3221490338337149 ->E0.01986 ->D0.0; Perimeter ;  perimeter
G1 X105.516 Y118.681 E0.05271 D0 ; ->L0.8560981252169662 ->E0.05271 ->D0.0; Perimeter ;  perimeter
G1 X105.623 Y119.006 E0.02104 D0 ; ->L0.34216078092031776 ->E0.02104 ->D0.0; Perimeter ;  perimeter
G1 X105.816 Y119.822 E0.05168 D0 ; ->L0.838513565781737 ->E0.05168 ->D0.0; Perimeter ;  perimeter
G1 X105.908 Y120.618 E0.04933 D0 ; ->L0.8012989454629199 ->E0.04933 ->D0.0; Perimeter ;  perimeter
G1 X105.891 Y121.72 E0.06786 D0 ; ->L1.102131117426601 ->E0.06786 ->D0.0; Perimeter ;  perimeter
G1 X105.759 Y122.57 E0.05303 D0 ; ->L0.860188351467277 ->E0.05303 ->D0.0; Perimeter ;  perimeter
G1 X105.678 Y122.895 E0.02061 D0 ; ->L0.33494178598676266 ->E0.02061 ->D0.0; Perimeter ;  perimeter
G1 X105.465 Y123.568 E0.04345 D0 ; ->L0.7059022595232288 ->E0.04345 ->D0.0; Perimeter ;  perimeter
G1 X105.201 Y124.173 E0.04068 D0 ; ->L0.6600916603018175 ->E0.04068 ->D0.0; Perimeter ;  perimeter
G1 X105.048 Y124.477 E0.02096 D0 ; ->L0.3403307215048308 ->E0.02096 ->D0.0; Perimeter ;  perimeter
G1 X104.571 Y125.234 E0.05509 D0 ; ->L0.8947502444816597 ->E0.05509 ->D0.0; Perimeter ;  perimeter
G1 X104.362 Y125.439 E0.01803 D0 ; ->L0.2927558709915151 ->E0.01803 ->D0.0; Perimeter ;  perimeter
G1 X104.234 Y125.506 E0.00892 D0 ; ->L0.1444749113168131 ->E0.00892 ->D0.0; Perimeter ;  perimeter
G1 X103.985 Y125.582 E0.01602 D0 ; ->L0.260340162095664 ->E0.01602 ->D0.0; Perimeter ;  perimeter
G1 X103.906 Y125.588 E0.00488 D0 ; ->L0.07922752047110258 ->E0.00488 ->D0.0; Perimeter ;  perimeter
G1 X103.561 Y125.529 E0.02153 D0 ; ->L0.3500085713236162 ->E0.02153 ->D0.0; Perimeter ;  perimeter
G1 X103.437 Y125.465 E0.0086 D0 ; ->L0.13954210834010441 ->E0.0086 ->D0.0; Perimeter ;  perimeter
G1 X103.27 Y125.337 E0.01298 D0 ; ->L0.21041150158677296 ->E0.01298 ->D0.0; Perimeter ;  perimeter
G1 X101.877 Y123.943 E0.12134 D0 ; ->L1.97070672602496 ->E0.12134 ->D0.0; Perimeter ;  perimeter
G1 X102.156 Y123.624 E0.02614 D0 ; ->L0.42379476164767255 ->E0.02614 ->D0.0; Perimeter ;  perimeter
G1 X102.43 Y123.211 E0.03052 D0 ; ->L0.49562586696014743 ->E0.03052 ->D0.0; Perimeter ;  perimeter
G1 X102.749 Y122.537 E0.0459 D0 ; ->L0.7456788853118897 ->E0.0459 ->D0.0; Perimeter ;  perimeter
G1 X102.981 Y122.537 E0.01425 D0 ; ->L0.23199999999999932 ->E0.01425 ->D0.0; Perimeter ;  perimeter
G1 X103.196 Y121.54 E0.06284 D0 ; ->L1.0199186242048928 ->E0.06284 ->D0.0; Perimeter ;  perimeter
G1 X103.216 Y121.184 E0.02199 D0 ; ->L0.35656135516907334 ->E0.02199 ->D0.0; Perimeter ;  perimeter
G1 X103.19 Y120.51 E0.04149 D0 ; ->L0.6745012972559723 ->E0.04149 ->D0.0; Perimeter ;  perimeter
G1 X102.987 Y119.621 E0.0562 D0 ; ->L0.9118826678910061 ->E0.0562 ->D0.0; Perimeter ;  perimeter
G1 X102.645 Y118.862 E0.05124 D0 ; ->L0.8324932432158232 ->E0.05124 ->D0.0; Perimeter ;  perimeter
G1 X102.408 Y118.49 E0.02718 D0 ; ->L0.4410816250990257 ->E0.02718 ->D0.0; Perimeter ;  perimeter
G1 X101.9 Y117.885 E0.04864 D0 ; ->L0.7899930379439956 ->E0.04864 ->D0.0; Perimeter ;  perimeter
G1 X101.289 Y117.381 E0.04879 D0 ; ->L0.7920460845178202 ->E0.04879 ->D0.0; Perimeter ;  perimeter
G1 X100.877 Y117.138 E0.02945 D0 ; ->L0.4783231125505045 ->E0.02945 ->D0.0; Perimeter ;  perimeter
G1 X100.59 Y116.994 E0.01977 D0 ; ->L0.3210996729988944 ->E0.01977 ->D0.0; Perimeter ;  perimeter
G1 X100.148 Y116.821 E0.02927 D0 ; ->L0.4746503976612756 ->E0.02927 ->D0.0; Perimeter ;  perimeter
G1 X99.375 Y116.642 E0.04884 D0 ; ->L0.793454472543948 ->E0.04884 ->D0.0; Perimeter ;  perimeter
G1 X98.583 Y116.607 E0.04884 D0 ; ->L0.7927729813761328 ->E0.04884 ->D0.0; Perimeter ;  perimeter
G1 X98.11 Y116.656 E0.02927 D0 ; ->L0.47553128183117427 ->E0.02927 ->D0.0; Perimeter ;  perimeter
G1 X97.795 Y116.717 E0.01977 D0 ; ->L0.3208519907994926 ->E0.01977 ->D0.0; Perimeter ;  perimeter
G1 X97.334 Y116.841 E0.02937 D0 ; ->L0.47738558838741396 ->E0.02937 ->D0.0; Perimeter ;  perimeter
G1 X96.613 Y117.161 E0.04862 D0 ; ->L0.7888225402459098 ->E0.04862 ->D0.0; Perimeter ;  perimeter
G1 X96.331 Y117.335 E0.02039 D0 ; ->L0.3313608305156108 ->E0.02039 ->D0.0; Perimeter ;  perimeter
G1 X95.956 Y117.61 E0.02866 D0 ; ->L0.4650268809434602 ->E0.02866 ->D0.0; Perimeter ;  perimeter
G1 X95.639 Y117.894 E0.02621 D0 ; ->L0.42561132503730215 ->E0.02621 ->D0.0; Perimeter ;  perimeter
G1 X95.159 Y118.454 E0.04545 D0 ; ->L0.7375635565834152 ->E0.04545 ->D0.0; Perimeter ;  perimeter
G1 X94.941 Y118.826 E0.02651 D0 ; ->L0.4311704999185374 ->E0.02651 ->D0.0; Perimeter ;  perimeter
G1 X94.631 Y119.424 E0.04152 D0 ; ->L0.6735755339974999 ->E0.04152 ->D0.0; Perimeter ;  perimeter
G1 X94.456 Y119.989 E0.03639 D0 ; ->L0.5914811915860017 ->E0.03639 ->D0.0; Perimeter ;  perimeter
G1 X94.366 Y120.437 E0.02816 D0 ; ->L0.45695076321196204 ->E0.02816 ->D0.0; Perimeter ;  perimeter
G1 X94.328 Y121.219 E0.04819 D0 ; ->L0.7829227292651518 ->E0.04819 ->D0.0; Perimeter ;  perimeter
G1 X93.412 Y124.636 E0.21789 D0 ; ->L3.5376468167413213 ->E0.21789 ->D0.0; Perimeter ;  perimeter
G1 X91.445 Y124.109 E0.12539 D0 ; ->L2.036373737799634 ->E0.12539 ->D0.0; Perimeter ;  perimeter
G1 X91.155 Y123.97 E0.01987 D0 ; ->L0.32159135560520624 ->E0.01987 ->D0.0; Perimeter ;  perimeter
G1 X90.94 Y123.741 E0.0193 D0 ; ->L0.31411144519103584 ->E0.0193 ->D0.0; Perimeter ;  perimeter
G1 X90.841 Y123.531 E0.01429 D0 ; ->L0.2321658889673462 ->E0.01429 ->D0.0; Perimeter ;  perimeter
G1 X90.809 Y123.38 E0.00955 D0 ; ->L0.15435349040434082 ->E0.00955 ->D0.0; Perimeter ;  perimeter
G1 X90.835 Y123.051 E0.02029 D0 ; ->L0.3300257565705979 ->E0.02029 ->D0.0; Perimeter ;  perimeter
G1 X91.865 Y119.205 E0.2452 D0 ; ->L3.98153437759867 ->E0.2452 ->D0.0; Perimeter ;  perimeter
G1 X92.148 Y118.367 E0.05447 D0 ; ->L0.8844959016298439 ->E0.05447 ->D0.0; Perimeter ;  perimeter
G1 X92.448 Y117.722 E0.04385 D0 ; ->L0.7113543420827707 ->E0.04385 ->D0.0; Perimeter ;  perimeter
G1 X92.641 Y117.373 E0.02453 D0 ; ->L0.3988107320521821 ->E0.02453 ->D0.0; Perimeter ;  perimeter
G1 X92.784 Y116.97 E0.02633 D0 ; ->L0.4276189892883674 ->E0.02633 ->D0.0; Perimeter ;  perimeter
G1 X92.766 Y116.546 E0.02614 D0 ; ->L0.42438190347845134 ->E0.02614 ->D0.0; Perimeter ;  perimeter
G1 X92.72 Y116.408 E0.00896 D0 ; ->L0.14546477236775246 ->E0.00896 ->D0.0; Perimeter ;  perimeter
G1 X92.575 Y116.131 E0.01925 D0 ; ->L0.31265636088203835 ->E0.01925 ->D0.0; Perimeter ;  perimeter
G1 X92.485 Y116.016 E0.00901 D0 ; ->L0.1460308186651004 ->E0.00901 ->D0.0; Perimeter ;  perimeter
G1 X92.135 Y115.756 E0.02688 D0 ; ->L0.43600458713183127 ->E0.02688 ->D0.0; Perimeter ;  perimeter
